AgRoboticsResearch/lerobot/vio_replay_log.csv
step,time,target_x,target_y,target_z,ik_x,ik_y,ik_z,actual_x,actual_y,actual_z,pos_error,ik_error,ik_shoulder_pan,actual_shoulder_pan,ik_shoulder_lift,actual_shoulder_lift,ik_elbow_flex,actual_elbow_flex,ik_wrist_flex,actual_wrist_flex,ik_wrist_roll,actual_wrist_roll,ik_gripper,actual_gripper
0,0.006125211715698242,0.23266238475638684,0.00027513416748371576,0.1985934214826538,0.23266238475638684,0.00027513416748370736,0.19859342148265377,0.23266238475638684,0.00027513416748371576,0.1985934214826538,0.0,2.8999570810637146e-17,-0.08791208791208541,-0.08791208791208792,-80.30769230769229,-80.3076923076923,50.46153846153844,50.46153846153846,40.131868131868146,40.13186813186813,0.08791208791209364,0.08791208791208792,0.0,0.43252595155709345
1,2.033388614654541,0.2325321615629333,0.0003037478027946602,0.1984163540098163,0.23253966081049587,0.00029203795986360297,0.1984050061695028,0.23297723128502434,0.0002756258381951793,0.1961092678828339,0.002349792395027662,1.7948053244174106e-05,-0.0936494931311422,-0.08791208791208792,-80.42925720393033,-80.3076923076923,50.56397808665847,50.989010989010985,40.15137197290757,40.13186813186813,0.104623054741895,0.08791208791208792,0.0,0.43252595155709345
2,4.025205850601196,0.23230525240614602,0.00028604355754381156,0.19839405944421873,0.23230595098018425,0.00027387163491277824,0.19839184840385277,0.2328550432599488,0.00027543691869747996,0.1963604141351903,0.0021066788380401475,1.239081941288233e-05,-0.08828345762851177,-0.08791208791208792,-80.58511940316465,-80.3956043956044,50.61943223795314,50.989010989010985,40.22375573106907,40.13186813186813,0.10218193956381587,0.08791208791208792,0.0,0.43252595155709345
3,6.02117133140564,0.23223855226987303,0.00016430747801303235,0.1984461278286918,0.2322502066853133,0.00011914506815328778,0.19843439929136117,0.2324861691208967,0.00027486660412333216,0.19711272387562107,0.0013606996462635834,4.809394194189206e-05,-0.04562214325249456,-0.08791208791208792,-80.56644512263273,-80.65934065934066,50.55845579279366,50.989010989010985,40.294214334563186,40.13186813186813,0.17924017380464238,0.08791208791208792,0.0,0.43252595155709345
4,8.012984275817871,0.23163838250703236,0.00021884074608907213,0.19833839662920094,0.23163898659668386,0.00012772682330911635,0.1983376707660883,0.2324861691208967,0.00027486660412333216,0.19711272387562107,0.0014913600297326297,9.111881653048994e-05,-0.05076084910496712,-0.08791208791208792,-80.8789872488018,-80.65934065934066,50.595930344038244,50.989010989010985,40.592417984998406,40.13186813186813,0.23884315183791188,0.08791208791208792,0.0,0.43252595155709345
5,10.00916862487793,0.2317254918341215,0.0004240057279574107,0.19803891575060928,0.23172572028985342,0.00029461408651627386,0.19803891540725868,0.2318984502846358,0.00027396357580361064,0.1961855467140735,0.0018674592521971585,0.00012939184312378834,-0.10079964367563753,-0.08791208791208792,-80.93659696980988,-80.83516483516483,50.75613266270236,50.989010989010985,40.4851763596418,40.65934065934066,0.25081020671968,0.08791208791208792,0.0,0.43252595155709345
6,12.033592462539673,0.23182346127999762,0.0003618863302815521,0.19811084975383522,0.23182139898732979,0.00029268070516332684,0.1981090620418046,0.2318984502846358,0.00027396357580361064,0.1961855467140735,0.0019287678855910311,6.925942183816287e-05,-0.1049469535501595,-0.08791208791208792,-80.8032095021057,-80.83516483516483,50.64094109490871,50.989010989010985,40.5193206595719,40.65934065934066,0.36733924801077295,0.08791208791208792,0.0,0.43252595155709345
7,14.029109716415405,0.2321978081804706,0.000606388895503937,0.1977514156064717,0.23219753659612785,0.0005352005362192757,0.19774836092611886,0.23189840580608054,0.00024971536736336094,0.19618511769017227,0.001634058429209479,7.125438462126537e-05,-0.178000523467376,-0.08791208791208792,-80.64366052422099,-80.83516483516483,50.71533906883564,50.989010989010985,40.355987776264584,40.65934065934066,0.40152983118031266,0.26373626373626374,0.0,0.43252595155709345
8,16.021241426467896,0.23265766056257664,0.000856626890352831,0.19736160378344497,0.232660376619794,0.0008006481159970476,0.19735949489013174,0.23189840580608054,0.00024971536736336094,0.19618511769017227,0.0015260828646123427,5.608428992320621e-05,-0.2532307095713026,-0.08791208791208792,-80.50688820761614,-80.83516483516483,50.872535202258895,50.989010989010985,40.08258055197132,40.65934065934066,0.3325966920479523,0.26373626373626374,0.0,0.43252595155709345
9,18.017264366149902,0.23325405054120202,0.0008916557526447394,0.19710775738606312,0.23325439765200806,0.0008487583828001197,0.19710655692833393,0.23212645614823058,0.0002500641958636439,0.19713661710270441,0.0012976678018807595,4.291556738827225e-05,-0.2650448943289043,-0.08791208791208792,-80.32028299485106,-80.83516483516483,51.02778230137037,50.989010989010985,39.708906814080656,40.30769230769231,0.2935073837532286,0.26373626373626374,0.0,0.43252595155709345
10,20.00914978981018,0.23408784886881184,0.0006852397824096868,0.1970429595856068,0.23408807290086173,0.0006827492510399632,0.1970428368835406,0.2330492236490252,0.0008474824354579092,0.19542911150742265,0.0019260245702232563,2.503595945835204e-06,-0.21635576090823982,-0.26373626373626374,-79.88052120944874,-80.48351648351648,50.98817083555459,51.34065934065934,39.33543219302941,39.956043956043956,0.3221138356246795,0.26373626373626374,0.0,0.43252595155709345
11,22.005160570144653,0.23478724352560382,0.0001953668288501409,0.19717846856460705,0.23478704498119518,0.00030368789478422265,0.19717846885204526,0.2339424150840485,0.0008515997251725784,0.1953574160155628,0.0021120154109894773,0.00010832124789283267,-0.10465626039659272,-0.26373626373626374,-79.5402959136155,-80.04395604395604,50.9626044984446,51.34065934065934,38.967782380677974,39.51648351648352,0.3198615001217011,0.26373626373626374,0.0,0.43252595155709345
12,24.029356241226196,0.23647506336956947,-0.0002461397069508711,0.19733241942135618,0.2364750135552492,-1.6301481213443393e-05,0.1973324200312494,0.23465655581436978,0.0008548916690241397,0.19529512721793052,0.002944452299042856,0.0002298382311365262,-0.012055584782813425,-0.26373626373626374,-78.73551482557383,-79.6923076923077,50.945475900530205,51.34065934065934,38.0782055986785,39.16483516483517,0.3463983914053875,0.26373626373626374,0.0,0.43252595155709345
13,26.025251150131226,0.23833102700439884,-0.0009934809190156823,0.19773998223412786,0.23833206863684103,-0.000575731216873336,0.19773998334265858,0.23642323883378144,0.0005598609497496356,0.19519681891388488,0.0035383903598439157,0.0004177510007640825,0.14322560244021712,-0.17582417582417584,-77.85473989374088,-78.9010989010989,50.897083820139336,51.42857142857143,37.05905760173779,38.1978021978022,0.48532000485410465,0.26373626373626374,0.0,0.43252595155709345
14,28.017226457595825,0.24042445532408577,-0.0016635082684823797,0.1980805946693302,0.24042710018653626,-0.0011646862218925077,0.19808059599299255,0.2383798992857253,-4.6468007616634214e-05,0.194974157856976,0.0040552408397537005,0.0004988290583589158,0.3041542752261271,0.0,-76.76719757244378,-77.93406593406593,50.73321991201478,51.42857142857143,36.031422171603374,37.23076923076923,0.6122171453519246,0.26373626373626374,0.0,0.43252595155709345
15,30.01338481903076,0.2423599698654863,-0.002691264743707999,0.19848956501759377,0.24236573920381754,-0.002102875204795639,0.1984895665789302,0.24058889205522738,-0.000689828733628851,0.1948516890269201,0.004514045240795998,0.0005884178232928687,0.5621470341752207,0.17582417582417584,-75.376792816575,-76.79120879120879,50.04308916697348,51.34065934065934,35.55995203389611,36.175824175824175,0.6947942371606937,0.43956043956043955,0.0,0.43252595155709345
16,32.00524878501892,0.24475485591032559,-0.0037938268188572348,0.19862737967763647,0.24476433852379387,-0.0031538912910812618,0.19862738137575414,0.2424488936884101,-0.0019452401873718648,0.1946049030567597,0.0049914980184818224,0.0006400057809668484,0.8493135976817372,0.5274725274725275,-73.87239175257209,-75.47252747252747,49.50378512711037,50.81318681318681,34.77649219789712,35.73626373626374,0.6601042543463668,0.43956043956043955,0.0,0.43252595155709345
17,34.03373122215271,0.2470790377811757,-0.004926108568379231,0.1986528651772413,0.2470942604952837,-0.004145396739720338,0.19865286724891956,0.24505285824567502,-0.002602093549006358,0.19418990601243097,0.005424431198486798,0.0007808602246478039,1.117403038122887,0.7032967032967034,-72.47735022723518,-73.8021978021978,49.06456234599433,50.285714285714285,33.960423281211206,34.94505494505494,0.5312973376471595,0.43956043956043955,0.0,0.43252595155709345
18,36.02546763420105,0.2495521584624016,-0.005976531028933724,0.198607668194861,0.24957397653902624,-0.005055406408246513,0.19860767063913531,0.24745566096893812,-0.00391227508305793,0.1934860014177908,0.005906600115593322,0.0009213829797156719,1.3572364489314186,1.054945054945055,-71.12518388049092,-72.3956043956044,48.77684586983388,50.02197802197802,32.92973200119477,34.065934065934066,0.3798876696851714,0.43956043956043955,0.0,0.43252595155709345
19,38.021448850631714,0.2524322834677453,-0.006934777026041506,0.19892821561300503,0.25246082784533214,-0.005890691087475768,0.1989282183835665,0.24979629436835682,-0.004603002619517354,0.19366439024000298,0.006331940300766914,0.0010444760545891866,1.5663878817104258,1.2307692307692308,-69.42997423124804,-71.07692307692308,48.17432834278289,49.67032967032967,31.904817992089598,33.0989010989011,0.28258983461935727,0.43956043956043955,0.0,0.43252595155709345
20,40.01345086097717,0.2553378081301891,-0.00809245530745203,0.1995224843424823,0.25537748222582835,-0.006823018528455196,0.19952248771102937,0.25283484969499587,-0.005325322822089237,0.19448315380067527,0.006270301063700531,0.0012700566010009138,1.7904623210665114,1.4065934065934067,-67.67585373329236,-69.23076923076923,47.418188674338424,48.879120879120876,30.95664797083603,32.043956043956044,0.3187707740578637,0.43956043956043955,0.0,0.43252595155709345
21,42.005383253097534,0.25849770068964706,-0.009251208863425118,0.20045584745234674,0.25855098869292636,-0.007721204860996471,0.20045585151232861,0.2556203056905195,-0.00672523491949476,0.19512223412517354,0.006565620874694086,0.0015309316963070753,1.9950919510668803,1.7582417582417582,-65.85462766513133,-67.56043956043956,46.63112685284683,48.175824175824175,29.827550275403215,31.076923076923077,0.416097610570275,0.43956043956043955,0.0,0.43252595155709345
22,44.03375244140625,0.26169493182070475,-0.010675710134310186,0.20121130658344472,0.2617654559151369,-0.008890469480185698,0.2012113113207165,0.25885116350128273,-0.00682439249073105,0.19558058439458315,0.007390852333420705,0.0017866331019705036,2.262596994114106,1.7582417582417582,-64.07815621813164,-65.71428571428571,45.93826027598502,47.472527472527474,28.616102681898482,29.934065934065934,0.5249831666465122,0.43956043956043955,0.0,0.43252595155709345
23,46.02955412864685,0.2653819468312479,-0.012280764603376407,0.20190526202600453,0.26547477521392143,-0.010195237680254082,0.2019052675601087,0.26180882852162435,-0.00897048631231066,0.19653748889039807,0.007248317408489129,0.002087591831687528,2.548958822544128,2.2857142857142856,-61.9687790911504,-64.04395604395604,45.01110911419135,46.76923076923077,27.40058737653394,28.791208791208792,0.6950546244255197,0.43956043956043955,0.0,0.43252595155709345
24,48.02136445045471,0.26985996985899635,-0.01411760596872547,0.20219996465229578,0.2699834759305243,-0.01163768104863381,0.2021999712329649,0.2656030752205306,-0.009121908408943578,0.19691330262636428,0.008427748302378,0.002482998461344509,2.8514709443099426,2.2857142857142856,-59.45177833877621,-61.84615384615385,43.97717349138836,45.8021978021978,25.954779304064665,27.64835164835165,0.8296660353066443,0.43956043956043955,0.0,0.43252595155709345
25,50.01737451553345,0.27511922210119355,-0.016368573449748423,0.20243392420231796,0.27528679454857885,-0.013375685962882095,0.2024339321441721,0.2702916760516381,-0.011480527797726734,0.19723297881738253,0.008616729313022866,0.0029975750256210133,3.2050201826043385,2.8131868131868134,-56.5322778950051,-59.20879120879121,42.747925904200216,44.747252747252745,24.287272475530493,26.065934065934066,0.907202029483849,0.7032967032967034,0.0,0.43252595155709345
26,52.00918650627136,0.2800456298552142,-0.018460069714369986,0.20222223126883762,0.28025718414116463,-0.015033042744139073,0.2022222403627136,0.2755923828142099,-0.01319804339836329,0.19739393092202015,0.008416223285871063,0.0034335505050423773,3.5328138299595424,3.1648351648351647,-53.834880360300616,-56.21978021978022,41.655176201784315,43.42857142857143,22.742114167904873,24.483516483516482,0.856806614042113,0.7032967032967034,0.0,0.43252595155709345
27,54.03787326812744,0.2850136251164184,-0.020747310700290435,0.20188431828486267,0.28527563722999916,-0.016905013567113575,0.20188432848068927,0.2803980851935456,-0.014951401531878204,0.19747910928969636,0.00861983979892968,0.0038512202751058155,3.9014100133982246,3.5164835164835164,-51.15500709396564,-53.582417582417584,40.58732709622987,42.285714285714285,21.139496525432246,22.98901098901099,0.6399725699324285,0.7032967032967034,0.0,0.43252595155709345
28,56.02960777282715,0.2895748748996992,-0.022730405989264527,0.2015024125380873,0.2898827322742532,-0.018549117310441926,0.20150242363345347,0.28529854663530974,-0.016771506444851127,0.19795714352507413,0.008146434777241984,0.0041926067283779974,4.211303043088141,3.868131868131868,-48.74102404854754,-51.032967032967036,39.64657786464109,41.23076923076923,19.614036271439858,21.23076923076923,0.38864675394282877,0.7032967032967034,0.0,0.43252595155709345
29,58.025460958480835,0.29440283147956636,-0.02409123167394149,0.20139923676087834,0.2947411660125922,-0.01968167701207913,0.20139924846196558,0.2898809926923591,-0.017818940764046907,0.19674385477544687,0.0090255881086009,0.0044225154123334375,4.387933395907885,4.043956043956044,-46.23051859567468,-48.57142857142857,38.543585362271834,40.35164835164835,18.07733818140427,19.824175824175825,0.25468544052872766,0.43956043956043955,0.0,0.43252595155709345
30,60.017414569854736,0.2984082604008492,-0.025253791546424462,0.20167536356360236,0.29877744583169186,-0.02057575260879947,0.2016753759771328,0.29495940464880877,-0.018955867950011245,0.19541420924152728,0.009526830588893686,0.0046925841691371015,4.512726816588724,4.21978021978022,-44.057835026432706,-45.84615384615385,37.22831588330016,39.2967032967033,17.22285248525229,18.32967032967033,0.3614848787927907,0.3516483516483517,0.0,0.43252595155709345
31,62.0093879699707,0.3024638632819802,-0.02557864181075183,0.20177739665763206,0.3028460528897009,-0.020685199472544782,0.20177740964275176,0.2990715614219461,-0.020062382886896907,0.19587826367707878,0.008759942599518079,0.004908344610332037,4.466234724488738,4.395604395604396,-41.96465686053176,-43.64835164835165,36.04659905182391,37.97802197802198,16.249234095395714,17.36263736263736,0.38974963778326094,0.3516483516483517,0.0,0.43252595155709345
32,64.005300283432,0.3063504041589114,-0.025478480223105286,0.2013373387906509,0.3067320129805517,-0.02048137526406276,0.20133735205084735,0.30310221290118955,-0.02037218734660242,0.19566508292007506,0.008294543992809175,0.005011654743157884,4.3673350119494065,4.395604395604396,-40.11718308777694,-41.53846153846154,35.40506311700329,36.83516483516483,14.794684819607609,16.395604395604394,0.08511709981551951,0.3516483516483517,0.0,0.43252595155709345
33,66.03387951850891,0.3108262091825983,-0.025664225956080595,0.2004596511945195,0.31121466520085533,-0.020501316714246966,0.20045966489469016,0.3067731704956033,-0.02061786181188275,0.1942534569210703,0.008967148991397281,0.005177502285631453,4.303175604071626,4.395604395604396,-37.95558447410076,-39.69230769230769,34.67730270660851,36.30769230769231,13.129985497590742,15.076923076923077,-0.02779661239351308,0.08791208791208792,0.0,0.43252595155709345
34,68.02577614784241,0.31528471442711486,-0.0258802998604088,0.1992986285670964,0.3156819090597801,-0.020520717224399486,0.1992986427891548,0.3113294769153412,-0.02096806854235783,0.1937532668790125,0.008397913821196966,0.005374280380537741,4.238761547576377,4.395604395604396,-35.755248414629364,-37.494505494505496,33.86131342487067,35.51648351648352,11.614250990736233,13.31868131868132,-0.054794407863212144,0.08791208791208792,0.0,0.43252595155709345
35,70.01752877235413,0.31980609978025076,-0.02649971031923824,0.1973250540435312,0.32022033536284017,-0.02094716798085964,0.1973250687776228,0.3156904676941802,-0.021303260552321374,0.19237997787620698,0.008270144856568238,0.005567972479959575,4.266888440563071,4.395604395604396,-33.59636244630453,-35.2967032967033,33.62662261338644,34.72527472527472,9.319711449779835,11.824175824175825,-0.40758235270167736,0.08791208791208792,0.0,0.43252595155709345
36,72.01356911659241,0.3243299465479428,-0.027288003826414556,0.1949588742867999,0.32476332705676686,-0.021571293882466792,0.19495888945652265,0.32023917784990025,-0.021592086513664226,0.19010797167747062,0.008526964213585694,0.00573311357369536,4.335630410752802,4.395604395604396,-31.41396637685797,-33.0989010989011,33.62853135757563,34.54945054945055,6.631153236200328,9.45054945054945,-0.8399119513648498,-0.3516483516483517,0.0,0.43252595155709345
37,74.00557923316956,0.3284209794905547,-0.02845937300293365,0.19157886126699908,0.32888033534185923,-0.02261178176656784,0.191578876784025,0.32477277323323417,-0.021879763148802,0.18773633412983032,0.008447821584788438,0.005865605771443448,4.491992121438269,4.395604395604396,-29.309558649015717,-30.9010989010989,33.92148672587832,34.54945054945055,3.8443522737279525,6.725274725274725,-1.330666134389563,-0.7912087912087912,0.0,0.43252595155709345
