AgRoboticsResearch/lerobot/vio_replay_log.csv
step,time,target_x,target_y,target_z,ik_x,ik_y,ik_z,actual_x,actual_y,actual_z,pos_error,ik_error,ik_shoulder_pan,actual_shoulder_pan,ik_shoulder_lift,actual_shoulder_lift,ik_elbow_flex,actual_elbow_flex,ik_wrist_flex,actual_wrist_flex,ik_wrist_roll,actual_wrist_roll,ik_gripper,actual_gripper
0,0.024684906005859375,0.23333564543996954,-0.00020177658211474744,0.19424368768826275,0.23333564543996954,-0.00020177658211475242,0.19424368768826272,0.23333564543996954,-0.00020177658211474744,0.19424368768826275,0.0,2.8200096422145334e-17,0.04395604395604651,0.04395604395604396,-80.13186813186813,-80.13186813186813,51.252747252747255,51.252747252747255,40.17582417582418,40.175824175824175,0.3076923076923132,0.3076923076923077,0.0,0.7437457741717377
1,0.09251165390014648,0.2347822683602553,-0.0007859769724544437,0.19432324137445983,0.23478266772900544,-0.0006539500587219945,0.19432324172480334,0.23345799607472995,-0.00020186464225781887,0.19234795728708248,0.0024488020594454767,0.00013202751775761331,0.17367620730801006,0.04395604395604396,-79.33853734124168,-80.13186813186813,51.12281237273815,51.604395604395606,39.527886033037134,40.26373626373626,0.3616143915147587,0.3076923076923077,0.0,0.7437457741717377
2,0.15630483627319336,0.23621740441472738,-0.001533419186270482,0.19422400564208933,0.23621914423976528,-0.0012366227560766476,0.19422400642966128,0.23400890395985063,-0.00020227628502562472,0.1895155260662282,0.005368351292438558,0.000296801529591049,0.3362273535314876,0.04395604395604396,-78.67459017849494,-79.86813186813187,51.16952741776358,52.043956043956044,38.76849556722778,40.26373626373626,0.4944941232381165,0.3076923076923077,0.0,0.7437457741717377
3,0.22472643852233887,0.23780453212735417,-0.002313451268818607,0.19427875530694733,0.23780875795732775,-0.0018246615504841678,0.19427875660398808,0.23541973254611073,-0.0002033441792615506,0.18742922147866742,0.007553537888754423,0.0004888079851947064,0.4957006393011299,0.04395604395604396,-77.83390857840372,-78.9010989010989,51.06335046532216,52.043956043956044,38.02283667632729,40.0,0.6748722239068559,0.3076923076923077,0.0,0.7437457741717377
4,0.2924354076385498,0.23945492012907915,-0.0029872083136151754,0.19430524755159903,0.23946223974384678,-0.0023208147845392635,0.19430524931992502,0.2366093680946104,-0.00020425023461363424,0.18777588635844703,0.007646867308969644,0.0006664337269059256,0.6296695838222554,0.04395604395604396,-76.94211199904093,-78.37362637362638,50.930047404066585,52.043956043956044,37.27137473790806,39.2967032967033,0.7669756247234408,0.3076923076923077,0.0,0.7437457741717377
5,0.35655665397644043,0.24134587696645662,-0.003805968839103277,0.19389763280867842,0.2413585727755585,-0.0028702980744771487,0.1938976352915521,0.23790254668643063,-0.0011579403333274825,0.18785405114108014,0.00744267813073191,0.0009357568932959884,0.777742395734234,0.3076923076923077,-76.13264924139762,-77.75824175824175,51.11830030580117,52.043956043956044,36.19258061290255,38.59340659340659,0.8045250400502316,0.5714285714285714,0.0,0.7437457741717377
6,0.4247426986694336,0.2430714668458908,-0.004323490134058013,0.19389792999401328,0.243088265600039,-0.003214293667920214,0.19389793293735064,0.239824248005489,-0.0021055981260394508,0.18758090784646203,0.007440984072644295,0.0011093236672144774,0.8680393834996023,0.5714285714285714,-75.20341498638456,-76.79120879120879,50.980015728795976,52.043956043956044,35.399073746547835,37.62637362637363,0.7940734609930593,0.6593406593406593,0.0,0.7437457741717377
7,0.4885096549987793,0.24481546287594952,-0.004773822953186882,0.19370345622220134,0.24483635784090108,-0.003502936430482931,0.19370345959459556,0.24200459652071915,-0.0021273267987839736,0.18624537080549475,0.008398092024092552,0.0012710582807889815,0.9422919533190928,0.5714285714285714,-74.29917003619265,-75.56043956043956,50.91217503055658,52.043956043956044,34.57053484653941,36.747252747252745,0.7587843323662129,0.6593406593406593,0.0,0.7437457741717377
8,0.5563468933105469,0.2466671118145574,-0.005254719368233879,0.19355661488068743,0.2466930574642031,-0.0037795751177391894,0.19355661879509506,0.24359309278889552,-0.0021431579699495375,0.18554112457454489,0.009131237164442146,0.0014753724060447926,1.0080083306071872,0.5714285714285714,-73.39929170822953,-74.76923076923077,50.910322172080704,52.13186813186813,33.60113375021977,35.956043956043956,0.8141320874388301,0.6593406593406593,0.0,0.7437457741717377
9,0.6245009899139404,0.24861718000078215,-0.005630807879889961,0.19341459097954883,0.2486467098423027,-0.004041105137844307,0.19341459519794615,0.24532903318952315,-0.0021604597313759793,0.18520182078404648,0.009502884825589477,0.0015899769871370766,1.0645493304638547,0.5714285714285714,-72.40294991315781,-73.89010989010988,50.834613668892494,52.13186813186813,32.6404189210593,35.07692307692308,0.9594770510743906,0.6593406593406593,0.0,0.7437457741717377
10,0.6883983612060547,0.25027398054140976,-0.006093911095104658,0.19335177887957386,0.2503084143811602,-0.00436087486618575,0.1933517834783175,0.24705956359015252,-0.002177707499063566,0.18483592116019673,0.009909034243499721,0.00173337827957044,1.1386272943293292,0.5714285714285714,-71.42537175212131,-73.01098901098901,50.569360915254485,52.13186813186813,32.002194710077234,34.1978021978022,1.0709835018979996,0.6593406593406593,0.0,0.7437457741717377
11,0.7563564777374268,0.25217304071968394,-0.0062023644318270725,0.19296554594122758,0.25220919585861784,-0.004378883103349983,0.19296555077997418,0.24888815608952047,-0.0021959318807632895,0.18416792125825812,0.010209807485065581,0.0018238397268946945,1.1362477081119735,0.5714285714285714,-70.49025280671515,-72.04395604395604,50.57480058537582,52.13186813186813,31.034903404280396,33.31868131868132,0.9920320869868398,0.6593406593406593,0.0,0.7437457741717377
12,0.8203155994415283,0.25407165606368215,-0.006409763876939504,0.1928779437101578,0.2541106024958168,-0.004484640127897187,0.19287794881862022,0.2508356505388967,-0.002865997143614984,0.18267635788827052,0.011273968586881488,0.0019255176638319535,1.159333102215764,0.7472527472527473,-69.49809971174757,-70.9010989010989,50.44238390082088,52.13186813186813,30.127491108095246,32.527472527472526,0.8563636028964434,0.6593406593406593,0.0,0.7437457741717377
13,0.8884100914001465,0.2559016958097884,-0.0065786923620169465,0.19273364953499506,0.25594271499361726,-0.004567630581387634,0.19273365487150065,0.2524339309489809,-0.003542449215826119,0.18250192793305156,0.011221955823844564,0.00201148006676139,1.1688498598912933,0.9230769230769231,-68.4478336984324,-70.10989010989012,50.172940278018395,52.13186813186813,29.40855044349568,31.64835164835165,0.927757345367369,0.6593406593406593,0.0,0.7437457741717377
14,0.9565317630767822,0.2578523878785293,-0.00663916964086791,0.19226812165944598,0.25789453095623044,-0.004551520294587953,0.19226812719918257,0.2544355837779741,-0.0035746838979458166,0.18117078348424898,0.012009019015091476,0.0020880746710910374,1.1568271027693908,0.9230769230769231,-67.53386848818513,-68.96703296703296,50.25637262569955,52.13186813186813,28.32023623906842,30.76923076923077,0.8557534378816247,0.6593406593406593,0.0,0.7437457741717377
15,1.020385980606079,0.2598352499927174,-0.00680916790607419,0.19205101788729287,0.25987959048110054,-0.004626356060379383,0.19205102367955035,0.2562523766055838,-0.00360394128953221,0.1798498700171619,0.01311405615057449,0.002183262153899338,1.1640786931246663,0.9230769230769231,-66.5694902191211,-67.91208791208791,50.24288555943223,52.13186813186813,27.243432286468394,29.978021978021978,0.9048702930944603,0.6593406593406593,0.0,0.7437457741717377
16,1.088341236114502,0.2613678640566615,-0.006944361039906595,0.19180737847296428,0.26141345045989023,-0.004743637887205141,0.19180738431275077,0.25814864133028537,-0.0036344825637012455,0.18000783987412644,0.01267074589890935,0.0022011952469123816,1.1870338103991132,0.9230769230769231,-65.70096446636079,-67.03296703296704,50.04200800507077,52.13186813186813,26.626865654522767,28.835164835164836,0.8824840359670153,0.6593406593406593,0.0,0.7437457741717377
17,1.156402349472046,0.26308875218553857,-0.007248131361544705,0.1915087556328267,0.26313715865056375,-0.005044131152885555,0.19150876148130905,0.2600148837740716,-0.0036645368206219445,0.17885268287165984,0.013508034445495606,0.0022045317202662373,1.2585476445000003,0.9230769230769231,-64.759789268445,-65.97802197802197,49.87559580753617,52.13186813186813,25.86832609076578,27.956043956043956,0.7715479811269822,0.6593406593406593,0.0,0.7437457741717377
18,1.2205438613891602,0.26479063005648074,-0.007392231752348976,0.19108903838954777,0.26484025448088294,-0.005170052880717893,0.19108904428626855,0.2616069549059752,-0.0036901761807079307,0.17801811085458014,0.01395314120704869,0.002222732894671695,1.2796463661130903,0.9230769230769231,-63.83221221635804,-65.0989010989011,49.7315773243419,52.13186813186813,25.12060359125971,27.164835164835164,0.809611515465189,0.6593406593406593,0.0,0.7437457741717377
19,1.288496971130371,0.26643602036026864,-0.0076595270478691585,0.1906158863719825,0.26648935716664257,-0.005330000160064341,0.19061589255355949,0.26309612296248674,-0.003714158927105763,0.17745576370232402,0.014138941718406853,0.002330137407098127,1.3119764898019655,0.9230769230769231,-62.988092636281806,-64.3076923076923,49.69952953686144,52.13186813186813,24.283148450547817,26.373626373626372,0.7704479912139108,0.6593406593406593,0.0,0.7437457741717377
20,1.3523151874542236,0.26831418827705295,-0.007710839201008542,0.1901794508169601,0.26836775274673474,-0.005368348688855612,0.19017945703293704,0.26477979683303343,-0.0037412712825831756,0.17573946277831567,0.015387093516799871,0.002343102847076378,1.3102859720168079,0.9230769230769231,-61.86599891836834,-63.252747252747255,49.342896254607325,52.13186813186813,23.664158002714583,25.67032967032967,0.7857994703762301,0.6593406593406593,0.0,0.7437457741717377
21,1.420389175415039,0.26976425960870243,-0.00798086499363841,0.18949038825379258,0.2698209377866752,-0.005594864930915822,0.18949039458522537,0.26617679802570626,-0.0037637688623441616,0.1748960516697418,0.015609242157088013,0.0023866731479636246,1.3611377278579286,0.9230769230769231,-61.0559511418004,-62.46153846153846,49.24643257171656,52.13186813186813,23.050392097844284,24.967032967032967,0.7000416754248532,0.6593406593406593,0.0,0.7437457741717377
22,1.4884798526763916,0.2714967441858653,-0.008280488442228983,0.18859690713672356,0.27155719573880965,-0.00582602458727857,0.18859691364983028,0.26782710760165696,-0.003790343697599381,0.17311882856753588,0.016528718906250166,0.0024552081796772036,1.4112281563383753,0.9230769230769231,-60.17083147713431,-61.40659340659341,49.304277895258295,52.13186813186813,22.12099335680599,24.263736263736263,0.6010432907729003,0.6593406593406593,0.0,0.7437457741717377
23,1.5524861812591553,0.2735281926986246,-0.008341865414794637,0.1882217426758817,0.2735888954645414,-0.00586986749237604,0.18822174923551635,0.2692870153861678,-0.003813853500336083,0.17192199578537307,0.017440533982301783,0.0024727431233904657,1.4070438825825309,0.9230769230769231,-58.94245958714757,-60.527472527472526,48.83637451462192,52.13186813186813,21.510102715347546,23.560439560439562,0.6804755744846279,0.6593406593406593,0.0,0.7437457741717377
24,1.620365858078003,0.2749684332764286,-0.00802773247624213,0.18770441330386334,0.2750249622645221,-0.0056020584450417795,0.18770441974057409,0.2709759876991489,-0.0038410514802527697,0.1703145292178045,0.01832691976236819,0.0024263326301593655,1.3353672216231696,0.9230769230769231,-58.13633717111067,-59.472527472527474,48.67110239341329,52.13186813186813,20.938145287987695,22.76923076923077,0.6266372160035816,0.6593406593406593,0.0,0.7437457741717377
25,1.6844158172607422,0.2768368192498429,-0.008111631634661042,0.18704278837851884,0.27689468918005467,-0.005614839018492751,0.18704279500394816,0.2724884318049628,-0.003865403569810999,0.16766587756495827,0.020307722640074435,0.002497463172304872,1.3281096223082045,0.9230769230769231,-57.089697141794986,-58.32967032967033,48.46132571315859,52.13186813186813,20.17185866315204,22.24175824175824,0.6221483523167465,0.6593406593406593,0.0,0.7437457741717377
26,1.7525575160980225,0.27841958161389657,-0.007892769103462531,0.18639076107588357,0.27847512601071106,-0.005355757525200398,0.18639076780803693,0.27382160247022247,-0.003886872784437456,0.16670051460292862,0.020612967367415965,0.0025376195397062433,1.2545748178037675,0.9230769230769231,-56.186998618744205,-57.53846153846154,48.25801172449221,52.13186813186813,19.57276774745626,21.53846153846154,0.7091876969505202,0.6593406593406593,0.0,0.7437457741717377
27,1.8204562664031982,0.280125153119184,-0.007432098789635199,0.1857715873536653,0.28017490954021335,-0.0049678786860070795,0.185771593892661,0.27544878052674227,-0.003913075267033142,0.16499824695854998,0.02158202164643751,0.0024647223820546986,1.1570958571139776,0.9230769230769231,-55.16985828555512,-56.48351648351648,47.90863816566645,52.13186813186813,19.068039083808074,20.747252747252748,0.6054744257277989,0.6593406593406593,0.0,0.7437457741717377
28,1.8843708038330078,0.2814075349400746,-0.007380025075956602,0.18528260700886404,0.281457041328505,-0.004878481876575273,0.18528261364689946,0.2767365861332476,-0.003933810808995958,0.16289018833400368,0.02313254351860246,0.0025020330255435207,1.1341174106414522,0.9230769230769231,-54.40462582074606,-55.51648351648352,47.65140483661265,52.13186813186813,18.679093756709957,20.21978021978022,0.47542295804937723,0.6593406593406593,0.0,0.7437457741717377
29,1.952385425567627,0.28283800045602614,-0.006970318863363561,0.18474387168949652,0.2828831762681307,-0.004497899692126091,0.18474387825024913,0.2780918719879514,-0.003955638526111803,0.16279901713265157,0.022653712157003326,0.002472831860912692,1.04714914497314,0.9230769230769231,-53.62316172146548,-54.637362637362635,47.50809700677683,51.69230769230769,18.06721868398479,19.86813186813187,0.19826015394660398,0.6593406593406593,0.0,0.7437457741717377
30,2.0204858779907227,0.28406090503986664,-0.006837929342504291,0.18451548455431946,0.2841039300817695,-0.004465122323489832,0.18451549085074362,0.27957343763349257,-0.0039552458445232235,0.16250401568939493,0.022648443422547692,0.002373197063826489,1.039167245876812,0.9230769230769231,-52.93970359506837,-53.75824175824176,47.290272553786735,51.42857142857143,17.608737240734484,19.252747252747252,0.04671844008258492,0.4835164835164835,0.0,0.7437457741717377
31,2.084433078765869,0.2851675763576498,-0.007200536809382102,0.18423182080558465,0.2852133167365488,-0.004887326307084799,0.18423182694386495,0.28076310176325014,-0.003950154712900155,0.162931046542927,0.021992893498003856,0.002313662682898707,1.1331557222256414,0.9230769230769231,-52.273831682946536,-53.142857142857146,47.0128842194607,51.16483516483517,17.30142077609673,18.725274725274726,0.030640578875583194,0.3076923076923077,0.0,0.7437457741717377
32,2.1529223918914795,0.28727742041585597,-0.007064306065788102,0.1845143186984922,0.28732067249963117,-0.004811531511850901,0.18451432467640105,0.28201501420931485,-0.003946064937629781,0.16246442060464739,0.022882621195241627,0.002253189724291673,1.1002761223345754,0.9230769230769231,-51.06458950362808,-52.35164835164835,46.33960598033286,50.9010989010989,16.751077572580062,18.285714285714285,0.21322055638167284,0.13186813186813187,0.0,0.7437457741717377
33,2.2164955139160156,0.2890995104564883,-0.006798341561814847,0.18429375155206948,0.2891395234091239,-0.004589198735738191,0.1842937574141983,0.2832569095589038,-0.003966065914112814,0.1621862717017043,0.023041233385548688,0.0022095051623426767,1.0380150367335046,0.9230769230769231,-50.085634294369946,-51.56043956043956,46.02843130017154,50.54945054945055,16.023524946704235,17.934065934065934,0.32079216117821463,0.13186813186813187,0.0,0.7437457741717377
34,2.284538984298706,0.290513314754687,-0.006990102527234003,0.18394500460632496,0.29055509430182763,-0.00474964025759478,0.18394501055156223,0.2851729286273518,-0.003996922743760531,0.1613629339995422,0.023397195603211726,0.002240851782753951,1.0686752038518403,0.9230769230769231,-49.222865281901484,-50.32967032967033,45.58233296417024,50.10989010989011,15.752410655148662,17.318681318681318,0.32120137403526355,0.13186813186813187,0.0,0.7437457741717377
35,2.3524527549743652,0.2920705176018202,-0.006734516049284318,0.18341359449788355,0.29210949003530845,-0.004548437614909227,0.18341360029880915,0.2866515536332541,-0.004020734608861999,0.16039469611221654,0.02380334982914508,0.002186425798385461,1.0216979665690455,0.9230769230769231,-48.28540819226681,-49.362637362637365,45.139528751325365,49.84615384615385,15.426952638275603,16.791208791208792,0.15840177457369578,0.13186813186813187,0.0,0.7437457741717377
36,2.4163997173309326,0.2935377701688154,-0.006685184599775827,0.1827756171797817,0.29357657355003414,-0.004485075691869818,0.18277562301793832,0.2881324976753692,-0.0040445869013034695,0.1605861811720642,0.02299045013204773,0.002200451069457229,1.0107849748833202,0.9230769230769231,-47.49639867668146,-48.48351648351648,45.00905946683763,49.31868131868132,14.76268395180975,16.439560439560438,-0.13871254350243933,0.13186813186813187,0.0,0.7437457741717377
37,2.484386682510376,0.29486765249451274,-0.006522658360685045,0.18233530388869168,0.2949048331038516,-0.0043401383548272165,0.18233530968017478,0.2897077684955832,-0.004069958951339428,0.16098479853535058,0.022101679033911883,0.002182836680494903,0.9763379516414398,0.9230769230769231,-46.804588829868685,-47.604395604395606,44.905284686776746,48.79120879120879,14.109806439924931,16.0,-0.2428651833967649,0.13186813186813187,0.0,0.7437457741717377
38,2.5483837127685547,0.296534865010773,-0.006513593825111698,0.18201882572506628,0.2965713155415166,-0.004366391425735736,0.18201883142283146,0.2910659172204635,-0.004067581315621073,0.1604134970445208,0.022420584170001392,0.0021475117660003282,0.9729121713025052,0.9230769230769231,-45.902592842701935,-46.81318681318681,44.60272044125198,48.61538461538461,13.467588328519826,15.384615384615385,-0.14657853625917672,-0.04395604395604396,0.0,0.7437457741717377
39,2.6165177822113037,0.2977736752723349,-0.006643427097098952,0.18209788751075076,0.29781020082917764,-0.004574616728031709,0.18209789300049667,0.29233386360812724,-0.0040879993271071445,0.1591790041882201,0.02369381722689422,0.0020691327795704538,1.0118340563250925,0.9230769230769231,-45.21662830351056,-46.02197802197802,44.220181791266235,48.61538461538461,13.139798366961525,14.68131868131868,-0.06525675945872866,-0.04395604395604396,0.0,0.7437457741717377
40,2.684382200241089,0.29918384899708633,-0.006702300931603956,0.18182992008668597,0.2992195257803868,-0.0047455842009114756,0.1818299252789828,0.2933327538309789,-0.004091957601988157,0.15723822668872617,0.025412606932791747,0.0019570419507679176,1.044919743401646,0.9230769230769231,-44.40247859667432,-45.23076923076923,43.79756294162695,48.61538461538461,12.819653725149145,14.241758241758241,-0.09659579312356507,-0.13186813186813187,0.0,0.7437457741717377
41,2.7483813762664795,0.3002381471797746,-0.007303488120966309,0.1815555206561872,0.3002777246349832,-0.005389317148795563,0.18155552573558567,0.2942831118868423,-0.004107257159305454,0.15470702259299673,0.02768610095245431,0.0019145800807716794,1.1848429491831072,0.9230769230769231,-43.73719877861712,-44.35164835164835,43.349217863393115,48.61538461538461,12.766419435209261,13.89010989010989,-0.20010354031087146,-0.13186813186813187,0.0,0.7437457741717377
42,2.8164281845092773,0.3017063942495418,-0.007586473841220419,0.1812705102875335,0.3017472899260248,-0.005712900002902947,0.18127051525920432,0.29527590921122954,-0.004123243908914149,0.15356038085142756,0.028656524087155518,0.001874020113021037,1.2507950108725279,0.9230769230769231,-42.77703680259493,-43.56043956043956,42.549754576923604,48.26373626373626,12.925520956310471,13.802197802197803,-0.26949292849224826,-0.13186813186813187,0.0,0.7437457741717377
43,2.8844971656799316,0.3032655593495766,-0.008056768238466799,0.18066554251472441,0.30331057234724607,-0.006127197342223671,0.1806655476349877,0.2970000650898367,-0.004151020432861908,0.15643164771099655,0.02533363261749033,0.0019300958560687898,1.3367151101657424,0.9230769230769231,-41.89072770135094,-42.857142857142854,42.19945719902325,47.120879120879124,12.462591214243885,13.802197802197803,-0.3900636071050012,-0.13186813186813187,0.0,0.7437457741717377
44,2.948410749435425,0.30488941221747645,-0.00819838119747831,0.1802974091829141,0.3049352395467142,-0.006262746621711547,0.1802974143192678,0.2989110529194784,-0.0041818030934203665,0.15819463949373425,0.023246636477023616,0.0019361769947593185,1.3566216545029472,0.9230769230769231,-41.02056382319191,-41.97802197802198,41.87367565237968,46.24175824175824,11.880514547450117,13.45054945054945,-0.352745059240728,-0.13186813186813187,0.0,0.7437457741717377
45,3.016472578048706,0.3062021450159236,-0.008784914752047308,0.1802393465004665,0.3062514199130195,-0.00687740774380907,0.18023935156218157,0.3004563003815341,-0.004206690524595619,0.15819050049803807,0.023240621284255122,0.0019081433389521417,1.4801032796655729,0.9230769230769231,-40.24644782910322,-41.0989010989011,41.301304006403285,45.714285714285715,11.78550423156773,13.098901098901099,-0.30327234528263686,-0.13186813186813187,0.0,0.7437457741717377
46,3.0806825160980225,0.30772031863483507,-0.009154184163123646,0.18012496122430702,0.3077711466895047,-0.007281739953014805,0.18012496619298024,0.30181589530405584,-0.004228585496902566,0.1572906918594906,0.024094140252657336,0.001873133954402704,1.5552916143766757,0.9230769230769231,-39.36792811266679,-40.21978021978022,40.67735172264569,45.362637362637365,11.639063396293496,12.747252747252746,-0.2169445561458878,-0.13186813186813187,0.0,0.7437457741717377
47,3.1484549045562744,0.3091485194595071,-0.009559660078103717,0.17991662529076838,0.30920384355377806,-0.007585333811973878,0.1799166305297934,0.30310910465655533,-0.005060644743224068,0.15675942979122182,0.024351003542971587,0.0019751012532436252,1.6054709754281231,1.098901098901099,-38.61136304370837,-39.34065934065934,40.34518137352357,44.747252747252745,11.16077758396692,12.747252747252746,-0.015885357982579253,-0.13186813186813187,0.0,0.7437457741717377
48,3.216409921646118,0.3105324761447673,-0.010132281874641174,0.17975928064413907,0.310592551695514,-0.008108686924775512,0.17975928601390231,0.30440745778272643,-0.005900854144097997,0.15638040418427462,0.02453553942956526,0.0020244865010535782,1.700833642862129,1.2747252747252746,-37.87024945723494,-38.54945054945055,39.9794372857481,44.30769230769231,10.744011104742595,12.483516483516484,0.21425158569877048,-0.13186813186813187,0.0,0.7437457741717377
49,3.280461072921753,0.31156206509826834,-0.01032946037740714,0.1797380580248839,0.31162152994728365,-0.00838443434842346,0.17973806318615848,0.30596605980678865,-0.0063456166447748595,0.1564599860703039,0.024270453642874223,0.0019459348194939825,1.751508187186718,1.3626373626373627,-37.210499450533085,-37.75824175824176,39.27498563130063,43.956043956043956,11.035491155464461,11.868131868131869,0.24119155047891327,-0.13186813186813187,0.0,0.7437457741717377
50,3.3483705520629883,0.3126245425729194,-0.010832950079901022,0.17937682077295478,0.31268724576616974,-0.00889839165285732,0.17937682590645274,0.30724740522674904,-0.006788176394771091,0.15681973391209597,0.02353924314526337,0.001935574332883123,1.8567918533137469,1.4505494505494505,-36.60491993739695,-37.05494505494506,38.95490164570142,43.34065934065934,10.812356795199195,11.780219780219781,0.07927923436972112,-0.13186813186813187,0.0,0.7437457741717377
51,3.412440299987793,0.3137545610709346,-0.01094908884879949,0.17913845191357997,0.3138167707902189,-0.009060201349299786,0.17913845692588662,0.3081900513117745,-0.0068241661509082455,0.156431935473851,0.023739516527323114,0.0018899116473964609,1.8866931894978367,1.4505494505494505,-35.946476838114236,-36.43956043956044,38.46878809859096,42.9010989010989,10.766707170760121,11.780219780219781,-0.05451008758829184,-0.04395604395604396,0.0,0.7437457741717377
52,3.4804177284240723,0.3151966223058847,-0.010872317144518579,0.17856885766617878,0.31525627443058835,-0.009053970672115379,0.1785688624912994,0.3091957364823328,-0.006849623982939026,0.15566439382094496,0.024016809841799307,0.0018193246740771983,1.8793166625435909,1.4505494505494505,-35.125852383635255,-35.73626373626374,38.00397874926258,42.46153846153846,10.539038197321878,11.780219780219781,-0.1850625898913414,-0.04395604395604396,0.0,0.7437457741717377
53,3.5485310554504395,0.3161995621761064,-0.011433687338916781,0.1784098043548862,0.3162663833397418,-0.009482338989603965,0.17840980953293747,0.3098199502410684,-0.006865421995469504,0.15395063248592739,0.025686953599153937,0.0019524921122253615,1.9616090498467926,1.4505494505494505,-34.59806298179314,-35.120879120879124,37.756379641199715,42.285714285714285,10.213972055951709,11.780219780219781,-0.21175333669641658,-0.04395604395604396,0.0,0.7437457741717377
54,3.612377643585205,0.31718507159524856,-0.010899861049572539,0.17825606419613343,0.31724502332878085,-0.009057208054455791,0.17825606908575328,0.3110610333612043,-0.0068968392973206855,0.1532391188811012,0.02606483417051317,0.0018436280185520498,1.8638549940350977,1.4505494505494505,-34.08486332246241,-34.32967032967033,37.46109391761627,41.84615384615385,9.996700218889679,11.604395604395604,-0.08933929336828436,-0.04395604395604396,0.0,0.7437457741717377
55,3.6805503368377686,0.31836643026741474,-0.011218514794712503,0.1778427800190794,0.3184263263149918,-0.009450098030273753,0.1778427847117078,0.31205511467076386,-0.00692200424385209,0.15280214539330256,0.026178733543390485,0.0017694308094088878,1.9402216013221398,1.4505494505494505,-33.34048965900896,-33.8021978021978,36.78832642298947,41.75824175824176,10.2075641708027,11.076923076923077,-0.2241958874691103,-0.04395604395604396,0.0,0.7437457741717377
56,3.748485803604126,0.3191126638376105,-0.011552457419286444,0.17743840497925867,0.319175160316882,-0.009770359292712721,0.1774384097081916,0.31324251494057803,-0.006952066556468098,0.15361414566377224,0.024964326069324923,0.00178319363577859,2.0088476641727016,1.4505494505494505,-32.927369680967445,-33.27472527472528,36.6411266271169,41.23076923076923,9.961771581285777,10.901098901098901,-0.5233720179958642,-0.04395604395604396,0.0,0.7437457741717377
57,3.812493324279785,0.32032354689754505,-0.011495483504483803,0.17701207355256252,0.32038561175620994,-0.009711176666940578,0.1770120782873564,0.31464593840859867,-0.006987595773300227,0.15370002305508465,0.024413274838654266,0.0017853859350871499,1.9925206052972877,1.4505494505494505,-32.27311805659674,-32.48351648351648,36.3115673726901,40.527472527472526,9.669120850175878,10.901098901098901,-0.6777978651381431,-0.04395604395604396,0.0,0.7437457741717377
58,3.8805155754089355,0.32109026203674845,-0.011688751739419752,0.17670819436849552,0.321153190600175,-0.009912452227598453,0.17670819908204138,0.31527864304287606,-0.007791913151543412,0.15253116683134094,0.02516920592395063,0.0017774138403348085,2.0293186629693563,1.6263736263736264,-31.830961579125542,-31.956043956043956,36.02424000810358,40.35164835164835,9.595808113240171,10.813186813186814,-0.7282706458067437,-0.4835164835164835,0.0,0.7437457741717377
59,3.9445436000823975,0.3220643675611507,-0.01167104951296789,0.17663177580378,0.3221265499676277,-0.00990965755426233,0.1766317804777675,0.3163844965076677,-0.008249522909382825,0.15229191808407144,0.025226899399230396,0.0017624892294393535,2.0222352773324674,1.7142857142857142,-31.28479944419037,-31.34065934065934,35.544946921811444,40.0,9.623931173090472,10.54945054945055,-0.744300786677416,-0.4835164835164835,0.0,0.7437457741717377
60,4.012428045272827,0.322870887649699,-0.011738994773146307,0.1765926497055691,0.3229343929000058,-0.009939256700113176,0.17659265448131095,0.317289306502208,-0.008276596798705706,0.1521736292270572,0.02528696915348734,0.00180085814221008,2.021253138459822,1.7142857142857142,-30.880663645706914,-30.813186813186814,35.319338944311795,39.56043956043956,9.39263614826607,10.54945054945055,-0.7011237368082339,-0.4835164835164835,0.0,0.7437457741717377
61,4.080734491348267,0.3237864656450469,-0.012025315976847918,0.17673736719946595,0.32385281846191366,-0.010184759072375362,0.17673737208352364,0.3179710218486688,-0.008296995987780085,0.15237785091319525,0.025320066946807274,0.0018417525390050666,2.065004285580467,1.7142857142857142,-30.45019495523598,-30.46153846153846,35.092305711302586,39.20879120879121,9.049281549753706,10.54945054945055,-0.7360637332197808,-0.4835164835164835,0.0,0.7437457741717377
62,4.1447296142578125,0.3240507950973054,-0.012070144920623896,0.1770396510214472,0.3241163477627188,-0.01026254321809191,0.1770396558180557,0.31875274380003227,-0.008320386109419289,0.15201002921685888,0.02585753287480201,0.001808789945505654,2.0772834469807324,1.7142857142857142,-30.3533928896485,-30.021978021978022,35.00411332261074,39.032967032967036,8.940476487225363,10.285714285714286,-0.6848506760746309,-0.4835164835164835,0.0,0.7437457741717377
63,4.212780952453613,0.3244933660549757,-0.012319649875253193,0.1770612160254036,0.32455846532473387,-0.010577377831992776,0.177061220648655,0.31919858167401477,-0.008333728641785557,0.15273949650711066,0.02520849757615053,0.0017434878226334851,2.140200006260767,1.7142857142857142,-30.105372843394115,-29.934065934065934,34.76690601641996,38.94505494505494,8.96492539105238,10.021978021978022,-0.7962943466577985,-0.4835164835164835,0.0,0.7437457741717377
64,4.276539325714111,0.3247728500306011,-0.012493469977998158,0.17731949479601664,0.32483756015000104,-0.010797470108865153,0.17731949929648122,0.3194794857134209,-0.008342132092267064,0.15202018192369982,0.02617839842021048,0.001697233913069198,2.185397547835604,1.7142857142857142,-29.967162032752746,-29.67032967032967,34.56967805041204,38.857142857142854,9.00845478975821,10.021978021978022,-0.914219543796519,-0.4835164835164835,0.0,0.7437457741717377
65,4.344455242156982,0.3248965340483501,-0.012942209630165862,0.17746920794972287,0.32496551779986743,-0.011198636216513876,0.1774692125764275,0.3197674003781231,-0.00835074850206469,0.15250063624929616,0.025900175680046458,0.0017449375366438904,2.2660642900078036,1.7142857142857142,-29.887193156151277,-29.582417582417584,34.41711175399742,38.68131868131868,9.105775651684628,10.021978021978022,-0.9661342492812501,-0.4835164835164835,0.0,0.7437457741717377
66,4.412523508071899,0.32520743543098934,-0.01279962474364878,0.17740189467042428,0.3252747582637628,-0.011078171025689039,0.17740189923843253,0.32032733324628554,-0.008799821948855011,0.154665368164354,0.023595835592146914,0.0017227696499854312,2.2399518803775047,1.8021978021978022,-29.730393607765983,-29.582417582417584,34.334516826855165,38.24175824175824,9.023831426554631,10.021978021978022,-0.9803151595949818,-0.4835164835164835,0.0,0.7437457741717377
67,4.476651430130005,0.3253437534458471,-0.012881132390837343,0.17734873512243585,0.3254122216481636,-0.011138405651693236,0.1773487397468938,0.32066320547527866,-0.008810391380319046,0.1559662969367015,0.022264032079707806,0.001744071209004291,2.2502404582464233,1.8021978021978022,-29.657621113092244,-29.582417582417584,34.30430878128278,37.97802197802198,8.97855724044301,10.021978021978022,-0.9562457425530724,-0.4835164835164835,0.0,0.7437457741717377
68,4.544533014297485,0.3254664822666198,-0.0126302952242504,0.17732487427355165,0.3255327097765255,-0.010908785871180774,0.17732487884170747,0.32113226381565335,-0.008825146457798578,0.15569704226183276,0.022383648590939324,0.0017227827883385001,2.203479486265159,1.8021978021978022,-29.595795083750204,-29.318681318681318,34.25607266114828,37.89010989010989,8.974582500176782,9.846153846153847,-0.9563935795917073,-0.4835164835164835,0.0,0.7437457741717377
69,4.612380027770996,0.3255614408525953,-0.012420942866128958,0.17739958426200111,0.32562706589265433,-0.010678908931534647,0.17739958888462057,0.321191926393846,-0.008827022316567675,0.1553102840077328,0.022802326794539987,0.0017432695933739713,2.15776057675804,1.8021978021978022,-29.56162615437002,-29.23076923076923,34.22602114891191,37.89010989010989,8.945871467825507,9.846153846153847,-0.9878211289883254,-0.4835164835164835,0.0,0.7437457741717377
70,4.676391363143921,0.32556814740952017,-0.01239432077665042,0.17730306369311088,0.3256341085629668,-0.010635863114740712,0.177303068359312,0.321191926393846,-0.008827022316567675,0.1553102840077328,0.022705930656348704,0.0017596943548567575,2.1485658450656606,1.8021978021978022,-29.56041625913188,-29.23076923076923,34.2783959341275,37.89010989010989,8.881396863317027,9.846153846153847,-0.967677526460859,-0.4835164835164835,0.0,0.7437457741717377
71,4.744592189788818,0.3255527121515783,-0.012306896124643939,0.17731697567865334,0.32561747491145016,-0.010568798396405208,0.17731698029082785,0.321191926393846,-0.008827022316567675,0.1553102840077328,0.022702873220012038,0.0017393038630429487,2.1342568975681124,1.8021978021978022,-29.572672920812835,-29.23076923076923,34.28848850027696,37.89010989010989,8.877684347239168,9.846153846153847,-0.9294076457445364,-0.4835164835164835,0.0,0.7437457741717377
72,4.808493375778198,0.32553793808184617,-0.012474881690083206,0.17728966004507915,0.3256046638334714,-0.010706096706395479,0.1772896647386846,0.321191926393846,-0.008827022316567675,0.1553102840077328,0.02269994860329543,0.001770043119381892,2.1607675088862006,1.8021978021978022,-29.573661147833057,-29.23076923076923,34.293038365486545,37.89010989010989,8.880948676047565,9.846153846153847,-0.893856750772155,-0.4835164835164835,0.0,0.7437457741717377
73,4.876408815383911,0.3254717402850539,-0.012451754185104696,0.17725763577553127,0.32553831419536833,-0.010682280725105022,0.17725764047096357,0.321191926393846,-0.008827022316567675,0.1553102840077328,0.022652632025476654,0.001770725391245018,2.1550180472424594,1.8021978021978022,-29.616200951397136,-29.23076923076923,34.36665847164056,37.89010989010989,8.825663528141343,9.846153846153847,-0.8395052205588112,-0.4835164835164835,0.0,0.7437457741717377
74,4.944790601730347,0.32572566381335144,-0.012239681847505266,0.1769938641347162,0.3257895946756676,-0.01051212525020819,0.176993868718919,0.321191926393846,-0.008827022316567675,0.1553102840077328,0.022413805281264333,0.0017287391220314747,2.119712941709977,1.8021978021978022,-29.47323654838517,-29.23076923076923,34.33731519175269,37.89010989010989,8.739825054333677,9.846153846153847,-0.857966858808715,-0.4835164835164835,0.0,0.7437457741717377
75,5.008616924285889,0.32561731511706765,-0.012457469750652586,0.17676575136873554,0.3256836534377848,-0.010697089968758188,0.1767657560400371,0.321191926393846,-0.008827022316567675,0.1553102840077328,0.02220588421122485,0.001761629288278315,2.158480966487138,1.8021978021978022,-29.53484532010533,-29.23076923076923,34.53393792545013,37.89010989010989,8.558777094294069,9.846153846153847,-0.8976381124347563,-0.4835164835164835,0.0,0.7437457741717377
76,5.076676607131958,0.3257281174999024,-0.012434061638306501,0.17692714593539266,0.3257939958762654,-0.010680505222924287,0.17692715058858796,0.321191926393846,-0.008827022316567675,0.1553102840077328,0.022380269927298583,0.0017547934529231642,2.1518636481082702,1.8021978021978022,-29.470477928766645,-29.23076923076923,34.37793231828232,37.89010989010989,8.683663954027173,9.846153846153847,-0.807418021682081,-0.4835164835164835,0.0,0.7437457741717377
77,5.140620946884155,0.32552373197469775,-0.012553208080133244,0.17683702659207817,0.32559106952444666,-0.01077675948468491,0.17683703130601955,0.321191926393846,-0.008827022316567675,0.1553102840077328,0.022272172014142794,0.0017777243762458687,2.171160544312043,1.8021978021978022,-29.57069829605223,-29.23076923076923,34.48983614767615,37.89010989010989,8.67496885571258,9.846153846153847,-0.7554849586603621,-0.4835164835164835,0.0,0.7437457741717377
78,5.208544731140137,0.3254108307657295,-0.012598900738604278,0.1771022016201524,0.32547995776970495,-0.010774398954308224,0.17710220646160657,0.321191926393846,-0.008827022316567675,0.1553102840077328,0.022514748369817643,0.0018258108619464244,2.170155939672954,1.8021978021978022,-29.607275562131818,-29.23076923076923,34.315632332823654,37.89010989010989,8.964747710980769,9.846153846153847,-0.7055868468395413,-0.4835164835164835,0.0,0.7437457741717377
79,5.276719808578491,0.32516715420453224,-0.012731393863672145,0.17681557003312307,0.32523827116219395,-0.010872438915516494,0.17681557496600134,0.321191926393846,-0.008827022316567675,0.1553102840077328,0.022215397371159896,0.0018603147908254046,2.1912253948679155,1.8021978021978022,-29.734376547902116,-29.23076923076923,34.56807359211738,37.89010989010989,8.810133005314597,9.846153846153847,-0.6930687399659605,-0.4835164835164835,0.0,0.7437457741717377
80,5.3406822681427,0.3250767244306363,-0.012861861783253414,0.1770052818617647,0.3251485576794228,-0.01100380843439309,0.17700528679225047,0.321191926393846,-0.008827022316567675,0.1553102840077328,0.022406349930210036,0.0018594413846278136,2.214342692066333,1.8021978021978022,-29.772489466166856,-29.23076923076923,34.48313272845007,37.89010989010989,8.962555054839425,9.846153846153847,-0.5545424259472873,-0.4835164835164835,0.0,0.7437457741717377
81,5.408563137054443,0.32479884310646046,-0.013163984553532312,0.17715634793030324,0.3248730720809013,-0.011289612945207014,0.17715635290409074,0.321191926393846,-0.008827022316567675,0.1553102840077328,0.022562570742839315,0.001875840842600258,2.268208245469876,1.8021978021978022,-29.878247524999384,-29.23076923076923,34.38841762612649,37.89010989010989,9.261115364007432,9.846153846153847,-0.3579094969889256,-0.4835164835164835,0.0,0.7437457741717377
82,5.476629972457886,0.3245880362685266,-0.013342090768267005,0.17703142901973176,0.32466337802482553,-0.011470304709874776,0.17703143398665827,0.321191926393846,-0.008827022316567675,0.1553102840077328,0.02244387546830362,0.001873301745223762,2.305345812279159,1.8021978021978022,-29.94897947364243,-29.23076923076923,34.39523342065582,37.89010989010989,9.41355050129503,9.846153846153847,-0.33300945880835164,-0.4835164835164835,0.0,0.7437457741717377
83,5.5404438972473145,0.324221170381907,-0.013884953424762201,0.1767130989434554,0.3243018734138962,-0.011966106276259676,0.17671310403526208,0.321191926393846,-0.008827022316567675,0.1553102840077328,0.022199988139799454,0.0019205435060717713,2.408693780634441,1.8021978021978022,-30.113672556083632,-29.23076923076923,34.63724559730989,37.89010989010989,9.352807204417623,9.846153846153847,-0.3723566258001091,-0.4835164835164835,0.0,0.7437457741717377
84,5.608544111251831,0.32404930851456715,-0.01398925603870646,0.17638942410952302,0.3241297551903385,-0.012100448119186855,0.17638942912161834,0.321191926393846,-0.008827022316567675,0.1553102840077328,0.021889345285245606,0.0018905203052355089,2.4391869525482015,1.8021978021978022,-30.18312636851138,-29.23076923076923,34.79557534620365,37.89010989010989,9.292282417819026,9.846153846153847,-0.4486221744630622,-0.4835164835164835,0.0,0.7437457741717377
85,5.672496795654297,0.32396083499758516,-0.014228071797562292,0.176297311183185,0.3240444261102222,-0.01229689780124786,0.17629731630770196,0.321191926393846,-0.008827022316567675,0.1553102840077328,0.02184704785583586,0.0019329822757022928,2.4788704794392213,1.8021978021978022,-30.211360989482493,-29.23076923076923,34.825368831878755,37.89010989010989,9.317899775445165,9.846153846153847,-0.43280161822993796,-0.4835164835164835,0.0,0.7437457741717377
86,5.740473508834839,0.32383493175863665,-0.014226451315270719,0.17628624846308644,0.3239194428172809,-0.012270146305400385,0.17628625365429043,0.32114830503419706,-0.010126630447009885,0.15531028055910626,0.02154107062838583,0.0019581295694370915,2.473963613926806,2.065934065934066,-30.29166171889818,-29.23076923076923,34.93792136139085,37.89010989010989,9.244162927942329,9.846153846153847,-0.41020264104225523,-0.4835164835164835,0.0,0.7437457741717377
87,5.8084776401519775,0.3235502534321478,-0.014367199027859712,0.17631965072794117,0.3236358548194861,-0.012406168129032396,0.17631965593168564,0.3211159008994115,-0.010992918367196881,0.1553102782603337,0.02141741286227695,0.0019628983121131828,2.49980636434372,2.241758241758242,-30.441009989335907,-29.23076923076923,35.0492969886815,37.89010989010989,9.270919589659348,9.846153846153847,-0.26837377297334775,-0.4835164835164835,0.0,0.7437457741717377
88,5.872386455535889,0.3234336799295733,-0.014342654437036183,0.1763590860036746,0.3235185147630249,-0.012396335101566562,0.17635909116838083,0.3210987019755967,-0.011426024017990831,0.1553102771110491,0.021377820535431732,0.001948167319461125,2.49615192807955,2.32967032967033,-30.50636317617075,-29.23076923076923,35.091742715034634,37.89010989010989,9.285036670594854,9.846153846153847,-0.17070050399219597,-0.4835164835164835,0.0,0.7437457741717377
89,5.940502166748047,0.3234916656708251,-0.014276379042435597,0.1763176629956663,0.3235768594095532,-0.012308226000274435,0.17631766821830996,0.3210987019755967,-0.011426024017990831,0.1553102771110491,0.021334503995107848,0.001969996033121384,2.478928110428666,2.32967032967033,-30.489977351046342,-29.23076923076923,35.137848078749236,37.89010989010989,9.186475614277736,9.846153846153847,-0.20615809569771942,-0.4835164835164835,0.0,0.7437457741717377
90,6.004615068435669,0.32354094437562086,-0.014332335303318912,0.1762043571770081,0.3236282546734729,-0.01231697538592852,0.1762043625249187,0.3210987019755967,-0.011426024017990831,0.1553102771110491,0.02123614312982483,0.002017250278166648,2.4810040081566664,2.32967032967033,-30.45994605732155,-29.23076923076923,35.16173447587082,37.89010989010989,9.13396503849246,9.846153846153847,-0.23378264946496402,-0.4835164835164835,0.0,0.7437457741717377
91,6.072433233261108,0.32343272042069626,-0.014092414641389696,0.17624013807827796,0.32351935801142184,-0.012049069601344234,0.1762401435004493,0.3210987019755967,-0.011426024017990831,0.1553102771110491,0.021227726236367005,0.002045180927163786,2.428242638747403,2.32967032967033,-30.51734580459305,-29.23076923076923,35.1703528200984,37.89010989010989,9.200012261741826,9.846153846153847,-0.23779226780321855,-0.4835164835164835,0.0,0.7437457741717377
92,6.140427112579346,0.32355590370443277,-0.01400182901429873,0.17637380252231508,0.3236433250813877,-0.011914568123870747,0.17637380806102043,0.3210987019755967,-0.011426024017990831,0.1553102771110491,0.02136222634619919,0.0020890908361987487,2.398697160864476,2.32967032967033,-30.472282638571265,-29.23076923076923,35.12275444533465,37.89010989010989,9.164310219555274,9.846153846153847,-0.18440489861196876,-0.4835164835164835,0.0,0.7437457741717377
93,6.204608917236328,0.32364268527720574,-0.01366879990671885,0.17658402263357592,0.32372739090611813,-0.011586250699763668,0.17658402815977856,0.3210987019755967,-0.011426024017990831,0.1553102771110491,0.021542380167547757,0.002084271153902399,2.32952778115688,2.32967032967033,-30.443755565101647,-29.23076923076923,35.023327542711,37.89010989010989,9.225003840327544,9.846153846153847,-0.09254403128517488,-0.4835164835164835,0.0,0.7437457741717377
94,6.272460699081421,0.323741548825234,-0.013345367714396025,0.17643949852192298,0.3238243307644765,-0.01124858648549678,0.1764395040858913,0.3210987019755967,-0.011426024017990831,0.1553102771110491,0.021380189829028617,0.0020984147281602693,2.2612534432691276,2.32967032967033,-30.42453138821701,-29.23076923076923,35.157771818550835,37.89010989010989,8.994020563999245,9.846153846153847,-0.1031596232434376,-0.4835164835164835,0.0,0.7437457741717377
95,6.338031053543091,0.32389942611091244,-0.01314665819190397,0.17656203608579601,0.3239814574612711,-0.011026859306033546,0.17656204171084353,0.32109750160023853,-0.011450237787621852,0.15530963359596234,0.021503330782496662,0.0021213855045726137,2.2164718535022816,2.32967032967033,-30.3750212194204,-29.23076923076923,35.14909928884513,37.89010989010989,8.881877648618529,9.846153846153847,-0.13739304190506235,-0.3076923076923077,0.0,0.7437457741717377
96,6.404637336730957,0.3241184739339116,-0.012969487998749238,0.17663080874580528,0.32419895545439603,-0.010855935509089549,0.17663081435427744,0.32109691022929676,-0.01146234578402702,0.15530933829424048,0.021587182009085718,0.002115084254047014,2.1810628358541573,2.32967032967033,-30.28006902103279,-29.23076923076923,35.09145601236445,37.89010989010989,8.806198268129469,9.846153846153847,-0.1571407469811719,-0.21978021978021978,0.0,0.7437457741717377
97,6.472660541534424,0.32405730544936007,-0.013074492961944718,0.1768930163626018,0.3241386163710893,-0.01096115746635337,0.17689302197049817,0.32109691022929676,-0.01146234578402702,0.15530933829424048,0.02184532255062632,0.00211489914250071,2.20373997474447,2.32967032967033,-30.325660236406762,-29.23076923076923,35.04758022003833,37.89010989010989,8.866644625079095,9.846153846153847,-0.1974811963727558,-0.21978021978021978,0.0,0.7437457741717377
98,6.538128614425659,0.32411282218046783,-0.01310865713778811,0.17709713331897947,0.32419356742982364,-0.011021478913612048,0.17709713885746559,0.32109691022929676,-0.01146234578402702,0.15530933829424048,0.0220570641294525,0.0020887395086029623,2.215820687189797,2.32967032967033,-30.308608979210387,-29.23076923076923,34.97443962663023,37.89010989010989,8.899385616889132,9.846153846153847,-0.21233719198019044,-0.21978021978021978,0.0,0.7437457741717377
99,6.604630708694458,0.3238605787697469,-0.013222916466379813,0.1771559291629452,0.3239417173895969,-0.011152607260647991,0.17715593465666804,0.32109691022929676,-0.01146234578402702,0.15530933829424048,0.022090971131066336,0.0020718985696696803,2.244724089311508,2.32967032967033,-30.42475311423826,-29.23076923076923,34.99327683845214,37.89010989010989,9.035646959530638,9.846153846153847,-0.23531622746700498,-0.21978021978021978,0.0,0.7437457741717377
100,6.672535419464111,0.32401578861269187,-0.01303670770043463,0.1772379109714844,0.3240938128014495,-0.011021722953368021,0.1772379163183996,0.32109691022929676,-0.01146234578402702,0.15530933829424048,0.02217793421674016,0.0020164948065816988,2.2178603773753607,2.32967032967033,-30.328449639494025,-29.23076923076923,34.81693254624879,37.89010989010989,9.176254399567878,9.846153846153847,-0.2563059288465112,-0.21978021978021978,0.0,0.7437457741717377
101,6.737982988357544,0.32401820886800137,-0.013217689637428764,0.17710438005205278,0.32409828182976125,-0.011181261776431126,0.17710438545586893,0.32109691022929676,-0.01146234578402702,0.15530933829424048,0.022059897166690386,0.0020380014995778624,2.252089967335574,2.32967032967033,-30.31867263042193,-29.23076923076923,34.861758066877925,37.89010989010989,9.125716374221724,9.846153846153847,-0.33829834465816083,-0.21978021978021978,0.0,0.7437457741717377
102,6.804637908935547,0.32409156168752484,-0.013242764490623594,0.17719071418613855,0.3241714094205481,-0.011219749062500346,0.17719071955436372,0.32109691022929676,-0.01146234578402702,0.15530933829424048,0.022156995262210183,0.0020245905963731194,2.2606342519166454,2.32967032967033,-30.26317568653745,-29.23076923076923,34.724396935886496,37.89010989010989,9.259378107872218,9.846153846153847,-0.3890645035572056,-0.21978021978021978,0.0,0.7437457741717377
103,6.871579170227051,0.32414165092435954,-0.013381935309629984,0.17704348659663274,0.32422339983636017,-0.011332779526458718,0.17704349203422343,0.32109691022929676,-0.01146234578402702,0.15530933829424048,0.022030171862183832,0.002050785778268198,2.2849058271859275,2.32967032967033,-30.225302272559606,-29.23076923076923,34.74094699116097,37.89010989010989,9.220278153982674,9.846153846153847,-0.46230779555982654,-0.21978021978021978,0.0,0.7437457741717377
104,6.938036203384399,0.3241260413200646,-0.01327920740582317,0.17696545424877436,0.3242068208475713,-0.011238071603237976,0.17696545966508334,0.32109691022929676,-0.01146234578402702,0.15530933829424048,0.021942287473142554,0.002042733633318021,2.2667045520729707,2.32967032967033,-30.232779176011157,-29.23076923076923,34.7751762243886,37.89010989010989,9.197614756127251,9.846153846153847,-0.4858561933064995,-0.21978021978021978,0.0,0.7437457741717377
105,7.004668235778809,0.3241805636405037,-0.013118297156461414,0.17688666285025423,0.3242592686446333,-0.01110455190937714,0.1768866681938803,0.32109691022929676,-0.01146234578402702,0.15530933829424048,0.02185936934826504,0.0020152827091646716,2.2385654325230404,2.32967032967033,-30.185201802660774,-29.23076923076923,34.70491805772941,37.89010989010989,9.279924520397335,9.846153846153847,-0.45108222243288465,-0.21978021978021978,0.0,0.7437457741717377
106,7.071552515029907,0.32426960328124044,-0.013266804257298596,0.17693971305294987,0.324350031531785,-0.01123223474835612,0.17693971845183473,0.32109691022929676,-0.01146234578402702,0.15530933829424048,0.02193616109955945,0.0020361585867100895,2.264134341109644,2.32967032967033,-30.146501134197738,-29.23076923076923,34.684541550380125,37.89010989010989,9.23375675418283,9.846153846153847,-0.4762659005983475,-0.21978021978021978,0.0,0.7437457741717377
107,7.137953519821167,0.32406063112222205,-0.013346446351659205,0.17693652980641467,0.32414212075708787,-0.011298596891029704,0.17693653524053882,0.32109691022929676,-0.01146234578402702,0.15530933829424048,0.02191047441714517,0.002049470169097523,2.2791189078884377,2.32967032967033,-30.2692345350631,-29.23076923076923,34.82988931042072,37.89010989010989,9.16631304928263,9.846153846153847,-0.4773679906435996,-0.21978021978021978,0.0,0.7437457741717377
108,7.237024545669556,0.32394552651716124,-0.013228078546987234,0.17688606559121492,0.32402589574876034,-0.01118752712032918,0.17688607100597323,0.32109691022929676,-0.01146234578402702,0.15530933829424048,0.021835466282946185,0.0020421335260588053,2.2558503228515807,2.32967032967033,-30.334372678738767,-29.23076923076923,34.91162818916957,37.89010989010989,9.13997373902149,9.846153846153847,-0.40811570155454546,-0.21978021978021978,0.0,0.7437457741717377
109,7.300704002380371,0.3241745518121204,-0.013161547561604632,0.17699754015813243,0.3242548943316127,-0.011103868983840054,0.1769975456183389,0.32109691022929676,-0.01146234578402702,0.15530933829424048,0.021971282722730922,0.0020592464762284866,2.2363531859956933,2.32967032967033,-30.22351641981953,-29.23076923076923,34.793720642800494,37.89010989010989,9.135040547838415,9.846153846153847,-0.37480627527662214,-0.21978021978021978,0.0,0.7437457741717377
110,7.369459629058838,0.32392693627020747,-0.013308552731576181,0.17695515358969846,0.32401007217284467,-0.011197393676463321,0.17695515919181942,0.32109691022929676,-0.01146234578402702,0.15530933829424048,0.021907963102271603,0.002112795336591718,2.2554632750092427,2.32967032967033,-30.351570630778692,-29.23076923076923,34.919731955935944,37.89010989010989,9.127387931067734,9.846153846153847,-0.31811545771332705,-0.21978021978021978,0.0,0.7437457741717377
111,7.437092304229736,0.3241110465552992,-0.013083374307222652,0.17701114841172094,0.324191470067423,-0.011002411742542045,0.1770111539337133,0.32109691022929676,-0.01146234578402702,0.15530933829424048,0.021970009413742147,0.0020825160592261717,2.2135862247681777,2.32967032967033,-30.260053744796735,-29.23076923076923,34.81944689469017,37.89010989010989,9.142378402481619,9.846153846153847,-0.26915672927871515,-0.21978021978021978,0.0,0.7437457741717377
112,7.501152753829956,0.3237069139588825,-0.013114562454404202,0.17693528096331698,0.32378838327088233,-0.011010750764107888,0.17693528654594123,0.32109691022929676,-0.01146234578402702,0.15530933829424048,0.02184544198958921,0.0021053885335149715,2.2180118064696677,2.32967032967033,-30.45052959336009,-29.23076923076923,34.94002143205269,37.89010989010989,9.261619585000506,9.846153846153847,-0.25557248900641105,-0.21978021978021978,0.0,0.7437457741717377
113,7.568961143493652,0.3237852519000282,-0.013239190715663466,0.1768874692898655,0.32386898896043276,-0.011092118773054955,0.17688747498728416,0.32109691022929676,-0.01146234578402702,0.15530933829424048,0.021817426431960916,0.0021487042193038897,2.2337994529464154,2.32967032967033,-30.397000514134007,-29.23076923076923,34.891712933085884,37.89010989010989,9.281237605777598,9.846153846153847,-0.258555670886183,-0.21978021978021978,0.0,0.7437457741717377
114,7.632894277572632,0.3237623734041885,-0.013304149084448054,0.17675747856768506,0.3238468295619405,-0.011150934028342975,0.17675748428140486,0.32109691022929676,-0.01146234578402702,0.15530933829424048,0.021691465015611578,0.0021548707433283495,2.2465395035050664,2.32967032967033,-30.39916774713254,-29.23076923076923,34.93138023829087,37.89010989010989,9.258949827280578,9.846153846153847,-0.28602707181732057,-0.21978021978021978,0.0,0.7437457741717377
115,7.70103645324707,0.32358928332825687,-0.013512330245552083,0.1767727501022444,0.3236754458171863,-0.011356355889678099,0.17677275582328628,0.32109691022929676,-0.01146234578402702,0.15530933829424048,0.02170466324080788,0.0021576953903916767,2.2889431614132527,2.32967032967033,-30.478242385824,-29.23076923076923,34.96488562082432,37.89010989010989,9.321996943432195,9.846153846153847,-0.278715850078603,-0.21978021978021978,0.0,0.7437457741717377
116,7.768847942352295,0.32350995860861587,-0.013533126056649095,0.17656809616323116,0.32359562695260435,-0.011396932174285048,0.17656810183178406,0.32109691022929676,-0.01146234578402702,0.15530933829424048,0.02149524876689703,0.0021379109823010493,2.2968795703206752,2.32967032967033,-30.506541852666054,-29.23076923076923,35.047561839888175,37.89010989010989,9.290216099367731,9.846153846153847,-0.2478482859747719,-0.21978021978021978,0.0,0.7437457741717377
117,7.832821846008301,0.3234809841898776,-0.013499337644014384,0.17671261581841938,0.3235658814388462,-0.011380603971205733,0.1767126214406402,0.32109691022929676,-0.01146234578402702,0.15530933829424048,0.021631769073845897,0.0021204338988063923,2.2949657770040353,2.32967032967033,-30.52860042572133,-29.23076923076923,35.01285044894417,37.89010989010989,9.338189609035396,9.846153846153847,-0.28849999753995126,-0.21978021978021978,0.0,0.7437457741717377
118,7.90071439743042,0.3234082924640339,-0.013320953182172685,0.17675343315735606,0.3234909772441875,-0.011231094794934402,0.17675343870295415,0.32109691022929676,-0.01146234578402702,0.15530933829424048,0.021648235812504447,0.0020914934500519005,2.266075479019486,2.32967032967033,-30.564592266089196,-29.23076923076923,35.0008638967629,37.89010989010989,9.405459225033198,9.846153846153847,-0.3084192927518732,-0.21978021978021978,0.0,0.7437457741717377
119,7.968923330307007,0.323509142413438,-0.013415616494070894,0.17674705311132669,0.3235934055912437,-0.011297740358614534,0.176747058731272,0.32109691022929676,-0.01146234578402702,0.15530933829424048,0.021661249898277782,0.0021195517470213054,2.2787674040057357,2.32967032967033,-30.51836377437293,-29.23076923076923,34.995749665414834,37.89010989010989,9.340444796923528,9.846153846153847,-0.31265450480365736,-0.21978021978021978,0.0,0.7437457741717377
120,8.032909154891968,0.3235675877675735,-0.013377208307204638,0.1767469684573143,0.3236516395174813,-0.01125585895408801,0.1767469740864761,0.32109691022929676,-0.01146234578402702,0.15530933829424048,0.02166432396797896,0.002123013842315351,2.2693394577594974,2.32967032967033,-30.48954073336685,-29.23076923076923,34.976063037626226,37.89010989010989,9.329475222621916,9.846153846153847,-0.29278771762364536,-0.21978021978021978,0.0,0.7437457741717377
121,8.10114312171936,0.32365315224996677,-0.013331653320264364,0.1766902812932166,0.32373776202081894,-0.011182401698533859,0.1766902869964191,0.32109691022929676,-0.01146234578402702,0.15530933829424048,0.021614194582698157,0.002150916396996264,2.254766189973502,2.32967032967033,-30.4533573231828,-29.23076923076923,34.99916627210551,37.89010989010989,9.246943042588079,9.846153846153847,-0.32388608836963617,-0.21978021978021978,0.0,0.7437457741717377
122,8.164827823638916,0.32363526684826716,-0.013207146395512607,0.17684975942683767,0.3237189276362483,-0.011058103914660514,0.1768497651294853,0.32109691022929676,-0.01146234578402702,0.15530933829424048,0.021759534141808982,0.0021506702936491843,2.229723176513212,2.32967032967033,-30.473837245499816,-29.23076923076923,34.96200407573913,37.89010989010989,9.291241849528543,9.846153846153847,-0.31554260488872193,-0.21978021978021978,0.0,0.7437457741717377
123,8.233060598373413,0.32359118177594204,-0.013324477957764938,0.1769666725660125,0.32367621906005595,-0.011157827378081048,0.1769666783153845,0.32109691022929676,-0.01146234578402702,0.15530933829424048,0.02187987784564039,0.0021683187206144447,2.2479690306440583,2.32967032967033,-30.49172176128146,-29.23076923076923,34.91099333408445,37.89010989010989,9.373165179864953,9.846153846153847,-0.23916269466466633,-0.21978021978021978,0.0,0.7437457741717377
124,8.300821304321289,0.32353276038786566,-0.013259211970003244,0.17690499909037316,0.32361727443442767,-0.011094874530388384,0.1769050048336071,0.32109691022929676,-0.01146234578402702,0.15530933829424048,0.021806757193744482,0.0021659868828360625,2.236538423866534,2.32967032967033,-30.54476631927654,-29.23076923076923,35.04750816413361,37.89010989010989,9.227685552475618,9.846153846153847,-0.2662495029989277,-0.21978021978021978,0.0,0.7437457741717377
125,8.364794969558716,0.3234453187583982,-0.013535694910568597,0.1768139523621683,0.32353328150464467,-0.011330363426467455,0.17681395821418303,0.32109691022929676,-0.01146234578402702,0.15530933829424048,0.021731595096324746,0.0022070850458306337,2.284474433967592,2.32967032967033,-30.583115384854903,-29.23076923076923,35.11928037937735,37.89010989010989,9.190579214986107,9.846153846153847,-0.2647372878730289,-0.21978021978021978,0.0,0.7437457741717377
126,8.433123111724854,0.3236192860961063,-0.01333756656672937,0.1768951289326309,0.32370432315116365,-0.01117466269341643,0.17689513467206075,0.32109691022929676,-0.01146234578402702,0.15530933829424048,0.021813417670822823,0.002164574892665506,2.2518524020322417,2.32967032967033,-30.475242509419292,-29.23076923076923,34.928787390121286,37.89010989010989,9.339050804690137,9.846153846153847,-0.26528684398704594,-0.21978021978021978,0.0,0.7437457741717377
127,8.497353315353394,0.32347957650269776,-0.01339462114084706,0.17673191878642774,0.32356502676972254,-0.01123588213885647,0.17673192451480577,0.32109691022929676,-0.01146234578402702,0.15530933829424048,0.021641112299722924,0.0021604295468454294,2.2671418512216848,2.32967032967033,-30.560737305310276,-29.23076923076923,35.11814857497443,37.89010989010989,9.186283307260265,9.846153846153847,-0.33342018085499225,-0.21978021978021978,0.0,0.7437457741717377
128,8.565459251403809,0.32354773041844875,-0.013437800702022112,0.1767617585804802,0.3236328616625832,-0.01129842705682884,0.17676176425747073,0.32109691022929676,-0.01146234578402702,0.15530933829424048,0.02168214191149149,0.0021410667720806035,2.2791083993739027,2.32967032967033,-30.50738848159419,-29.23076923076923,35.01042984140988,37.89010989010989,9.289014492727398,9.846153846153847,-0.33135691527489614,-0.21978021978021978,0.0,0.7437457741717377
129,8.633203268051147,0.32354443846264314,-0.013226179022561813,0.1768930485993312,0.3236255973824757,-0.01116176423890641,0.17689305407741276,0.32109691022929676,-0.01146234578402702,0.15530933829424048,0.02179353235894692,0.0020660094794732633,2.2516882600422714,2.32967032967033,-30.50364039403768,-29.23076923076923,34.91098901412418,37.89010989010989,9.420780728588054,9.846153846153847,-0.33040724777856423,-0.21978021978021978,0.0,0.7437457741717377
130,8.696926832199097,0.3234295446666332,-0.013713891370601665,0.1768963694537709,0.32351578842039547,-0.0116053821871526,0.1768963750488603,0.32109691022929676,-0.01146234578402702,0.15530933829424048,0.021829121723725146,0.002110272248261667,2.3426098991961135,2.32967032967033,-30.556982676010215,-29.23076923076923,34.96646933078853,37.89010989010989,9.404003876894715,9.846153846153847,-0.36333560916239027,-0.21978021978021978,0.0,0.7437457741717377
131,8.764854431152344,0.3235130054617959,-0.013660250452669265,0.17686266702220732,0.32359821137179895,-0.011571876244431546,0.176862672563867,0.32109691022929676,-0.01146234578402702,0.15530933829424048,0.02179941009203563,0.0020901116909779437,2.3367411084556196,2.32967032967033,-30.519911841466268,-29.23076923076923,34.97109774757833,37.89010989010989,9.346226249584573,9.846153846153847,-0.4188484941601934,-0.21978021978021978,0.0,0.7437457741717377
132,8.83318281173706,0.3233934594552535,-0.013758498516669854,0.1767904670152826,0.3234800009190028,-0.01165287196436461,0.17679047260272268,0.32109691022929676,-0.01146234578402702,0.15530933829424048,0.021725223746807434,0.0021074042333524817,2.353900200991504,2.32967032967033,-30.57959879509511,-29.23076923076923,35.050876085167275,37.89010989010989,9.322533480699096,9.846153846153847,-0.4157296585461856,-0.21978021978021978,0.0,0.7437457741717377
133,8.89757251739502,0.3234506690885438,-0.013495724606193466,0.17697044258433253,0.32353514570098924,-0.011392214543947577,0.17697044816615634,0.32109691022929676,-0.01146234578402702,0.15530933829424048,0.02188328698500669,0.00210520566217439,2.300115600148838,2.32967032967033,-30.55969235732,-29.23076923076923,34.95840117667193,37.89010989010989,9.395952284731386,9.846153846153847,-0.38117617922596697,-0.21978021978021978,0.0,0.7437457741717377
134,8.965144872665405,0.32347584342563473,-0.013451551491369642,0.17674023857639487,0.3235608220920936,-0.011320223983312616,0.17674024423203444,0.32109691022929676,-0.01146234578402702,0.15530933829424048,0.021654093132763796,0.0021330209376341533,2.283606772920048,2.32967032967033,-30.55595671437682,-29.23076923076923,35.09387490139542,37.89010989010989,9.220877359973773,9.846153846153847,-0.3148774926772548,-0.21978021978021978,0.0,0.7437457741717377
135,9.028695821762085,0.3233666663500741,-0.013263054541940543,0.17682913599070615,0.3234506790199235,-0.011118016230230544,0.17682914168272834,0.32109691022929676,-0.01146234578402702,0.15530933829424048,0.021713959513995643,0.002146682903325805,2.243265265686104,2.32967032967033,-30.632374078730216,-29.23076923076923,35.15471970759606,37.89010989010989,9.200234736731897,9.846153846153847,-0.293926404922946,-0.21978021978021978,0.0,0.7437457741717377
136,9.097196340560913,0.32363068316109855,-0.01324817591902872,0.17687626206268434,0.32371513531316504,-0.011082776532696256,0.17687626780873617,0.32109691022929676,-0.01146234578402702,0.15530933829424048,0.02178856111299872,0.002167045608276552,2.233807660084939,2.32967032967033,-30.5033155358632,-29.23076923076923,35.05987728909347,37.89010989010989,9.146121188995739,9.846153846153847,-0.28306930624112625,-0.21978021978021978,0.0,0.7437457741717377
137,9.165071964263916,0.32355313292302224,-0.013230153178015578,0.1768065039791327,0.3236377212225102,-0.011055673676477334,0.1768065097492793,0.32109691022929676,-0.01146234578402702,0.15530933829424048,0.021709129540060327,0.0021761241423810295,2.228072666931005,2.32967032967033,-30.545452641996757,-29.23076923076923,35.130016008978764,37.89010989010989,9.110402175927286,9.846153846153847,-0.2506991028026208,-0.21978021978021978,0.0,0.7437457741717377
138,9.228771448135376,0.32343572768084294,-0.0132640532611242,0.17693392616536688,0.3235201965461906,-0.011102303989459375,0.1769339319017329,0.32109691022929676,-0.01146234578402702,0.15530933829424048,0.02182519226721157,0.002163398923636005,2.238017304191629,2.32967032967033,-30.59735829562011,-29.23076923076923,35.079753199218196,37.89010989010989,9.243703781307271,9.846153846153847,-0.23827116763267572,-0.21978021978021978,0.0,0.7437457741717377
139,9.297282457351685,0.323445036125725,-0.013227350997834684,0.1767159725414465,0.32352892338190514,-0.011076563363984169,0.17671597824872493,0.32109691022929676,-0.01146234578402702,0.15530933829424048,0.021607242499307924,0.0021524229411772912,2.233939939340381,2.32967032967033,-30.5916204295498,-29.23076923076923,35.17724407378481,37.89010989010989,9.132374171056544,9.846153846153847,-0.2802330103520407,-0.21978021978021978,0.0,0.7437457741717377
140,9.361237287521362,0.3234960693159177,-0.01366400347105334,0.17676100789951094,0.32358456468609903,-0.011473965874768852,0.17676101371094216,0.32109691022929676,-0.01146234578402702,0.15530933829424048,0.021697405138574564,0.0021918248341774127,2.3143201400698623,2.32967032967033,-30.54264659868801,-29.23076923076923,35.08080788518256,37.89010989010989,9.215515413466228,9.846153846153847,-0.31552761477850944,-0.21978021978021978,0.0,0.7437457741717377
141,9.429224491119385,0.3234986327488423,-0.013701236238697874,0.17661039483440405,0.3235866660148551,-0.011534005311839585,0.17661040058531602,0.32109691022929676,-0.01146234578402702,0.15530933829424048,0.021552631191020584,0.0021690181525955456,2.3264474212923085,2.32967032967033,-30.530895677324207,-29.23076923076923,35.116402145549614,37.89010989010989,9.1854019198817,9.846153846153847,-0.3185311168439503,-0.21978021978021978,0.0,0.7437457741717377
142,9.497173547744751,0.32335353941833855,-0.013454722252871879,0.17655400223417703,0.3234382202467687,-0.011333829402804876,0.17655400786212738,0.32109691022929676,-0.01146234578402702,0.15530933829424048,0.02145687967089535,0.002122582701380708,2.28679498970761,2.32967032967033,-30.590447110024794,-29.23076923076923,35.119524504432945,37.89010989010989,9.299870132539167,9.846153846153847,-0.2958017271121723,-0.21978021978021978,0.0,0.7437457741717377
143,9.560665607452393,0.32340230721896057,-0.013512996776554034,0.17647511895984952,0.32348793194947084,-0.011376024757287715,0.17647512463046722,0.32109691022929676,-0.01146234578402702,0.15530933829424048,0.02138949031552113,0.002138686747897943,2.294876758333906,2.32967032967033,-30.547755376848645,-29.23076923076923,35.07613982544995,37.89010989010989,9.340037455128803,9.846153846153847,-0.2958349317212763,-0.21978021978021978,0.0,0.7437457741717377
144,9.628676891326904,0.3235792744095356,-0.013296859118503692,0.17637037104969064,0.323662693324736,-0.011178362859838323,0.17637037667128147,0.32109691022929676,-0.01146234578402702,0.15530933829424048,0.021286020572757365,0.002120137993957937,2.255303382314065,2.32967032967033,-30.4774010733264,-29.23076923076923,35.127280827830475,37.89010989010989,9.165824201997026,9.846153846153847,-0.3511152483274447,-0.21978021978021978,0.0,0.7437457741717377
145,9.696857690811157,0.32346900860798217,-0.013362725470317258,0.17647335924449578,0.3235541266809872,-0.01120580466109729,0.1764733649680491,0.32109691022929676,-0.01146234578402702,0.15530933829424048,0.021381161718977564,0.0021585996533936007,2.260240129118492,2.32967032967033,-30.52909134872892,-29.23076923076923,35.10166820066472,37.89010989010989,9.261517775392008,9.846153846153847,-0.29932638113530347,-0.21978021978021978,0.0,0.7437457741717377
146,9.760786294937134,0.3234573265636702,-0.01335091818840924,0.176593706476446,0.3235433178343591,-0.011164357351734449,0.17659371227865142,0.32109691022929676,-0.01146234578402702,0.15530933829424048,0.021497967343771223,0.0021882510804631886,2.2524833235945128,2.32967032967033,-30.53288752815384,-29.23076923076923,35.036937492401336,37.89010989010989,9.34462173840069,9.846153846153847,-0.31684292674096204,-0.21978021978021978,0.0,0.7437457741717377
147,9.828765869140625,0.3235786365087835,-0.013246714209254266,0.17640596539894662,0.3236639763802314,-0.011055490653573197,0.17640597121352483,0.32109691022929676,-0.01146234578402702,0.15530933829424048,0.02131690904418989,0.0021928847586373864,2.2306892450592732,2.32967032967033,-30.48570860175045,-29.23076923076923,35.13648823800627,37.89010989010989,9.148988003407652,9.846153846153847,-0.35382594437683457,-0.21978021978021978,0.0,0.7437457741717377
148,9.892738819122314,0.3235344044706542,-0.013231767413323825,0.17666368628292892,0.3236196173951962,-0.01104146140944665,0.17666369209507243,0.32109691022929676,-0.01146234578402702,0.15530933829424048,0.021565723013636143,0.0021919629634560857,2.2283068652129012,2.32967032967033,-30.51054905585956,-29.23076923076923,35.03264635828664,37.89010989010989,9.289269365410957,9.846153846153847,-0.35703636288721574,-0.21978021978021978,0.0,0.7437457741717377
149,9.960771322250366,0.3235363275643273,-0.013301859507845046,0.1766984086822716,0.32362215382512605,-0.011109165994562516,0.17669841450075052,0.32109691022929676,-0.01146234578402702,0.15530933829424048,0.021606177351366718,0.0021943725732582035,2.2418857430365873,2.32967032967033,-30.50412393565488,-29.23076923076923,34.999023727705804,37.89010989010989,9.328850642021663,9.846153846153847,-0.35696384471121234,-0.21978021978021978,0.0,0.7437457741717377
150,10.028837442398071,0.32347843005694815,-0.013267326574903206,0.17672067677516332,0.3235636849995153,-0.011085118695072876,0.1767206825658178,0.32109691022929676,-0.01146234578402702,0.15530933829424048,0.02161885769159822,0.002183872623588484,2.237667877831082,2.32967032967033,-30.539145622591434,-29.23076923076923,35.02732604189567,37.89010989010989,9.32558009789682,9.846153846153847,-0.36251778324536577,-0.21978021978021978,0.0,0.7437457741717377
151,10.092641592025757,0.3234337983921511,-0.013307558354341482,0.17659045783998986,0.32351958281592447,-0.011117790605414455,0.17659046365070505,0.32109691022929676,-0.01146234578402702,0.15530933829424048,0.02148841326938337,0.002191447412473508,2.243784600017847,2.32967032967033,-30.54600496082423,-29.23076923076923,35.04780225881719,37.89010989010989,9.347264078137405,9.846153846153847,-0.33384239181813485,-0.21978021978021978,0.0,0.7437457741717377
152,10.16078782081604,0.32332607275548514,-0.013344388787329717,0.17656286867502727,0.323412913548515,-0.011130818335257565,0.17656287454890474,0.32109691022929676,-0.01146234578402702,0.15530933829424048,0.021452827437926918,0.0022152732268628773,2.2469865719763775,2.32967032967033,-30.581890341265368,-29.23076923076923,35.02764600108383,37.89010989010989,9.455370211526564,9.846153846153847,-0.3245764089486304,-0.21978021978021978,0.0,0.7437457741717377
153,10.224602937698364,0.3234028740757122,-0.013354272522416373,0.1763526571821803,0.3234901130871438,-0.01112869544407263,0.17635266308791825,0.32109691022929676,-0.01146234578402702,0.15530933829424048,0.021253661469589943,0.0022272862359381447,2.2451148915885897,2.32967032967033,-30.527541056304475,-29.23076923076923,35.04535865137052,37.89010989010989,9.410278482148062,9.846153846153847,-0.2944142080080274,-0.21978021978021978,0.0,0.7437457741717377
154,10.292691469192505,0.323479035990296,-0.013189983054329803,0.17646169472327328,0.32356510170256914,-0.010960560914120041,0.17646170063921437,0.32109691022929676,-0.01146234578402702,0.15530933829424048,0.021356063218201063,0.00223108278334121,2.2111392309113898,2.32967032967033,-30.491503402881715,-29.23076923076923,34.963625836727786,37.89010989010989,9.463243487068612,9.846153846153847,-0.30875096807037006,-0.21978021978021978,0.0,0.7437457741717377
155,10.360791444778442,0.3234298281936725,-0.013075705378641528,0.17622057600347604,0.32351571211669955,-0.010825218089069683,0.17622058197531515,0.32109691022929676,-0.01146234578402702,0.15530933829424048,0.021102732001856937,0.002252125460269611,2.1858445509252635,2.32967032967033,-30.528916738267114,-29.23076923076923,35.13841448240437,37.89010989010989,9.28695959082407,9.846153846153847,-0.3636232144499101,-0.21978021978021978,0.0,0.7437457741717377
156,10.424686908721924,0.3233946668197218,-0.012939229020623466,0.17637216579519377,0.3234790335927736,-0.010700202303364225,0.17637217173662134,0.32109691022929676,-0.01146234578402702,0.15530933829424048,0.0212391989438937,0.0022406156281324042,2.158252910033393,2.32967032967033,-30.550352716578384,-29.23076923076923,35.07946667237316,37.89010989010989,9.376695784329327,9.846153846153847,-0.26466585197434367,-0.21978021978021978,0.0,0.7437457741717377
157,10.492675065994263,0.32333040886656517,-0.012980363727739513,0.1762562984137605,0.3234153559259011,-0.010731765400881365,0.1762563043805871,0.32109691022929676,-0.01146234578402702,0.15530933829424048,0.021120322745850146,0.002250202310565582,2.1638411966746256,2.32967032967033,-30.57982285433786,-29.23076923076923,35.148900332299654,37.89010989010989,9.338454818416196,9.846153846153847,-0.21997247539456424,-0.21978021978021978,0.0,0.7437457741717377
158,10.560755491256714,0.32315953993466195,-0.012867105684571754,0.17618173771228113,0.32324307064788044,-0.010639844673081059,0.17618174362248756,0.32109691022929676,-0.01146234578402702,0.15530933829424048,0.021021057279448547,0.0022288268199643223,2.148164361139154,2.32967032967033,-30.65216181021496,-29.23076923076923,35.17972351965551,37.89010989010989,9.428964402071763,9.846153846153847,-0.2742129433794531,-0.21978021978021978,0.0,0.7437457741717377
159,10.625011205673218,0.3229743415994167,-0.01290371413359127,0.1759700537842995,0.3230577725324658,-0.010695735704668433,0.17597005964333806,0.32109691022929676,-0.01146234578402702,0.15530933829424048,0.020795851889975573,0.0022095541322204215,2.1643180735962617,2.32967032967033,-30.68102274425689,-29.23076923076923,35.09924542455346,37.89010989010989,9.708355237271093,9.846153846153847,-0.40035058076816116,-0.21978021978021978,0.0,0.7437457741717377
160,10.692997932434082,0.3229300961215362,-0.012460638492947823,0.1756112195908353,0.3230086869829324,-0.01030932457764275,0.17561122529951037,0.32100777159083727,-0.011458719331558532,0.15508157489769975,0.020643775934495973,0.0021527489602164076,2.092536543048411,2.32967032967033,-30.666369013891252,-29.23076923076923,35.117590145417225,37.89010989010989,9.784536924777116,9.934065934065934,-0.6036397455648769,-0.21978021978021978,0.0,0.7437457741717377
161,10.757355690002441,0.32279474739197306,-0.012308205585246635,0.17537146049678157,0.32287241576346565,-0.010154247962219838,0.1753714662124719,0.32100777159083727,-0.011458719331558532,0.15508157489769975,0.020386131732942316,0.002155357468671549,2.0654647393299634,2.32967032967033,-30.738392834352624,-29.23076923076923,35.2828587216181,37.89010989010989,9.683299944420359,9.934065934065934,-0.7175719576294287,-0.21978021978021978,0.0,0.7437457741717377
162,10.825072050094604,0.32271681405186037,-0.011961114889265911,0.1751339459479293,0.3227903664132282,-0.009860783092626734,0.17513395152131947,0.32100777159083727,-0.011458719331558532,0.15508157489769975,0.020131339055464454,0.002101619281855637,2.006006763963304,2.32967032967033,-30.767277474790113,-29.23076923076923,35.3619654930552,37.89010989010989,9.671522221325136,9.934065934065934,-0.6847023022107577,-0.21978021978021978,0.0,0.7437457741717377
163,10.892713785171509,0.32254507237294594,-0.011725535389476538,0.17505847955865514,0.3226166812927693,-0.009632853214469817,0.1750584851117464,0.32104160564280476,-0.010592761035203145,0.15508157719559762,0.02006539852505985,0.0020939069996110072,1.9601864355249596,2.1538461538461537,-30.850757649494454,-29.23076923076923,35.4271364122011,37.89010989010989,9.715942333632727,9.934065934065934,-0.6457960010658187,-0.21978021978021978,0.0,0.7437457741717377
164,10.956701755523682,0.3226050383652321,-0.011416086694942304,0.17493658843041146,0.32267464130263335,-0.009312010088781533,0.17493659401373873,0.32105752611371585,-0.010159743971292875,0.15508157834464714,0.019954814374322366,0.002105227525356603,1.895018253655932,2.065934065934066,-30.809412072367888,-29.23076923076923,35.40523854346766,37.89010989010989,9.73424889256637,9.934065934065934,-0.6430762803883565,-0.21978021978021978,0.0,0.7437457741717377
165,11.024821758270264,0.32263566945218414,-0.011114164127539924,0.17473696822949922,0.3227020358713748,-0.009053727741978424,0.17473697369702398,0.32105752611371585,-0.010159743971292875,0.15508157834464714,0.019741727527168126,0.002061504935859195,1.845215151446161,2.065934065934066,-30.780816752712063,-29.23076923076923,35.425236993561356,37.89010989010989,9.724168574752962,9.934065934065934,-0.7313990018761996,-0.21978021978021978,0.0,0.7437457741717377
166,11.088685274124146,0.32236021225427136,-0.011062405644010162,0.17469343411552996,0.3224261447558837,-0.009008320391596311,0.17469343956620142,0.32105752611371585,-0.010159743971292875,0.15508157834464714,0.019675789083391234,0.0020551431383197243,1.8388244146250252,2.065934065934066,-30.9180597080955,-29.23076923076923,35.526265243031816,37.89010989010989,9.77854073339466,9.934065934065934,-0.7666131463137335,-0.21978021978021978,0.0,0.7437457741717377
167,11.156696557998657,0.3222699484355372,-0.010994512869410996,0.17474908043869572,0.3223344318500563,-0.008981349410884605,0.17474908578077814,0.321058062197315,-0.010147633397375691,0.15508187349446734,0.019722700172178562,0.0020141959243138484,1.8349699801332215,2.065934065934066,-30.984593259933508,-29.23076923076923,35.603754987503926,37.89010989010989,9.722204693996483,9.934065934065934,-0.8024031309014394,-0.3076923076923077,0.0,0.7437457741717377
