AgRoboticsResearch/lerobot/vio_replay_log.csv
step,time,target_x,target_y,target_z,ik_x,ik_y,ik_z,actual_x,actual_y,actual_z,pos_error,ik_error,ik_shoulder_pan,actual_shoulder_pan,ik_shoulder_lift,actual_shoulder_lift,ik_elbow_flex,actual_elbow_flex,ik_wrist_flex,actual_wrist_flex,ik_wrist_roll,actual_wrist_roll,ik_gripper,actual_gripper
0,0.017325639724731445,0.2333977305388122,0.0006112019371466803,0.18509753822786512,0.23339773053881221,0.0006112019371466683,0.18509753822786518,0.2333977305388122,0.0006112019371466803,0.18509753822786512,0.0,6.319885050555879e-17,-0.1758241758241733,-0.17582417582417584,-80.30769230769222,-80.3076923076923,52.92307692307682,52.92307692307692,40.83516483516492,40.83516483516483,-0.17582417582417165,-0.17582417582417584,0.0,1.4705882352941175
1,0.21666812896728516,0.23484741308716847,2.952797590303536e-05,0.18511785251739296,0.23484730934875148,0.00016029458658851057,0.18511785286439214,0.23379698894494927,0.0006124458472774576,0.17900324849502358,0.006231497931773743,0.00013076665183427388,-0.04509078786445759,-0.17582417582417584,-79.50421398366633,-79.95604395604396,52.81231017748869,53.8021978021978,40.15770589846984,41.18681318681319,-0.11696209036195601,-0.17582417582417584,0.0,1.4705882352941175
2,0.4167325496673584,0.23627920009080408,-0.0007139481527749847,0.1849585970285545,0.23627980353677,-0.0004207945939447855,0.1849585978064599,0.23408248945385102,0.0006133257866577661,0.17824509330328034,0.007187372677277145,0.00029315417991638795,0.11830361563454685,-0.17582417582417584,-78.83482576469132,-79.6923076923077,52.87717239853239,53.8021978021978,39.37447965175322,41.18681318681319,0.021971495058578726,-0.17582417582417584,0.0,1.4705882352941175
3,0.6167585849761963,0.237868721886597,-0.0014909380188000698,0.18494723214457087,0.23787107079577463,-0.0010078626170079528,0.18494723342644825,0.23572849085979197,0.0006183898076904343,0.177307144291106,0.008209798726909662,0.00048308111243618634,0.27895569798179065,-0.17582417582417584,-77.98382778669884,-78.72527472527473,52.792000388442126,53.8021978021978,38.59696366024457,40.48351648351648,0.20837817148108834,-0.17582417582417584,0.0,1.4705882352941175
4,0.8167355060577393,0.23952019765071322,-0.0021612881080918015,0.1849061285072534,0.23952495495931586,-0.001502321465387122,0.1849061302558716,0.23701377632567866,1.4188846333469934e-05,0.17687987987599035,0.008685362106940363,0.0006589838148131371,0.4139934047291442,0.0,-77.07985086644916,-78.02197802197803,52.67996224479288,53.8021978021978,37.81144284865767,39.86813186813187,0.3055598686457742,-0.17582417582417584,0.0,1.4705882352941175
5,1.0126314163208008,0.24139602079467318,-0.0029725696638994367,0.18442100367037234,0.24140509831525836,-0.002047783022364519,0.18442100612436418,0.2385274132940708,1.4197753321743174e-05,0.17713217424943367,0.008383121311577656,0.0009248311920277282,0.5627483416070882,0.0,-76.26452779603454,-77.31868131868131,52.891196076437346,53.8021978021978,36.7024357901203,38.989010989010985,0.34852017305340777,-0.17582417582417584,0.0,1.4705882352941175
6,1.2127621173858643,0.24312136764544942,-0.0034863118331718655,0.18435218478427123,0.2431338828418959,-0.002389421396557788,0.18435218769495357,0.24081628997805338,1.4213742681729356e-05,0.17656384438150236,0.00884450725531588,0.0010969618316450157,0.6540620828125504,0.0,-75.32112615229349,-76.17582417582418,52.77399522593939,53.89010989010989,35.87272531961267,37.75824175824176,0.3415278159946129,-0.17582417582417584,0.0,1.4705882352941175
7,1.4127109050750732,0.24485765839735005,-0.003931238494606531,0.18408860075672606,0.24487364539267287,-0.0026740685560135667,0.18408860409272226,0.24258510206589845,-0.0018736966884946005,0.1759742598652081,0.008674129274300661,0.0012572715850334083,0.7289338397068377,0.5274725274725275,-74.40328821317486,-75.20879120879121,52.726564410806596,53.89010989010989,35.009193667638264,36.879120879120876,0.30901203254435444,-0.08791208791208792,0.0,1.4705882352941175
8,1.612654447555542,0.24670337395429556,-0.00440688156743973,0.18386831620541702,0.24672363148967477,-0.002947391691073935,0.18386832007828463,0.24426552764521464,-0.0018891557796723993,0.1756224662336697,0.00895969193251941,0.001459630455618436,0.7955696276431912,0.5274725274725275,-73.49054825637518,-74.32967032967034,52.745739567675514,53.89010989010989,34.004424101758005,36.0,0.3668486105535053,-0.08791208791208792,0.0,1.4705882352941175
9,1.8127663135528564,0.2486474238772379,-0.0047775451562233765,0.18365000979442977,0.24867082989179815,-0.0032044915386692492,0.18365001396864733,0.2458501717626273,-0.0019037343261735277,0.17551600421593036,0.009068927986849652,0.0015732277410582184,0.8528235204817168,0.5274725274725275,-72.47701264468827,-73.53846153846153,52.69043995106957,53.89010989010989,33.005381503715896,35.120879120879124,0.5143598414245955,-0.08791208791208792,0.0,1.4705882352941175
10,2.012812852859497,0.25030155534594406,-0.005236506241361508,0.18352116187696846,0.2503293205622459,-0.0035209562766435427,0.18352116642931102,0.24776453350735528,-0.001969843972252801,0.17573114015056926,0.008819977363217347,0.001715774632258218,0.9275816804307006,0.5274725274725275,-71.48074091328729,-72.57142857142857,52.444502466986,53.8021978021978,32.32830490019897,34.065934065934066,0.6286621746312222,0.26373626373626374,0.0,1.4705882352941175
11,2.2127058506011963,0.2521849500147312,-0.005337662744262793,0.18306294854987973,0.25221409877326856,-0.003532327246193915,0.18306295334047498,0.2491158193469469,-0.0019822711585027945,0.1739481072667863,0.01018619395877121,0.0018055707991476886,0.925373800171558,0.5274725274725275,-70.52882763433749,-71.6923076923077,52.468212055157416,53.89010989010989,31.32490648348753,33.53846153846154,0.5495922524185324,0.26373626373626374,0.0,1.4705882352941175
12,2.408504009246826,0.25407931396085404,-0.0055401995588343295,0.18290234660854748,0.2541108857626284,-0.0036338906932870084,0.1829023516670832,0.2511017942650998,-0.0020005408025886556,0.17340001481558756,0.010568307203746866,0.0019065702896974934,0.9491938563449541,0.5274725274725275,-69.51724066644896,-70.63736263736264,52.354286041692184,53.89010989010989,30.378641032276796,32.48351648351648,0.41486612650377125,0.26373626373626374,0.0,1.4705882352941175
13,2.6085548400878906,0.2559029472669957,-0.005703953738162343,0.18268798885182108,0.2559362872245232,-0.0037118268821671636,0.18268799413808143,0.252913127590724,-0.0020172037688240057,0.17286555157380548,0.010909235587958865,0.001992405822911869,0.959167172169945,0.5274725274725275,-68.4448961401223,-69.67032967032966,52.10314594688718,53.89010989010989,29.618399643791857,31.516483516483518,0.4866656847236525,0.26373626373626374,0.0,1.4705882352941175
14,2.80863618850708,0.2578348658996722,-0.0057563762682157505,0.18214899392950817,0.25786904281719103,-0.0036884452543569923,0.18214899941692062,0.2544798079503275,-0.002031613986533911,0.17160553297611042,0.011674537968344782,0.0020682134173726154,0.9472097852741049,0.5274725274725275,-67.51300031272369,-68.7032967032967,52.203000054478046,53.89010989010989,28.49469514972479,30.813186813186814,0.4141546646954224,0.26373626373626374,0.0,1.4705882352941175
15,3.0086185932159424,0.25980847760064935,-0.00592027281047401,0.1818561280913829,0.25984450752734656,-0.0037580830559307003,0.18185613382891816,0.256429344638949,-0.0020495495005645086,0.17147349330340916,0.011584478566390851,0.002162489928370253,0.9550297235647587,0.5274725274725275,-66.52861020732622,-67.73626373626374,52.20629474065801,53.89010989010989,27.380045116548704,29.67032967032967,0.4635764280020835,0.26373626373626374,0.0,1.4705882352941175
16,3.2088639736175537,0.26133109751323275,-0.006050130818935928,0.18155395477010558,0.2613683037115734,-0.0038699278661129847,0.18155396055544015,0.2584508784818189,-0.0020681465440605946,0.17102149333043584,0.011622590262605096,0.002180520400438004,0.978047271412239,0.5274725274725275,-65.6402462766669,-66.68131868131869,52.01854063360098,53.89010989010989,26.730395746909785,28.52747252747253,0.4420388882947415,0.26373626373626374,0.0,1.4705882352941175
17,3.4087259769439697,0.2630401063032601,-0.006347700769320326,0.1811883743530869,0.26308009340340005,-0.00416440474412157,0.18118838014662922,0.2599040023972527,-0.0020815125642969848,0.16996090480921644,0.012413363036199897,0.0021836621766793177,1.0496182677254486,0.5274725274725275,-64.67732167883824,-65.8021978021978,51.86583870637321,53.89010989010989,25.936859826786684,27.824175824175825,0.33373856823131604,0.26373626373626374,0.0,1.4705882352941175
18,3.6046500205993652,0.26472526618158704,-0.006484659836586082,0.18070381870828547,0.26476639007986086,-0.004283238688093716,0.18070382454992417,0.26142633516728575,-0.0020955144640355562,0.16858132634659534,0.013307981214208873,0.0022018052248263943,1.070558352273587,0.5274725274725275,-63.728166712350706,-64.83516483516483,51.73517342089434,53.89010989010989,25.154045059552157,27.12087912087912,0.37252458783495307,0.26373626373626374,0.0,1.4705882352941175
19,3.804715156555176,0.26635220006563065,-0.006744496583571804,0.18016697621704686,0.2663966114035892,-0.004436753376269017,0.1801669823408193,0.26309448088115905,-0.002110859002748659,0.16763527676413015,0.013752338808127287,0.002308170504496781,1.102854387825335,0.5274725274725275,-62.865112627109426,-63.86813186813187,51.71666245935052,53.89010989010989,24.283164895552453,26.24175824175824,0.33443522231746176,0.26373626373626374,0.0,1.4705882352941175
20,4.004622220993042,0.26821272266829366,-0.006788149859426969,0.1796598532626537,0.2682573152027459,-0.0044669220620622944,0.17965985942220847,0.2647499589253176,-0.0021260869203840755,0.16665994898866263,0.014238085360054506,0.002321656085949268,1.1009222061548436,0.5274725274725275,-61.71599822589697,-62.9010989010989,51.374968624279326,53.89010989010989,23.62185048638169,25.36263736263736,0.3496691569493761,0.26373626373626374,0.0,1.4705882352941175
21,4.20454740524292,0.26963636290931164,-0.007049381165418365,0.17891457836005709,0.26968385536857714,-0.004685080500304863,0.17891458463390894,0.2661400008729368,-0.002138869481810115,0.16443089914926756,0.015688041176810854,0.002364777615079819,1.1511262795460633,0.5274725274725275,-60.886612227718764,-61.84615384615385,51.289674973225075,53.89010989010989,22.97743501033864,24.835164835164836,0.2655829505490088,0.26373626373626374,0.0,1.4705882352941175
22,4.40455436706543,0.2713345854747053,-0.0073379251855993765,0.17795417844626235,0.27138552839385627,-0.004906125926695901,0.17795418489922682,0.2675212630648607,-0.0035553368516981726,0.1637743777211498,0.015162986213443936,0.002432332793154908,1.2004563777225559,0.8791208791208791,-59.979833272762015,-61.05494505494506,51.359554846217215,53.89010989010989,22.013910405575558,24.043956043956044,0.16816168783907817,0.26373626373626374,0.0,1.4705882352941175
23,4.604814291000366,0.27335060265585176,-0.007391808613252912,0.17750243751721223,0.2734017433285544,-0.00494189360439252,0.17750244401824827,0.26934565452313636,-0.0035833148991622115,0.16179485891727305,0.01665149420890739,0.002450448717905795,1.196207746691274,0.8791208791208791,-58.7213130498985,-59.824175824175825,50.90671775216803,53.89010989010989,21.357342384950474,23.164835164835164,0.24742118278676795,0.26373626373626374,0.0,1.4705882352941175
24,4.837257623672485,0.2747697824654894,-0.007070324769243574,0.17693394924983324,0.2748169402857831,-0.004665867351437144,0.17693395563024408,0.27081203841056417,-0.0036058025277300684,0.1601375802715655,0.01760070064572297,0.0024049198186425935,1.1239414372945213,0.8791208791208791,-57.894285149529566,-58.76923076923077,50.749621659470066,53.8021978021978,20.755933412285547,22.54945054945055,0.19085327926920664,0.26373626373626374,0.0,1.4705882352941175
25,5.037391662597656,0.2766121239507341,-0.007144747723051223,0.17620190291799043,0.27666033908370075,-0.004669466318720446,0.17620190948633813,0.272069629179996,-0.003625088015748097,0.15863783560375497,0.018480225210110144,0.0024757509425860835,1.1162656516680274,0.8791208791208791,-56.821529481534505,-57.89010989010989,50.55262959453544,53.8021978021978,19.949699586551308,21.934065934065934,0.18592421756262192,0.26373626373626374,0.0,1.4705882352941175
26,5.233165264129639,0.2781688382600213,-0.006917120976624688,0.17549267535536967,0.27821458429300705,-0.004401332999207699,0.17549268203120474,0.2736103807065117,-0.0036487162359866727,0.15694621119526436,0.019376102230785328,0.0025162038563865136,1.042090109608435,0.8791208791208791,-55.89595893770032,-56.83516483516483,50.359495986663184,53.8021978021978,19.31620928404056,21.142857142857142,0.2700718315033052,0.26373626373626374,0.0,1.4705882352941175
27,5.433033466339111,0.27984905717089376,-0.006447695334113865,0.17481365298926108,0.27988931053656885,-0.004003255286565092,0.174813659475769,0.2748333718629859,-0.0036674708921574147,0.15539818691276092,0.020244680042503592,0.002444771457529414,0.9437849106173664,0.8791208791208791,-54.85257714474917,-55.956043956043956,50.019231793165346,53.8021978021978,18.775748350861146,20.52747252747253,0.1626673258719317,0.26373626373626374,0.0,1.4705882352941175
28,5.633036375045776,0.2811120467493432,-0.006388836940903593,0.17427726730891005,0.2811519027389512,-0.0039069163211378245,0.17427727389487555,0.2761530519033376,-0.0036877068622276905,0.15319378200152606,0.021826614173785966,0.0024822406133913574,0.9203692512068546,0.8791208791208791,-54.06843283731213,-54.9010989010989,49.77048582791978,53.8021978021978,18.35859891302777,19.912087912087912,0.03163565324548022,0.26373626373626374,0.0,1.4705882352941175
29,5.833633184432983,0.2825204746043316,-0.005971629880992752,0.17368854346554088,0.2825561224538202,-0.003518198050111752,0.17368854997590916,0.27720714477408626,-0.0037038687103701545,0.15082666185960236,0.023580497135894076,0.0024536907951075745,0.8327995710478495,0.8791208791208791,-53.26599164910085,-53.934065934065934,49.63366402507881,53.8021978021978,17.7185550217866,19.47252747252747,-0.2488411527249625,0.26373626373626374,0.0,1.4705882352941175
30,6.033003330230713,0.28373367703122354,-0.005834714635524049,0.17341545487759258,0.28376755514510643,-0.003480035754974627,0.17341546112591238,0.2781759913642752,-0.003718726108969723,0.1496257208559946,0.02452176017816603,0.0023549225798621875,0.8246528256710648,0.8791208791208791,-52.56424039083611,-53.23076923076923,49.420308197742976,53.8021978021978,17.23821838243124,18.945054945054945,-0.400618684045994,0.26373626373626374,0.0,1.4705882352941175
31,6.23282790184021,0.2848295770524346,-0.006192581152580941,0.1730874222535065,0.28486636253470876,-0.0038972313922635187,0.17308742834439197,0.2791352428331171,-0.00368493582534382,0.14841213063978476,0.025447666759660148,0.002295644505129766,0.9185112295335947,0.8791208791208791,-51.88161160613422,-52.527472527472526,49.14842751153504,53.8021978021978,16.91009493191209,18.417582417582416,-0.4132203695137707,-0.08791208791208792,0.0,1.4705882352941175
32,6.432886123657227,0.28694829231373925,-0.006054059334927191,0.17329153783961881,0.2869828823453437,-0.0038179801177179685,0.17329154377322534,0.28026845780262866,-0.0037023166028543695,0.14805008291577962,0.026216062435954937,0.0022363467387586863,0.8866033574319161,0.8791208791208791,-50.64377954844249,-51.824175824175825,48.48609356696013,53.62637362637363,16.320383098022067,17.89010989010989,-0.23152989041472372,-0.08791208791208792,0.0,1.4705882352941175
33,6.629166603088379,0.28876029936040704,-0.00578233100290741,0.17300484414239067,0.2887918443328545,-0.0035892656792218397,0.17300484996185655,0.28249132040007463,-0.003736415058370437,0.14926868815870536,0.02463515719736817,0.002193292182832163,0.8244460920855038,0.8791208791208791,-49.63958890400852,-50.505494505494504,48.182269547192995,52.57142857142857,15.55996616844235,17.53846153846154,-0.12617961584801687,-0.08791208791208792,0.0,1.4705882352941175
34,6.829027414321899,0.29016034760520254,-0.005968156265417391,0.17260164049944088,0.29019353097699807,-0.0037436328803549667,0.1726016464023832,0.2840177338219476,-0.0037598239304014575,0.14779405531146586,0.02565199248890323,0.0022247708706489644,0.8549842854049821,0.8791208791208791,-48.757254032265664,-49.45054945054945,47.745106273255644,52.48351648351648,15.260122435288075,16.747252747252748,-0.12468720407745854,-0.08791208791208792,0.0,1.4705882352941175
35,7.028780698776245,0.2916959869616853,-0.005704846831695141,0.1720142038925477,0.2917265707494479,-0.0035336240263344042,0.17201420965405292,0.28476203353038054,-0.0037712333512396968,0.1451681754106298,0.027794384622280274,0.0021714381959028104,0.8073759817065288,0.8791208791208791,-47.797509345553884,-48.57142857142857,47.30955523878892,52.48351648351648,14.905112477622092,16.483516483516482,-0.28928437616737945,-0.08791208791208792,0.0,1.4705882352941175
36,7.228947401046753,0.29313811907860937,-0.005647111663437411,0.17132196090532473,0.2931684608936778,-0.003462080315068212,0.17132196670347186,0.28561177543272165,-0.0037842597647190375,0.14241980207510738,0.029924084796692844,0.002185242004705974,0.795932877938019,0.8791208791208791,-46.98725997560318,-47.604395604395606,47.18460870594696,52.48351648351648,14.213655165238125,16.13186813186813,-0.586964613641454,-0.08791208791208792,0.0,1.4705882352941175
37,7.428985834121704,0.29445019855307747,-0.005478098210310437,0.17083333069929227,0.2944789814667049,-0.003310626367575848,0.17083333645084403,0.2880216571186458,-0.003796982794086411,0.14507871563731425,0.026597979077507668,0.0021676629454777424,0.7611763240639798,0.8791208791208791,-46.27625296730335,-46.637362637362635,47.08460974747258,51.604395604395606,13.537546820519122,15.340659340659341,-0.6924606221041877,-0.26373626373626374,0.0,1.4705882352941175
38,7.629251480102539,0.29610431264613124,-0.005462815819972278,0.17045450199929962,0.29613250186142515,-0.003330434937000948,0.1704545076577348,0.28895359033607526,-0.003811276008650338,0.14463491899469327,0.02684234117650081,0.002132567199867918,0.7577454792370929,0.8791208791208791,-45.351276742775724,-46.10989010989011,46.78773213417062,51.604395604395606,12.866888650226612,14.725274725274724,-0.5962772068866844,-0.26373626373626374,0.0,1.4705882352941175
39,7.824833631515503,0.29734546056731403,-0.005590588044878453,0.17048587722691289,0.2973740335607278,-0.0035360230941094725,0.1704858826788575,0.2901702259418875,-0.0038299341883550127,0.14346664693290703,0.028011117428851963,0.0020547636245832972,0.7971279644590026,0.8791208791208791,-44.649662102995066,-45.23076923076923,46.40960421490869,51.42857142857143,12.520242537109137,14.197802197802197,-0.5133375927002242,-0.26373626373626374,0.0,1.4705882352941175
40,8.024856090545654,0.29874466929751775,-0.005644197977476039,0.17016462420019243,0.29877281388578686,-0.003700783219400099,0.17016462935719157,0.29107259688246234,-0.0038437715059275457,0.14209652157946967,0.02915339800690017,0.001943618542765734,0.8300636200290566,0.8791208791208791,-43.81662975377868,-44.527472527472526,45.99146690704791,51.42857142857143,12.178253241812094,13.67032967032967,-0.543383966783023,-0.26373626373626374,0.0,1.4705882352941175
41,8.224745750427246,0.29978902838192756,-0.006240825514882092,0.16984585245340353,0.2998212024321801,-0.00433974381158198,0.16984585749806866,0.2915043617175068,-0.0038503832495978166,0.138007348579526,0.0329854550505391,0.0019013539418418542,0.969948032281397,0.8791208791208791,-43.138095674627536,-43.472527472527474,45.54904948512276,51.42857142857143,12.107556026789284,13.67032967032967,-0.641717157035091,-0.26373626373626374,0.0,1.4705882352941175
42,8.424906492233276,0.3012460481171713,-0.006518273628676847,0.1695035407223021,0.301279692083433,-0.004656705258305447,0.1695035456621155,0.2938944381604967,-0.003887057426227765,0.14334239349881878,0.027301558411707498,0.0018618723678215572,1.0357515112731661,0.8791208791208791,-42.16150492127878,-42.857142857142854,44.75941363251622,49.84615384615385,12.24133809364971,13.67032967032967,-0.708630153008169,-0.26373626373626374,0.0,1.4705882352941175
43,8.624950170516968,0.3027822417547631,-0.006980214684345372,0.1688365488150828,0.3028197537864666,-0.005063322653509983,0.16883655390170182,0.2956163289118452,-0.003913470998036767,0.1442737540829837,0.025769868233288366,0.0019172590358187437,1.1214516199371307,0.8791208791208791,-41.25484940410127,-41.89010989010989,44.41652893045687,48.879120879120876,11.750637219701462,13.67032967032967,-0.8261706040494722,-0.26373626373626374,0.0,1.4705882352941175
44,8.824824810028076,0.3043913668396726,-0.007115277475718365,0.1684064918185837,0.3044296630128587,-0.005192514632569286,0.16840649692078133,0.296890813643066,-0.0038845235655949758,0.14188672113571515,0.027748771254865256,0.001923144182816634,1.1413867420980792,0.8791208791208791,-40.3639884695198,-40.83516483516483,44.09630428159178,48.879120879120876,11.14228434245003,12.967032967032967,-0.788136333427603,-0.6153846153846154,0.0,1.4705882352941175
45,9.024860143661499,0.3057020841684912,-0.007698453579614503,0.16829430446802152,0.3057439231478723,-0.005803651196318449,0.1682943094960239,0.2978597124436045,-0.0038993792188453573,0.13972625465459237,0.029867528026479274,0.0018952642485852305,1.265300454537967,0.8791208791208791,-39.576224516715435,-39.956043956043956,43.53132731716517,48.879120879120876,11.027595215572433,12.43956043956044,-0.7339887425454016,-0.6153846153846154,0.0,1.4705882352941175
46,9.220677137374878,0.3072155721323556,-0.008063465693083676,0.16811990444859476,0.30725909881465313,-0.006203297101016092,0.16811990938469368,0.29971298700677357,-0.0039278098543550554,0.14135189689928793,0.028105491650970326,0.0018606777697954288,1.340800237784648,0.8791208791208791,-38.68200422869399,-39.07692307692308,42.91517217243262,47.824175824175825,10.858631258460644,12.43956043956044,-0.6447743059119934,-0.6153846153846154,0.0,1.4705882352941175
47,9.42076325416565,0.3086356863306457,-0.008464112610492227,0.16785470662467442,0.3086833066119569,-0.006503057610997694,0.1678547118284832,0.3000327646270778,-0.003932706288250441,0.13816650586278748,0.031239929090397706,0.0019616330957296126,1.3914020366421527,0.8791208791208791,-37.909192306975555,-38.285714285714285,42.589990290112716,47.824175824175825,10.35624972215817,12.43956043956044,-0.4418824670216403,-0.6153846153846154,0.0,1.4705882352941175
48,9.620765924453735,0.31001381800280425,-0.009032412011097831,0.1676407485637515,0.3100659801126619,-0.007022832567263183,0.16764075389632355,0.3024529566304345,-0.003969832831914789,0.13989947841268105,0.029195451738795945,0.002010256308736777,1.4872396752197174,0.8791208791208791,-37.15267819513465,-37.31868131868132,42.23054187455669,47.120879120879124,9.917972954579865,11.56043956043956,-0.2081922459661144,-0.6153846153846154,0.0,1.4705882352941175
49,9.820927619934082,0.3110422483353349,-0.009227165026033076,0.1675792222360788,0.31109411547547794,-0.007294966209728478,0.16757922736331538,0.3045679079132705,-0.004026524912337329,0.14301678422770592,0.025928306971495823,0.0019328948409010245,1.5380172741650624,0.8791208791208791,-36.485747992083084,-36.7032967032967,41.533528236193035,46.24175824175824,10.196117320189595,11.032967032967033,-0.17924266295162428,-0.43956043956043955,0.0,1.4705882352941175
50,10.020960569381714,0.3120913328735551,-0.009725372146341445,0.16717417419722305,0.312146445163055,-0.007803881187608535,0.16717417929604553,0.3048607719959258,-0.004847595039759253,0.14012580867309807,0.028419848656058563,0.001922281162830307,1.643272185960163,1.054945054945055,-35.868045335452955,-36.0,41.21789776690706,46.24175824175824,9.957390857252927,11.032967032967033,-0.33730187315215027,-0.43956043956043955,0.0,1.4705882352941175
51,10.220805883407593,0.3132118051086146,-0.009837097438923314,0.1668925553731439,0.3132666022426906,-0.007960675690539773,0.1668925603523718,0.30509981232151046,-0.004851988577802999,0.13759328434949267,0.030807515639087475,0.0018772216980779003,1.6730954325973153,1.054945054945055,-35.19889511782516,-35.38461538461539,40.7372295277764,46.24175824175824,9.896290869926816,11.032967032967033,-0.4699527281376895,-0.43956043956043955,0.0,1.4705882352941175
52,10.416719436645508,0.31463128357556247,-0.009752535922029622,0.1662698175966051,0.3146837947486375,-0.007945829858212997,0.16626982239083712,0.3065614393946094,-0.00487889672457902,0.13853213035528522,0.029295973061652512,0.0018074690106202277,1.6651722274964087,1.054945054945055,-34.36231765392938,-34.68131868131868,40.27694151529714,45.45054945054945,9.648782584924675,11.032967032967033,-0.6008348122058539,-0.43956043956043955,0.0,1.4705882352941175
53,10.616827726364136,0.3156285832158097,-0.01031040108429692,0.16606856471448073,0.31568772267093564,-0.008372078901520166,0.1660685698579661,0.3088054128637742,-0.005748999352075071,0.14163089923154143,0.025779091017172337,0.0019392241643047586,1.7479514009811266,1.2307692307692308,-33.82424923904534,-33.97802197802198,40.03539378664421,44.395604395604394,9.306474156810973,10.68131868131868,-0.6245348186032796,-0.43956043956043955,0.0,1.4705882352941175
54,10.816851139068604,0.31660661381442357,-0.009773190193723396,0.16588229618238085,0.31665934037949306,-0.007942270614417551,0.16588230104086527,0.30909453634119677,-0.00575520132159421,0.1386876400156929,0.02849780459201541,0.0018316786280822093,1.6499024192031695,1.2307692307692308,-33.300827935866536,-33.27472527472528,39.7411494619436,44.395604395604394,9.078273655356481,10.68131868131868,-0.5056586316583258,-0.43956043956043955,0.0,1.4705882352941175
55,11.016892433166504,0.31777219221161734,-0.0100858840070228,0.1654222941044327,0.31782514320360644,-0.008328250592363133,0.16542229876844672,0.3098727805360757,-0.005771915060714801,0.13817850587657357,0.02869207259669175,0.0017584308425134566,1.7259504375108323,1.2307692307692308,-32.54744018914901,-32.83516483516483,39.07580628997906,44.395604395604394,9.274145020256553,10.153846153846153,-0.6376866425293084,-0.43956043956043955,0.0,1.4705882352941175
56,11.216799974441528,0.3185033175724098,-0.010414887752842914,0.16498742213170187,0.318558785573096,-0.008644018004582095,0.1649874268308394,0.31128908811495887,-0.005802333673094677,0.13788779504821033,0.028420248940986822,0.0017717382324789253,1.794420823118279,1.2307692307692308,-32.12506366672361,-31.956043956043956,38.93083653007578,43.69230769230769,9.017248547335187,10.153846153846153,-0.9344228194293898,-0.43956043956043955,0.0,1.4705882352941175
57,11.416816234588623,0.319697205499887,-0.010351796456410399,0.1645163665063964,0.3197522321254659,-0.008578614697290782,0.16451637121166912,0.31144524084667885,-0.005805682583173299,0.13602972360541568,0.030004181304515383,0.001774035366169253,1.7778350548512405,1.2307692307692308,-31.457936051470607,-31.516483516483518,38.6050686500997,43.69230769230769,8.70766031686614,10.153846153846153,-1.0895173573252868,-0.43956043956043955,0.0,1.4705882352941175
58,11.61277985572815,0.32045231314909794,-0.010540906189717245,0.1641823048044611,0.3205082240320146,-0.008775653498605315,0.16418230948869347,0.3127760308042765,-0.005785776672872132,0.13682592928895804,0.02880812122830305,0.001766137902409768,1.8144863718759425,1.2307692307692308,-31.008482122085613,-30.9010989010989,38.32120752333846,42.989010989010985,8.623936608367448,10.153846153846153,-1.1386682447296184,-0.7912087912087912,0.0,1.4705882352941175
59,11.812783002853394,0.32142282165736535,-0.010520456748880119,0.16406947841448274,0.3214780623233978,-0.008769612938129754,0.16406948306047994,0.31345757993859924,-0.005800415496007131,0.13703119721135545,0.028579582143316608,0.001751715039853273,1.8074953801093294,1.2307692307692308,-30.455922809654705,-30.54945054945055,37.847618815414705,42.637362637362635,8.639993257030062,10.153846153846153,-1.154893122387924,-0.7912087912087912,0.0,1.4705882352941175
60,12.012740850448608,0.3222274260986611,-0.010586321501186921,0.1639995099171104,0.322283844098347,-0.00879745573722799,0.16399951466400178,0.31371635855333163,-0.005805964573852995,0.13365598496783848,0.031875062187562204,0.0017897552101266414,1.8067820810626223,1.2307692307692308,-30.04456737628123,-29.75824175824176,37.625321090887375,42.637362637362635,8.397644583939455,10.153846153846153,-1.1117267420472663,-0.7912087912087912,0.0,1.4705882352941175
61,12.212824583053589,0.32314833256346964,-0.010871816703245997,0.1641073515740395,0.3232074374115231,-0.009042783990560832,0.16410735642751695,0.3145109980210733,-0.0058230339021007015,0.1344478390263497,0.03130144470047639,0.0018299874445360086,1.851220763967393,1.2307692307692308,-29.606122826725606,-29.582417582417584,37.401740240491485,42.637362637362635,8.042712503134878,9.538461538461538,-1.1449517071657005,-0.7912087912087912,0.0,1.4705882352941175
62,12.412752866744995,0.32342392445722684,-0.010918534181090447,0.16439910795858342,0.3234823689711549,-0.00912234133283948,0.16439911272491775,0.3161430685591743,-0.00713527264298209,0.1366413403879817,0.028945078873229647,0.0017971434303746942,1.8639947829857355,1.4945054945054945,-29.50808696057704,-29.142857142857142,37.3140044247675,42.02197802197802,7.9327239182994775,9.098901098901099,-1.0931371825173164,-0.7912087912087912,0.0,1.4705882352941175
63,12.612927675247192,0.32386745971784814,-0.011167241062424145,0.16440196874802773,0.3239256993346158,-0.009435998272444726,0.16440197334201212,0.3168398043649568,-0.007153451694008226,0.13877191214413342,0.026877467261106604,0.0017322221135980434,1.9270860987707183,1.4945054945054945,-29.257476562925138,-29.142857142857142,37.07881387933997,41.582417582417584,7.953873777861924,9.098901098901099,-1.202165356100503,-0.7912087912087912,0.0,1.4705882352941175
64,12.812678098678589,0.32415678233295986,-0.01134255297807358,0.16464812073505056,0.3242148186087156,-0.009657307376451605,0.1646481252069779,0.31697117220708265,-0.007156874208788709,0.13725128093300476,0.028631097268175244,0.0016862446284895334,1.972727862805549,1.4945054945054945,-29.11917514221988,-28.791208791208792,36.88353594054739,41.582417582417584,7.996300732660859,9.098901098901099,-1.3182739088188276,-0.7912087912087912,0.0,1.4705882352941175
65,13.008716821670532,0.3242868481426643,-0.011792228526458623,0.16478937874861918,0.32434895989107,-0.010059952858081804,0.1647893833453444,0.31697117220708265,-0.007156874208788709,0.13725128093300476,0.02886784466057584,0.0017333888370938298,2.053856186801659,1.4945054945054945,-29.040386548535913,-28.791208791208792,36.73443141172116,41.582417582417584,8.09146563823717,9.098901098901099,-1.3671570987529027,-0.7912087912087912,0.0,1.4705882352941175
66,13.208750486373901,0.32459473116494897,-0.011648421463814392,0.16471160490672832,0.32465527633683494,-0.009937997683831317,0.1647116094454678,0.3169352831169884,-0.008437071690269637,0.137251277535886,0.02868883913791711,0.0017114950262828387,2.0276583463934825,1.7582417582417582,-28.880556190229804,-28.791208791208792,36.65218090426034,41.582417582417584,8.006161342291557,9.098901098901099,-1.3822950494141095,-0.7912087912087912,0.0,1.4705882352941175
67,13.408714532852173,0.32472910636604413,-0.011729195156782652,0.16465269012825784,0.3247907091193529,-0.00999771306206186,0.16465269472287725,0.3169352831169884,-0.008437071690269637,0.137251277535886,0.028677851555053445,0.001732577601025432,2.037975055061144,1.7582417582417582,-28.806362301415447,-28.791208791208792,36.62273584563759,41.582417582417584,7.958528519999884,9.098901098901099,-1.3578643290794434,-0.7912087912087912,0.0,1.4705882352941175
68,13.608693599700928,0.3248503813327728,-0.011477904596385835,0.16462630027415617,0.3249098410637734,-0.0097672525906076,0.16462630481350127,0.3170573030169897,-0.008440812494009072,0.13572986843436144,0.030082549279377084,0.0017116850599641202,1.9910775256704671,1.7582417582417582,-28.743606962478932,-28.439560439560438,36.574458923101055,41.582417582417584,7.953501588248117,9.098901098901099,-1.3597331052870583,-0.7912087912087912,0.0,1.4705882352941175
69,13.80877423286438,0.3249476896958121,-0.011268962241729913,0.16469911030223636,0.3250064827209346,-0.009537757710653032,0.16469911489611924,0.31790307220334796,-0.008466776273968989,0.13828332476195782,0.027482223482153643,0.0017322025713655074,1.9454232945883934,1.7582417582417582,-28.709112255209657,-28.439560439560438,36.544972042288656,41.05494505494506,7.923251491983332,9.098901098901099,-1.3928349942764806,-0.7912087912087912,0.0,1.4705882352941175
70,14.008764505386353,0.3249507124734915,-0.011241538889327834,0.16460262840584633,0.3250097738439274,-0.00949406687342775,0.1646026330428963,0.31790307220334796,-0.008466776273968989,0.13828332476195782,0.027387484098546643,0.0017484698143957684,1.936118601706084,1.7582417582417582,-28.70679254272246,-28.439560439560438,36.596822953523045,41.05494505494506,7.857911264455262,9.098901098901099,-1.3730772607085198,-0.7912087912087912,0.0,1.4705882352941175
71,14.204723834991455,0.3249356475484671,-0.011154264535073613,0.1646178302291395,0.3249935943265775,-0.009426951628009658,0.16461783481269568,0.31790307220334796,-0.008466776273968989,0.13828332476195782,0.02738952148795913,0.0017282846142994256,1.921763733404915,1.7582417582417582,-28.719091381534398,-28.439560439560438,36.606313076633015,41.05494505494506,7.854965100952255,9.098901098901099,-1.3353226037617434,-0.7912087912087912,0.0,1.4705882352941175
72,14.404860258102417,0.3249201714310453,-0.011322053437475011,0.16458970655245173,0.324979952515394,-0.009564390297385029,0.16458971121654453,0.31790307220334796,-0.008466776273968989,0.13828332476195782,0.027375500217512356,0.0017586794739515902,1.9483375760120214,1.7582417582417582,-28.72017183888793,-28.439560439560438,36.6115355814188,41.05494505494506,7.857511981256645,9.098901098901099,-1.2988162131067968,-0.7912087912087912,0.0,1.4705882352941175
73,14.604742288589478,0.324852773141956,-0.011298809807526794,0.16456038441198714,0.32491239692236995,-0.00954052578682242,0.16456038907772752,0.31790307220334796,-0.008466776273968989,0.13828332476195782,0.027327689637480966,0.0017592946577185294,1.9425302088273655,1.7582417582417582,-28.76237386258817,-28.439560439560438,36.6841065949453,41.05494505494506,7.8028860912284825,9.098901098901099,-1.2446965147823843,-0.7912087912087912,0.0,1.4705882352941175
74,14.80468487739563,0.3250962017478059,-0.011084038969073324,0.16428901139582638,0.3251533472955165,-0.009367232767041529,0.1642890159515022,0.31790307220334796,-0.008466776273968989,0.13828332476195782,0.027108797722464727,0.0017177570110404829,1.90680381924665,1.7582417582417582,-28.615564749781807,-28.439560439560438,36.65387806937477,41.05494505494506,7.714257535632623,9.098901098901099,-1.2645188591043632,-0.7912087912087912,0.0,1.4705882352941175
75,15.004758834838867,0.3249797606131785,-0.011300194034643453,0.16406334594755814,0.32503915695852015,-0.00955121422463974,0.16406335058860916,0.3183067383923774,-0.008479167320221026,0.13917453520400813,0.025921811617073392,0.0017499880861486187,1.9454121103143558,1.7582417582417582,-28.674893527034207,-28.439560439560438,36.84845980958305,41.05494505494506,7.532923658445554,8.747252747252746,-1.302866422869428,-0.7912087912087912,0.0,1.4705882352941175
76,15.204830884933472,0.32509650905898135,-0.011277862069338309,0.1642206494683074,0.3251554868685734,-0.009535448152775034,0.16422065409193531,0.3183067383923774,-0.008479167320221026,0.13917453520400813,0.0261006037812183,0.0017434117811575731,1.938989083957842,1.7582417582417582,-28.611970591782963,-28.439560439560438,36.694530649339335,41.05494505494506,7.657194105785792,8.747252747252746,-1.2128167780609043,-0.7912087912087912,0.0,1.4705882352941175
77,15.43687915802002,0.32488910302792495,-0.011396714621750789,0.1641372970681079,0.3249494372804067,-0.009631722356257035,0.1641373017516491,0.3183067383923774,-0.008479167320221026,0.13917453520400813,0.02598035962675891,0.0017660231933067131,1.9581911726471801,1.7582417582417582,-28.712886587573127,-28.439560439560438,36.805515278784824,41.05494505494506,7.6500199295126485,8.747252747252746,-1.1602292120512463,-0.7912087912087912,0.0,1.4705882352941175
78,15.637087106704712,0.32478633799936085,-0.011444815631797495,0.16440614263581455,0.32484829240004554,-0.009631808506585026,0.1644061474467669,0.3183067383923774,-0.008479167320221026,0.13917453520400813,0.026218586814845023,0.0018140653747477033,1.9575224475840531,1.7582417582417582,-28.754608210232682,-28.439560439560438,36.6350516114999,41.05494505494506,7.940619763485389,8.747252747252746,-1.1103013504157104,-0.7912087912087912,0.0,1.4705882352941175
79,15.833486557006836,0.3245323049106657,-0.011575496577762294,0.1641277902663979,0.3245960863121523,-0.009728622890742113,0.1641277951672177,0.3183067383923774,-0.008479167320221026,0.13917453520400813,0.02590385823682293,0.0018479746976100974,1.9782743449485745,1.7582417582417582,-28.880202910030324,-28.439560439560438,36.88470894904368,41.05494505494506,7.787070889475941,8.747252747252746,-1.097148815345257,-0.7912087912087912,0.0,1.4705882352941175
80,16.03317666053772,0.32444931670818633,-0.011707705056769014,0.16431968574915154,0.3245138228529507,-0.009861674474781755,0.164319690647734,0.3183067383923774,-0.008479167320221026,0.13917453520400813,0.02608511683355255,0.0018471572624897366,2.0016439027087958,1.7582417582417582,-28.921330063858978,-28.439560439560438,36.801246519297955,41.05494505494506,7.941251409051077,8.747252747252746,-0.9576978538014524,-0.7912087912087912,0.0,1.4705882352941175
81,16.233057498931885,0.3241778781738303,-0.012011655708643787,0.1644785954058813,0.3242447117415383,-0.01014938251551208,0.1644786003475648,0.3183067383923774,-0.008479167320221026,0.13917453520400813,0.026215343202936,0.001863472074288736,2.0557207861779188,1.7582417582417582,-29.032475478269564,-28.439560439560438,36.70881186676121,41.05494505494506,8.243211739422849,8.747252747252746,-0.7590329824941958,-0.7912087912087912,0.0,1.4705882352941175
82,16.433355808258057,0.32396285731768387,-0.012189195977203953,0.16436022494788277,0.32403079887150843,-0.010329517179671023,0.1643602298826819,0.3183067383923774,-0.008479167320221026,0.13917453520400813,0.0260782469082482,0.0018609194729364226,2.092677441528842,1.7582417582417582,-29.105247594561316,-28.439560439560438,36.715828330132325,41.05494505494506,8.397846646916513,8.747252747252746,-0.7328093680502834,-0.7912087912087912,0.0,1.4705882352941175
83,16.6332266330719,0.32358529877082465,-0.012730241809917572,0.16405144763226334,0.323658360559177,-0.01082445495008556,0.16405145268941365,0.3183067383923774,-0.008479167320221026,0.13917453520400813,0.025783630581222277,0.001907186823583674,2.1958247560176654,1.7582417582417582,-29.26997088523954,-28.439560439560438,36.95591046607338,41.05494505494506,8.339435947448056,8.747252747252746,-0.7684952584670607,-0.7912087912087912,0.0,1.4705882352941175
84,16.833033323287964,0.32340158385464846,-0.012832274375003706,0.16373361258057986,0.3234744789761966,-0.01095653544298479,0.1637336175579957,0.3183067383923774,-0.008479167320221026,0.13917453520400813,0.025456929761918663,0.0018771548257567243,2.2258759037202362,1.7582417582417582,-29.33801388618496,-28.439560439560438,37.111564851464344,41.05494505494506,8.280797392969639,8.747252747252746,-0.8437426711381426,-0.7912087912087912,0.0,1.4705882352941175
85,17.033199548721313,0.3233101567817953,-0.013070522932850213,0.16364292610905762,0.3233860103694346,-0.01115289179867077,0.1636429311976375,0.3183067383923774,-0.008479167320221026,0.13917453520400813,0.025393245074694478,0.0019191307755226014,2.2655665578595054,1.7582417582417582,-29.36669760429911,-28.439560439560438,37.14197451974279,41.05494505494506,8.306100897825136,8.747252747252746,-0.8265127175641114,-0.7912087912087912,0.0,1.4705882352941175
86,17.229638814926147,0.32318392380092836,-0.01306908680321016,0.16363661679929636,0.323260593415183,-0.011126611906246512,0.16363662195380113,0.3183067383923774,-0.008479167320221026,0.13917453520400813,0.025362329040217207,0.0019439873855327506,2.2606574790959093,1.7582417582417582,-29.447079796665644,-28.439560439560438,37.25345876592354,41.05494505494506,8.23319202183985,8.747252747252746,-0.8041268352371393,-0.7912087912087912,0.0,1.4705882352941175
87,17.428993225097656,0.32290096675053215,-0.013210722864754141,0.16367953431518817,0.32297869582910926,-0.011263720685528483,0.16367953948170647,0.3183067383923774,-0.008479167320221026,0.13917453520400813,0.02537694886145318,0.0019485531287580032,2.286535792060622,1.7582417582417582,-29.598567848535666,-28.439560439560438,37.36367297231669,41.05494505494506,8.263445146658428,8.747252747252746,-0.6613504832941521,-0.7912087912087912,0.0,1.4705882352941175
88,17.6291081905365,0.3227859126936678,-0.013186755151216518,0.16372352376983573,0.3228629347915419,-0.011254360419421117,0.1637235288975921,0.3183067383923774,-0.008479167320221026,0.13917453520400813,0.025394432957107187,0.0019339291101428298,2.2828704697491835,1.7582417582417582,-29.664904070338235,-28.439560439560438,37.40531588798733,41.05494505494506,8.279497635706269,8.747252747252746,-0.5637984453901665,-0.7912087912087912,0.0,1.4705882352941175
89,17.828893661499023,0.3228421757248236,-0.013120017664993844,0.1636804979756155,0.3229194715884997,-0.011165972328249335,0.16368050316082328,0.3183067383923774,-0.008479167320221026,0.13917453520400813,0.02535054033117503,0.0019555735293313014,2.2656216021946682,1.7582417582417582,-29.647101031317096,-28.439560439560438,37.4510392476827,41.05494505494506,8.179495661787334,8.747252747252746,-0.5999210801621022,-0.7912087912087912,0.0,1.4705882352941175
90,18.02919888496399,0.32288726397114964,-0.013174939913904232,0.16356496313654925,0.3229664824025846,-0.011174083093316248,0.1635649684459749,0.3183067383923774,-0.008479167320221026,0.13917453520400813,0.02525716669703582,0.002002424424641453,2.2676473568465667,1.7582417582417582,-29.615868625333956,-28.439560439560438,37.47543225554365,41.05494505494506,8.124739681938317,8.747252747252746,-0.6275348776352685,-0.7912087912087912,0.0,1.4705882352941175
91,18.22901177406311,0.3227800128534745,-0.012935555784384907,0.1636067609550027,0.3228584676656489,-0.010906655409882275,0.16360676633884413,0.3183067383923774,-0.008479167320221026,0.13917453520400813,0.025234960624011267,0.002030416678231152,2.214808913416209,1.7582417582417582,-29.674916669136802,-28.439560439560438,37.48438276659814,41.05494505494506,8.191315009671344,8.747252747252746,-0.6335172674644655,-0.7912087912087912,0.0,1.4705882352941175
92,18.424922943115234,0.32290796498235974,-0.01284579542894143,0.16373644284322048,0.3229870473839279,-0.01077318995498919,0.16373644834303674,0.3183067383923774,-0.008479167320221026,0.13917453520400813,0.025367814924613145,0.0020741136605607778,2.1854821021446047,1.7582417582417582,-29.629664703166053,-28.439560439560438,37.43811849124964,41.05494505494506,8.153309762657821,8.747252747252746,-0.5811980247283861,-0.7912087912087912,0.0,1.4705882352941175
93,18.62481188774109,0.32300196573220896,-0.012514304301950696,0.16394598857761067,0.32307838805824685,-0.010446001222375188,0.16394599406601013,0.3183067383923774,-0.008479167320221026,0.13917453520400813,0.02553335842529511,0.0020697144732857945,2.1164381133922983,1.7582417582417582,-29.60233299445608,-28.439560439560438,37.33974436434302,41.05494505494506,8.213578339245574,8.747252747252746,-0.49181838946494516,-0.7912087912087912,0.0,1.4705882352941175
94,18.82518219947815,0.3230947194700239,-0.012189488763228623,0.1638005196361331,0.323169171858942,-0.010106999142139892,0.16380052516217766,0.3183067383923774,-0.008479167320221026,0.13917453520400813,0.025360014930232277,0.002083820093047487,2.047907668071102,1.7582417582417582,-29.579606722816337,-28.439560439560438,37.472116653719276,41.05494505494506,7.980377711046047,8.747252747252746,-0.5050290331826979,-0.7912087912087912,0.0,1.4705882352941175
95,19.024818181991577,0.32325672017714413,-0.011991441916994493,0.16391866947240633,0.3233303514131866,-0.00988600555424401,0.16391867505934182,0.3183067383923774,-0.008479167320221026,0.13917453520400813,0.02547764850226921,0.002106723483645716,2.003291915230095,1.7582417582417582,-29.528808118672597,-28.439560439560438,37.46370748114404,41.05494505494506,7.866000713476191,8.747252747252746,-0.5408882737832208,-0.7912087912087912,0.0,1.4705882352941175
96,19.224944591522217,0.32347786682855745,-0.011814361523676223,0.16398061781975176,0.32354998925841955,-0.009715006227351063,0.16398062339055067,0.3183067383923774,-0.008479167320221026,0.13917453520400813,0.02555789162699712,0.002100593798222004,1.9679600255163967,1.7582417582417582,-29.43214720843339,-28.439560439560438,37.40643450407972,41.05494505494506,7.7879819530835075,8.747252747252746,-0.5619069148713967,-0.7912087912087912,0.0,1.4705882352941175
97,19.42491602897644,0.323426797337544,-0.011921635692903089,0.1642440653853287,0.3234997562486781,-0.009822553204935726,0.16424407095540372,0.3183067383923774,-0.008479167320221026,0.13917453520400813,0.025817570288682087,0.002100350040835136,1.9910205920745856,1.7582417582417582,-29.480052801777298,-28.439560439560438,37.36338453540452,41.05494505494506,7.850142012976264,8.747252747252746,-0.6013157367880309,-0.7912087912087912,0.0,1.4705882352941175
98,19.62492084503174,0.32349001348815326,-0.011957343132284462,0.1644456633200895,0.32356251718356344,-0.00988423539610347,0.16444566882123857,0.3183067383923774,-0.008479167320221026,0.13917453520400813,0.026030635104766688,0.002074375200317405,2.0033762395062458,1.7582417582417582,-29.463933115183664,-28.439560439560438,37.290819572946255,41.05494505494506,7.883664714956872,8.747252747252746,-0.615627950355204,-0.7912087912087912,0.0,1.4705882352941175
99,19.820943117141724,0.32324037356147994,-0.012072628228177423,0.16451295475613817,0.323313329711042,-0.010016305656980456,0.16451296021274647,0.3183067383923774,-0.008479167320221026,0.13917453520400813,0.02606317752459554,0.0020576163676941338,2.032303859543535,1.7582417582417582,-29.583143177307612,-28.439560439560438,37.30942090613427,41.05494505494506,8.02370782988272,8.747252747252746,-0.6375184592709524,-0.7912087912087912,0.0,1.4705882352941175
100,20.020852088928223,0.3233982072265472,-0.011886756583365028,0.16459057616181572,0.323468285643806,-0.00988503300124638,0.1645905814735415,0.3183067383923774,-0.008479167320221026,0.13917453520400813,0.026144021447447017,0.00200294989548007,2.0054137450331493,1.7582417582417582,-29.487498376646542,-28.439560439560438,37.13434109056282,41.05494505494506,8.164106905721118,8.747252747252746,-0.6594229363938641,-0.7912087912087912,0.0,1.4705882352941175
101,20.22098708152771,0.323395943883012,-0.012066637203147183,0.16445556258656868,0.3234679683920808,-0.01004382449231038,0.16445556795425603,0.3183067383923774,-0.008479167320221026,0.13917453520400813,0.02603651855000173,0.002024094561293604,2.039581333275298,1.7582417582417582,-29.476590711743047,-28.439560439560438,37.17904278165754,41.05494505494506,8.11261171786817,8.747252747252746,-0.7402085550490763,-0.7912087912087912,0.0,1.4705882352941175
102,20.420917510986328,0.3234725378214822,-0.012092255665344791,0.16453886942954915,0.32354439686018643,-0.010082619744213652,0.16453887476227083,0.3183067383923774,-0.008479167320221026,0.13917453520400813,0.02613597792003124,0.0020109202512711773,2.048229083412772,1.7582417582417582,-29.42235548638983,-28.439560439560438,37.04342136883991,41.05494505494506,8.246021221411297,8.747252747252746,-0.7906083523516778,-0.7912087912087912,0.0,1.4705882352941175
103,20.620797634124756,0.3235173163824392,-0.012230110942200978,0.1643887221194074,0.3235909590489278,-0.010194653923196444,0.16438872752064734,0.3183067383923774,-0.008479167320221026,0.13917453520400813,0.026018741761478007,0.0020367887761305907,2.0724152785558947,1.7582417582417582,-29.383137927622624,-28.439560439560438,37.060268130519574,41.05494505494506,8.20517928330511,8.747252747252746,-0.863017819318383,-0.7912087912087912,0.0,1.4705882352941175
104,20.820858240127563,0.32349859147033955,-0.012126784016158772,0.16431218027921124,0.3235712973831913,-0.01009923701572523,0.1643121856594614,0.3183067383923774,-0.008479167320221026,0.13917453520400813,0.025926080418576813,0.002028850164196362,2.054054862397356,1.7582417582417582,-29.390058928869664,-28.439560439560438,37.093769752555076,41.05494505494506,8.182617675420683,8.747252747252746,-0.8872664947071598,-0.7912087912087912,0.0,1.4705882352941175
105,21.01689052581787,0.3235498112825175,-0.011965117685575333,0.16423272334337413,0.32362055927147027,-0.00996452236492625,0.16423272865210597,0.3183067383923774,-0.008479167320221026,0.13917453520400813,0.025837075223579364,0.002001845876927605,2.025695978320186,1.7582417582417582,-29.34246127233358,-28.439560439560438,37.02384085202584,41.05494505494506,8.264636361912732,8.747252747252746,-0.8535388988426419,-0.7912087912087912,0.0,1.4705882352941175
106,21.216792345046997,0.32364106056836583,-0.012113858193764426,0.1642811647480138,0.32371344459005136,-0.010092733108516324,0.16428117011122292,0.3183067383923774,-0.008479167320221026,0.13917453520400813,0.025923132871692033,0.002022420840686548,2.051461265338394,1.7582417582417582,-29.303129197437674,-28.439560439560438,37.00419212876264,41.05494505494506,8.217089652900102,8.747252747252746,-0.8777630209134458,-0.7912087912087912,0.0,1.4705882352941175
107,21.416822910308838,0.3234322659838443,-0.012193927190059866,0.16428518181213606,0.32350564799728976,-0.010159822246917015,0.16428518720978819,0.3183067383923774,-0.008479167320221026,0.13917453520400813,0.025896236156239767,0.0020354281710845573,2.0664589924333767,1.7582417582417582,-29.42646388893308,-28.439560439560438,37.147914298151754,41.05494505494506,8.151872580836034,8.747252747252746,-0.8783384654945258,-0.7912087912087912,0.0,1.4705882352941175
108,21.616803407669067,0.32331512387884065,-0.012075402845418724,0.1642400558631986,0.3233874161694619,-0.010048504878257116,0.16424006124172655,0.3183067383923774,-0.008479167320221026,0.13917453520400813,0.02581273253745162,0.002028186762750427,2.043034695392564,1.7582417582417582,-29.49175019353482,-28.439560439560438,37.2283219014927,41.05494505494506,8.126898848025872,8.747252747252746,-0.8099725793522272,-0.7912087912087912,0.0,1.4705882352941175
109,21.816824197769165,0.32354805369068024,-0.012009284393397294,0.164343388287322,0.3236202677206581,-0.009965248943070314,0.16434339371132545,0.3183067383923774,-0.008479167320221026,0.13917453520400813,0.025950034260786486,0.002045310682597753,2.0237320038373685,1.7582417582417582,-29.380149368430057,-28.439560439560438,37.11220243830524,41.05494505494506,8.119038709339659,8.747252747252746,-0.777339397988018,-0.7912087912087912,0.0,1.4705882352941175
110,22.017087697982788,0.3232992952062857,-0.012156478443588215,0.16430912860534866,0.3233740796890471,-0.01005951456197868,0.16430913416980172,0.3183067383923774,-0.008479167320221026,0.13917453520400813,0.025888144508420318,0.002098296985573725,2.0428488190970047,1.7582417582417582,-29.509597511330263,-28.439560439560438,37.237721550645894,41.05494505494506,8.112829505588277,8.747252747252746,-0.7200098003603337,-0.7912087912087912,0.0,1.4705882352941175
111,22.21306610107422,0.32348495874552,-0.011931363457337132,0.1643600170434107,0.3235571693945355,-0.009864129836185894,0.1643600225289723,0.3183067383923774,-0.008479167320221026,0.13917453520400813,0.025943016780584634,0.002068494433707615,2.000951033119913,1.7582417582417582,-29.417321306891473,-28.439560439560438,37.13798717675391,41.05494505494506,8.126474207167545,8.747252747252746,-0.6725491374193282,-0.7912087912087912,0.0,1.4705882352941175
112,22.413027048110962,0.3230783184134868,-0.01196281274461693,0.16429913758520082,0.3231514762777437,-0.009872891301417665,0.16429914313096627,0.3183067383923774,-0.008479167320221026,0.13917453520400813,0.025809870324234447,0.002091201499587615,2.0051871534634835,1.7582417582417582,-29.611083267678527,-28.439560439560438,37.257646646994154,41.05494505494506,8.249708841609273,8.747252747252746,-0.6588717276670075,-0.7912087912087912,0.0,1.4705882352941175
113,22.612802505493164,0.3231550364643355,-0.012086875591481467,0.1642473906688915,0.32323028716262636,-0.009954032647256176,0.1642473963285524,0.3183067383923774,-0.008479167320221026,0.13917453520400813,0.025790882775275553,0.0021341700242382047,2.021026863082627,1.7582417582417582,-29.55720841484118,-28.439560439560438,37.210883826780744,41.05494505494506,8.267052921518856,8.747252747252746,-0.6613079444926588,-0.7912087912087912,0.0,1.4705882352941175
114,22.812848329544067,0.3231274081645481,-0.012150820839221319,0.16411782105269082,0.32320334214132707,-0.010011958837837894,0.1641178267283238,0.3183067383923774,-0.008479167320221026,0.13917453520400813,0.025668802183682077,0.0021402094826963995,2.033625936684777,1.7582417582417582,-29.55863801703838,-28.439560439560438,37.25014212669427,41.05494505494506,8.244476641337208,8.747252747252746,-0.6883598210700044,-0.7912087912087912,0.0,1.4705882352941175
115,23.012980937957764,0.32295540481251694,-0.012359496654312886,0.16413787201472155,0.32303301968344156,-0.010218054447113004,0.1641378776972013,0.3183067383923774,-0.008479167320221026,0.13917453520400813,0.025687258319094047,0.0021428482902431613,2.0760938874783372,1.7582417582417582,-29.63942621360632,-28.439560439560438,37.28353339084902,41.05494505494506,8.309718557797776,8.747252747252746,-0.6794828941330795,-0.7912087912087912,0.0,1.4705882352941175
116,23.212820291519165,0.32286848027081694,-0.01237879477923114,0.16393617962992768,0.3229456635438151,-0.010257067872576043,0.16393618526009135,0.3183067383923774,-0.008479167320221026,0.13917453520400813,0.025478532492281568,0.002123130312554228,2.0837251682612266,1.7582417582417582,-29.66673790777041,-28.439560439560438,37.36468809694932,41.05494505494506,8.278776652183716,8.747252747252746,-0.6483872119680678,-0.7912087912087912,0.0,1.4705882352941175
117,23.412856578826904,0.32284489706685204,-0.012346250007369997,0.16408195951475607,0.3229213866024091,-0.010241808122168378,0.16408196509905257,0.3183067383923774,-0.008479167320221026,0.13917453520400813,0.02561111084001618,0.0021058314978344922,2.0819591580172223,1.7582417582417582,-29.690115026882808,-28.439560439560438,37.33018085983309,41.05494505494506,8.328060919470847,8.747252747252746,-0.689048229412996,-0.7912087912087912,0.0,1.4705882352941175
118,23.60879421234131,0.32277345758479975,-0.012168363492091916,0.1641269478074207,0.3228478604160825,-0.010092406358801861,0.16412695331613075,0.31868141794713756,-0.008454300795118056,0.1408402335620343,0.023933451703829392,0.0020772900135973054,2.0529792211854865,1.7582417582417582,-29.72730764186549,-28.52747252747253,37.31777072461868,40.79120879120879,8.39703933532964,8.747252747252746,-0.710010219845188,-1.054945054945055,0.0,1.4705882352941175
119,23.80894184112549,0.3228741734073599,-0.01226275143842851,0.16411600255392578,0.3229500398553564,-0.010159083224585062,0.1641160081361693,0.3210143353978344,-0.008971446374043693,0.15560114824380905,0.009316352847065975,0.002105035788745182,2.0657757693658434,1.8461538461538463,-29.679918722814676,-29.582417582417584,37.31323210584548,38.76923076923077,8.330066575874493,8.659340659340659,-0.7137891554307769,-0.967032967032967,0.0,1.4705882352941175
120,24.008930206298828,0.3229325022293086,-0.012224216475734826,0.16411403771679373,0.3230081474687909,-0.010117056349514953,0.16411404330830331,0.32124475785669915,-0.00899099506603965,0.15526164792898442,0.009574288835558314,0.0021085174886205133,2.0563488802873255,1.8461538461538463,-29.650658589866975,-29.406593406593405,37.29381213734176,38.68131868131868,8.318261738404129,8.659340659340659,-0.69426994714781,-0.8791208791208791,0.0,1.4705882352941175
121,24.208742141723633,0.3230157893170741,-0.012178013963330977,0.16405455191247945,0.3230918839279512,-0.010043162247945226,0.16405455757747084,0.32109991626660156,-0.009059081402121217,0.15421012064500256,0.010502910874942145,0.0021362074422963027,2.041747862254777,1.8461538461538463,-29.61299361020329,-29.318681318681318,37.31698127075595,38.76923076923077,8.23371247443041,8.747252747252746,-0.7259446126825695,-0.3516483516483517,0.0,1.4705882352941175
122,24.40879487991333,0.3230036798409056,-0.012054851790774888,0.1642156095942166,0.3230788433600512,-0.00992006514320666,0.16421561525903527,0.32109991626660156,-0.009059081402121217,0.15421012064500256,0.010616438436746362,0.0021361094506785073,2.0168516795349865,1.8461538461538463,-29.634859893177065,-29.318681318681318,37.28030643053486,38.76923076923077,8.278690875151307,8.747252747252746,-0.7184737923710777,-0.3516483516483517,0.0,1.4705882352941175
123,24.608819723129272,0.322964241656781,-0.012173229292819696,0.1643331266902358,0.32304071420785196,-0.010020968077883916,0.1643331324014246,0.32109991626660156,-0.009059081402121217,0.15421012064500256,0.010754016814076426,0.0021536193694375893,2.0352976306342234,1.8461538461538463,-29.65447642204528,-29.318681318681318,37.23051658102879,38.76923076923077,8.361087577379509,8.747252747252746,-0.641386797521252,-0.3516483516483517,0.0,1.4705882352941175
124,24.804994583129883,0.32290342054986443,-0.012107589793529463,0.1642742320858387,0.32297937385659414,-0.009957754752870075,0.16427423779058944,0.3221630870665121,-0.008585462316269056,0.16408235557900652,0.003604204798082301,0.0021511763309600344,2.0237710635606376,1.7582417582417582,-29.70612976432095,-30.197802197802197,37.364981284644315,37.97802197802198,8.216201708330285,7.956043956043956,-0.6689288825252364,-0.8791208791208791,0.0,1.4705882352941175
125,25.00504446029663,0.3228131352527435,-0.0123835106391677,0.1641842620143123,0.3228923529855906,-0.010193247186818896,0.16418426782634293,0.322473033451122,-0.008594982031324788,0.16684581138916182,0.004642463066376755,0.0021916955627837805,2.0717407908910364,1.7582417582417582,-29.74431275396098,-30.373626373626372,37.4367512481316,37.62637362637363,8.178890266360952,7.868131868131868,-0.6657060074983304,-0.8791208791208791,0.0,1.4705882352941175
126,25.20497965812683,0.32298966051964717,-0.012185672365533102,0.16426047197720217,0.323066142178145,-0.010037173330210982,0.16426047767840768,0.3225825700413202,-0.008598337299343527,0.1644132511670856,0.003613590598770051,0.002149859890527558,2.0391005157193773,1.7582417582417582,-29.637106146696667,-30.021978021978022,37.24795379636186,37.8021978021978,8.326515010366206,7.868131868131868,-0.6673888812208234,-0.8791208791208791,0.0,1.4705882352941175
127,25.406405925750732,0.3228440200912836,-0.012241697817296192,0.16410216354052676,0.32292091052663485,-0.010097602138011572,0.16410216923004764,0.32179519734103457,-0.009081495189248614,0.15702171932103628,0.00782429550548002,0.002145473938552471,2.054193571748626,1.8461538461538463,-29.721073559410648,-29.318681318681318,37.43461791665153,38.15384615384615,8.175121163098302,8.835164835164836,-0.7350275662191721,-0.3516483516483517,0.0,1.4705882352941175
128,25.60658049583435,0.3229133285231821,-0.012284970697522917,0.16412906415667608,0.3229899782035647,-0.010160013672779735,0.16412906979541106,0.32177220013519836,-0.009044371359788887,0.15640604469034877,0.008452732560708115,0.0021263389970886436,2.0661924882036016,1.8461538461538463,-29.668379206623253,-29.23076923076923,37.32808388102921,38.15384615384615,8.277649348159972,8.923076923076923,-0.7324870107189622,-0.6153846153846154,0.0,1.4705882352941175
129,25.805233001708984,0.3229145791542669,-0.012074435043877845,0.16426212360093562,0.3229875705768318,-0.010023621934264782,0.1642621290429241,0.32245552672591665,-0.008558073006274865,0.16539846882987197,0.003723816804140083,0.0020521116339903313,2.03874224213793,1.7582417582417582,-29.666306741245997,-30.197802197802197,37.2285455159705,37.714285714285715,8.411828049028362,7.956043956043956,-0.7324540674769124,-1.1428571428571428,0.0,1.4705882352941175
130,26.037421941757202,0.3228008048952398,-0.01256240764826813,0.1642657432989506,0.32287867530005177,-0.010468267370120788,0.164265748855911,0.32301494517448753,-0.00868436998395606,0.16802833681680918,0.005407600407357281,0.0020955875797817373,2.129919385438676,1.7582417582417582,-29.72031822032572,-30.197802197802197,37.284523004826205,37.18681318681319,8.395534870314362,7.956043956043956,-0.7620461744197369,-0.3516483516483517,0.0,1.4705882352941175
131,26.23784303665161,0.32288283887296465,-0.01250831163141387,0.16422937086765624,0.3229597507549057,-0.010434172212437478,0.16422937637154283,0.32275666138942605,-0.009063984216811066,0.1613836509148927,0.004469612303756675,0.0020755649271862664,2.1239941436405596,1.8461538461538463,-29.68192616500707,-29.494505494505493,37.28858437858133,37.8021978021978,8.337182046783468,8.131868131868131,-0.8177712527101766,-0.7032967032967034,0.0,1.4705882352941175
132,26.433186292648315,0.32276084685505213,-0.012606227755069822,0.16416090809635772,0.3228390139512597,-0.010515093930701281,0.16416091364534027,0.32226146972749736,-0.008612714184868944,0.1579637868175119,0.007389305806070503,0.0020925942670232357,2.1410961172617533,1.7582417582417582,-29.741791380809538,-29.23076923076923,37.367697685894406,37.97802197802198,8.314292621568445,8.659340659340659,-0.814062865243585,-0.7032967032967034,0.0,1.4705882352941175
133,26.633258819580078,0.32282429098359583,-0.012344807019421766,0.1643407644755876,0.32290043175446514,-0.01025545526615574,0.16434077001984135,0.32210556046927025,-0.008607925926375541,0.1567053953375617,0.008531102843695381,0.002090738665136111,2.087428564828567,1.7582417582417582,-29.72321726178639,-29.142857142857142,37.276307065327735,38.15384615384615,8.387497593803527,8.659340659340659,-0.7814334299077776,-0.7032967032967034,0.0,1.4705882352941175
134,26.833154916763306,0.32284070908518897,-0.012298702165773676,0.16411014859364986,0.3229172316365545,-0.010181848152526402,0.16411015421088287,0.3222149271323494,-0.008623408882702218,0.15713988905429702,0.007904675946237723,0.0021182366757046146,2.07065685970635,1.7582417582417582,-29.716564354599008,-29.142857142857142,37.410226105796795,38.065934065934066,8.21057832877171,8.659340659340659,-0.7158508171622708,-0.6153846153846154,0.0,1.4705882352941175
135,27.03318500518799,0.32273459899417933,-0.012111175412380413,0.16420463589116116,0.32281011651332103,-0.00998060119882805,0.16420464154480183,0.32321226131812275,-0.008205201277519747,0.1689087170535759,0.006132958080771532,0.0021319121405873062,2.0303431923289503,1.6703296703296704,-29.793993004246637,-30.197802197802197,37.47041529313323,37.010989010989015,8.191088225768477,7.956043956043956,-0.6963848048164136,-0.7032967032967034,0.0,1.4705882352941175
136,27.23289942741394,0.3230001727293875,-0.012096106102519641,0.1642419269578024,0.3230760587975462,-0.009945268384312044,0.1642419326652138,0.3229007576643551,-0.008220364962170015,0.1671770163987123,0.004862715575508686,0.002152176011723395,2.021039647132662,1.6703296703296704,-29.663146968660214,-30.197802197802197,37.37707871556932,37.45054945054945,8.133334239113687,7.78021978021978,-0.6858560021736729,-0.5274725274725275,0.0,1.4705882352941175
137,27.433362007141113,0.3229200208126675,-0.012077683911524544,0.16417528356379246,0.32299600319334526,-0.009917867519151195,0.16417528929502953,0.3225898060727531,-0.008211279380726601,0.1596826996676683,0.005936449766817354,0.0021611525098823854,2.0151981475261382,1.6703296703296704,-29.705083348665415,-29.318681318681318,37.44641290338665,37.8021978021978,8.098064263070114,8.483516483516484,-0.6537369871012528,-0.5274725274725275,0.0,1.4705882352941175
138,27.6331787109375,0.32280755335188493,-0.012112878555377758,0.1643067446887679,0.3228834711796567,-0.009965630222363839,0.16430675038665465,0.3221905578617198,-0.008622660433927894,0.1569341906601615,0.008180272542825304,0.002148589984207575,2.025261041403612,1.7582417582417582,-29.759601084401698,-29.142857142857142,37.39680321804444,38.15384615384615,8.233576218197626,8.571428571428571,-0.6408906997969028,-0.6153846153846154,0.0,1.4705882352941175
139,27.829027891159058,0.3228085914120795,-0.012074378846933687,0.16408890488446787,0.32288395781050694,-0.009938106645654993,0.16408891055322866,0.3234460211862463,-0.008212015020547634,0.16836170376212733,0.0057949099469532615,0.0021376012284802254,2.0208851463699724,1.6703296703296704,-29.75154561338129,-30.021978021978022,37.492599857510534,37.010989010989015,8.121711414060297,7.868131868131868,-0.6830774180522398,-0.7032967032967034,0.0,1.4705882352941175
140,28.028937339782715,0.32286209937448995,-0.012511271932882456,0.16412839262628792,0.32294189879556456,-0.010336270731937047,0.16412839839781893,0.32355508123370563,-0.007777992161331508,0.1710858438230993,0.008443357650187954,0.0021764646038360297,2.101566001857981,1.5824175824175823,-29.703417390099748,-30.285714285714285,37.39859543469783,36.747252747252745,8.203528135551226,7.78021978021978,-0.7153917193373157,-0.7032967032967034,0.0,1.4705882352941175
141,28.228928804397583,0.3228590676520706,-0.012547268811898181,0.16397748809051774,0.3229384821285268,-0.010394982490745178,0.16397749380177307,0.3226810447937367,-0.00818969544576998,0.16198107613223042,0.004796436019220086,0.0021537509297329996,2.1134880003156633,1.6703296703296704,-29.69046632686027,-29.67032967032967,37.43324435471391,37.97802197802198,8.173533636793781,7.868131868131868,-0.71798325147684,-0.7032967032967034,0.0,1.4705882352941175
142,28.428975820541382,0.3227114952230062,-0.01230061988076694,0.16392862063635158,0.3227877510582574,-0.010194071871068853,0.1639286262262369,0.3218907543689805,-0.009917791071539724,0.1566582924933389,0.007694748858191029,0.002107927766695074,2.0735317617143836,2.021978021978022,-29.751552453628697,-29.23076923076923,37.43540787445319,38.24175824175824,8.290685311080397,8.659340659340659,-0.6967232328041626,-0.6153846153846154,0.0,1.4705882352941175
143,28.629093885421753,0.3227573715568141,-0.012358142304526355,0.16384748296188584,0.32283450375319306,-0.010235603809420684,0.16384748859420317,0.32320578294074376,-0.00995211119031545,0.1674830738422634,0.004382645267560817,0.002123939509250536,2.081552318805924,2.021978021978022,-29.708612214550776,-30.021978021978022,37.39295163353397,37.18681318681319,8.329547392704027,7.868131868131868,-0.6964897974593559,-0.7032967032967034,0.0,1.4705882352941175
144,28.828930616378784,0.32292987006259644,-0.012140771713203323,0.16373794169121172,0.32300487488466495,-0.010036547138552305,0.16373794727493163,0.322814175308094,-0.010810909603547003,0.16717775463689225,0.0036897468216925454,0.002105560919073576,2.0417991065048167,2.197802197802198,-29.634891264526107,-30.197802197802197,37.44264406171049,37.45054945054945,8.153265214794406,7.78021978021978,-0.7532561743503636,-0.7032967032967034,0.0,1.4705882352941175
145,29.025081396102905,0.32282367811849505,-0.012207716540026562,0.1638444553181909,0.3229002352097112,-0.010065299567122186,0.16384446100325728,0.32210762260534775,-0.010360648172348299,0.1567285253029783,0.007386532138574224,0.0021437843814237816,2.046898107782698,2.10989010989011,-29.68888359562358,-29.142857142857142,37.418305697410354,38.24175824175824,8.249584051612814,8.483516483516484,-0.7012786407837138,-0.6153846153846154,0.0,1.4705882352941175
146,29.22503900527954,0.32281650730585587,-0.012196917162589017,0.1639652497352659,0.3228938319809762,-0.010024962127965198,0.16396525549871377,0.3232495373263269,-0.010390609575038137,0.16688674188315883,0.00346199053575728,0.0021733310327337247,2.0393122519708666,2.10989010989011,-29.694324724887547,-29.934065934065934,37.35510978404808,37.27472527472528,8.332376712346894,7.78021978021978,-0.7190589409519323,-0.7032967032967034,0.0,1.4705882352941175
147,29.425219297409058,0.3229304770677617,-0.012090920425966717,0.1637739466526135,0.3230071260017741,-0.009914420406145631,0.1637739524281218,0.32343961205326366,-0.010834918292733638,0.170879279995558,0.007233430839270323,0.0021778492591085783,2.0172916083387555,2.197802197802198,-29.643558412352903,-30.285714285714285,37.45306644258592,36.83516483516483,8.134485807314947,7.6923076923076925,-0.7569188025978162,-0.7032967032967034,0.0,1.4705882352941175
148,29.624974727630615,0.3228959387099488,-0.012078173569651827,0.16403326220062395,0.3229724815573521,-0.00990244284689693,0.16403326797409085,0.3223095857391241,-0.009460733923308776,0.15718844773170526,0.007351617864290961,0.002177076706379791,2.01521393599114,1.934065934065934,-29.67137927620548,-29.142857142857142,37.350800402876224,38.24175824175824,8.276169227744456,8.307692307692308,-0.7601238440927892,-0.8791208791208791,0.0,1.4705882352941175
149,29.82491660118103,0.32289929724880523,-0.012148542297558716,0.16406730933514765,0.32297644263635644,-0.00997045597986035,0.16406731511486533,0.32314639318807503,-0.009076542570913483,0.16091105489394164,0.004411369494991855,0.0021794520912831864,2.028867123513318,1.8461538461538463,-29.66550983332926,-29.318681318681318,37.31777089304548,38.065934065934066,8.315808462767995,7.516483516483516,-0.7595348595053965,-0.7032967032967034,0.0,1.4705882352941175
150,30.025195598602295,0.3228422134031776,-0.012114318559606733,0.16409202133847145,0.3229188298895779,-0.009946644033017028,0.16409202709056064,0.3236210054566019,-0.010841877082372765,0.17030481796494623,0.006389402655757314,0.0021690281093723327,2.024639949569629,2.197802197802198,-29.70092099557705,-30.10989010989011,37.345492584588186,36.747252747252745,8.313600951876824,7.78021978021978,-0.7652352099006652,-0.7032967032967034,0.0,1.4705882352941175
151,30.225120067596436,0.3227927924743499,-0.012153583676176196,0.1639632448846003,0.3228699000028441,-0.009978412106878878,0.1639632506565834,0.3221694512516429,-0.0094923833393009,0.15835179259828355,0.006241709563454577,0.0021765378303312713,2.0305870755341906,1.934065934065934,-29.707614835530745,-29.318681318681318,37.365870080486985,37.97802197802198,8.335180038691073,8.659340659340659,-0.7363868390629442,-0.6153846153846154,0.0,1.4705882352941175
152,30.421077728271484,0.3226841748132962,-0.012190422597121902,0.16393942150903543,0.32276224394409586,-0.009991545863523205,0.16393942734392206,0.32173283610683123,-0.009912210249905946,0.15419203748743315,0.01005518732287037,0.00220026218409978,2.0337432594911347,2.021978021978022,-29.745166197774157,-28.967032967032967,37.34659638857666,38.505494505494504,8.443817101392968,8.659340659340659,-0.7270331424614642,-0.6153846153846154,0.0,1.4705882352941175
153,30.621093273162842,0.32275303623930096,-0.01219842321397384,0.16372639780877787,0.32283144640305517,-0.009987637737606211,0.16372640367526525,0.32312368310367917,-0.009087950664237362,0.16621491963957713,0.004000644883403428,0.0022121755301811883,2.031626573741839,1.8461538461538463,-29.68887700512833,-29.934065934065934,37.36418427231668,37.362637362637365,8.396734350262138,7.868131868131868,-0.6970187427578713,-0.6153846153846154,0.0,1.4705882352941175
154,30.820975303649902,0.32283293635141463,-0.012034863238411199,0.16383384527688677,0.3229101779217917,-0.009820041683102439,0.16383385115408422,0.32327128610634415,-0.010840583910900722,0.16937485481967146,0.005685177250798488,0.002216168040128991,1.997734728033478,2.197802197802198,-29.65351017224996,-30.197802197802197,37.28355165229424,37.010989010989015,8.448905208509634,7.78021978021978,-0.7125720491407952,-0.6153846153846154,0.0,1.4705882352941175
155,31.021190404891968,0.32277448338562,-0.011918729472089001,0.16359569567987775,0.32285144981763686,-0.009683089222295039,0.1635957016123192,0.3214911568979187,-0.009023175487973411,0.1515026746963983,0.012500892618362801,0.002236964719925509,1.9721067194014237,1.8461538461538463,-29.68835592034386,-28.703296703296704,37.45611632981563,38.76923076923077,8.271795075668004,8.747252747252746,-0.768497026478649,-0.7032967032967034,0.0,1.4705882352941175
156,31.22117853164673,0.3227447911696206,-0.011783571600715873,0.16374961873073088,0.32282030418238383,-0.00955910775563158,0.1637496246335149,0.32232226187062907,-0.008626710207021226,0.15984456281326398,0.005039222815677954,0.002225745181555744,1.944613534495151,1.7582417582417582,-29.71164138587259,-29.582417582417584,37.39776309290773,38.32967032967033,8.362672567156,7.868131868131868,-0.6704992172819306,-0.6153846153846154,0.0,1.4705882352941175
157,31.421075582504272,0.3226762991747389,-0.011823899518509606,0.1636359133903236,0.32275234469233155,-0.009590013449704272,0.16363591931811017,0.32365397135220025,-0.00866760537506371,0.1690609408107172,0.006352082974785156,0.0022351800574413735,1.9500614455629008,1.7582417582417582,-29.74056116558126,-30.021978021978022,37.466436120429734,37.010989010989015,8.324581556115925,7.604395604395604,-0.625653308271551,-0.6153846153846154,0.0,1.4705882352941175
158,31.617280960083008,0.3225025358127345,-0.011710409739350352,0.16356876252667785,0.32257724916832253,-0.009497579335377043,0.16356876839859164,0.32180394097630344,-0.008550162965212289,0.1523922397900808,0.011635714627843413,0.0022140913446121358,1.9341457569695468,1.7582417582417582,-29.814354483060086,-28.703296703296704,37.49649034820169,38.68131868131868,8.417430669994715,8.571428571428571,-0.6804985105118867,-1.054945054945055,0.0,1.4705882352941175
159,31.817060470581055,0.3223095779885824,-0.011745693459506823,0.16336389421660194,0.322384256073834,-0.009551795639500118,0.16336390003827667,0.32174620894931766,-0.008609012153963664,0.15277787681598032,0.011055311786340978,0.0021951684356971124,1.9499007545415044,1.7582417582417582,-29.845860440797946,-28.791208791208792,37.4170322644179,38.68131868131868,8.698813923124067,8.571428571428571,-0.8061036833120155,-0.6153846153846154,0.0,1.4705882352941175
160,32.017133951187134,0.3222510420548025,-0.01129980210165719,0.16301063778637725,0.322321108247395,-0.009161739551309167,0.1630106434598889,0.32174620894931766,-0.008609012153963664,0.15277787681598032,0.010592667467842123,0.0021392103077017225,1.8773239325411515,1.7582417582417582,-29.83014981042626,-28.791208791208792,37.433727532442994,38.68131868131868,8.775584479467025,8.571428571428571,-1.0121489550495706,-0.6153846153846154,0.0,1.4705882352941175
161,32.21713185310364,0.3221064888975915,-0.011145713410933657,0.16277739852455042,0.32217561227394864,-0.009005054552066672,0.16277740420495146,0.3215543394589082,-0.009037339683056624,0.15232234749094553,0.010679803410846244,0.002141774589268669,1.8498407838065287,1.8461538461538463,-29.900807918715536,-28.791208791208792,37.59663747277636,38.68131868131868,8.675064464054156,8.747252747252746,-1.1271937865428359,-0.6153846153846154,0.0,1.4705882352941175
162,32.41691040992737,0.32201903033319584,-0.010796866981322263,0.16254584748111672,0.3220842525985771,-0.00870919990109214,0.16254585302090002,0.32278784983603337,-0.008628885695239237,0.16425279236993684,0.0028644174168962655,0.0020886856589273366,1.7897979269366515,1.7582417582417582,-29.928612031678423,-29.846153846153847,37.673335300373076,37.53846153846154,8.66471014636697,8.131868131868131,-1.0965873409002722,-0.7032967032967034,0.0,1.4705882352941175
163,32.61708092689514,0.32184413174584076,-0.010561054621721222,0.16247883184034517,0.3219074474109595,-0.008480776083511157,0.16247883736052254,0.322135113639221,-0.009043957910776388,0.16284174058551443,0.0015868067462533348,0.0020812418576458876,1.743687132032234,1.8461538461538463,-30.013180032750352,-30.021978021978022,37.73738480266058,37.97802197802198,8.711017102032946,8.131868131868131,-1.059415650323249,-0.7032967032967034,0.0,1.4705882352941175
164,32.81307101249695,0.32189889268628186,-0.01025049158838424,0.16235732585839013,0.32196016975466973,-0.00815857617781151,0.1623573314094468,0.3211307540902165,-0.008578000473535546,0.15359858496448908,0.008950017065822146,0.002092812692080374,1.678209379471161,1.7582417582417582,-29.971103747049096,-29.142857142857142,37.715717657757644,38.505494505494504,8.727603021399224,9.186813186813186,-1.0591580606154003,-0.7032967032967034,0.0,1.4705882352941175
165,33.01291108131409,0.3219214309936558,-0.009946884133430086,0.16215918887849,0.3219796466321021,-0.007898057738005056,0.16215919431520676,0.32274527576455525,-0.010735513634777052,0.16899125836645748,0.006926603076930945,0.0020496533021902973,1.6279348348974951,2.197802197802198,-29.941006942528357,-30.373626373626372,37.73428583268411,37.010989010989015,8.717511376806414,8.219780219780219,-1.1493704670079155,-1.2307692307692308,0.0,1.4705882352941175
166,33.212998151779175,0.32164443526328756,-0.009895372972066609,0.16212646590198823,0.32170223789753716,-0.007852835933361682,0.16212647132201569,0.32152090561373875,-0.00940987022812265,0.16184477980199008,0.0005747343278654367,0.0020433547658292384,1.6213677695243336,1.934065934065934,-30.080221670866273,-30.197802197802197,37.83395405654561,38.24175824175824,8.775253492972649,8.307692307692308,-1.184856444094558,-1.054945054945055,0.0,1.4705882352941175
167,33.41289448738098,0.3215562006074118,-0.009828133524628203,0.16218602260864484,0.32161271657023766,-0.007826295255265044,0.162186027920675,0.32077669225604544,-0.008939536743070006,0.15350701174627512,0.00875913620508193,0.002002635890712348,1.6175092442916525,1.8461538461538463,-30.146876727883225,-29.318681318681318,37.90955678928949,38.68131868131868,8.721410123003388,9.186813186813186,-1.2207546353470988,-1.1428571428571428,0.0,1.4705882352941175
