AgRoboticsResearch/lerobot/batch_logs/rs435_2025-12-03-09-24-19_segment_3_log.csv
step,time,target_x,target_y,target_z,ik_x,ik_y,ik_z,actual_x,actual_y,actual_z,pos_error,ik_error,ik_shoulder_pan,actual_shoulder_pan,ik_shoulder_lift,actual_shoulder_lift,ik_elbow_flex,actual_elbow_flex,ik_wrist_flex,actual_wrist_flex,ik_wrist_roll,actual_wrist_roll,ik_gripper,actual_gripper
0,0.06390810012817383,0.23274385150692278,0.0007094371302479891,0.19437494214627912,0.23274385150692273,0.0007094371302479739,0.1943749421462791,0.23274385150692278,0.0007094371302479891,0.19437494214627912,0.0,6.389254089121546e-17,-0.21978021978021745,-0.21978021978021978,-80.39560439560431,-80.3956043956044,51.208791208791105,51.20879120879121,40.48351648351658,40.48351648351648,0.17582417582418128,0.17582417582417584,0.0,0.9096816114359974
1,2.0235061645507812,0.2351589128789449,-0.0002545073960281213,0.19450533669310527,0.23515891291822288,-4.600237529453401e-05,0.19450533724638924,0.23278178966397742,0.0007095900819943856,0.1916674778763369,0.0038253942790484525,0.00020850502073432506,0.0003732919892005467,-0.21978021978021978,-79.08825822664355,-80.48351648351648,51.00938726196207,51.73626373626374,39.3910469951861,40.65934065934066,0.2509468308781119,0.17582417582417584,0.0,0.9096816114359974
2,4.015536546707153,0.2375559568993444,-0.0014899255580112776,0.19433713556539728,0.23755819741926235,-0.0010244591241234668,0.19433713680054787,0.23477088585160094,0.0007172363481744409,0.19027582974445778,0.005396516412677091,0.00046547182622288114,0.27615326340958996,-0.21978021978021978,-77.9388438503085,-79.34065934065934,51.03259077751542,51.73626373626374,38.169920373324274,39.956043956043956,0.41004144917925034,0.17582417582417584,0.0,0.9096816114359974
3,6.011805534362793,0.24020654579399645,-0.0027791869467067585,0.1944254538303723,0.24021372584724088,-0.0020322594722524895,0.1944254558124013,0.2370232686972656,-0.0001863859581410994,0.19051342647730082,0.0056709635911419585,0.0007469619838138712,0.5511175463193957,0.04395604395604396,-76.51863399980721,-78.28571428571429,50.82376040038636,51.73626373626374,36.94779741288346,38.72527472527472,0.616971060104387,0.17582417582417584,0.0,0.9096816114359974
4,8.004420280456543,0.24296183174964156,-0.0038907811743764346,0.1944670764039246,0.24297539257790168,-0.002896533950311296,0.1944670790422354,0.239826425769647,-0.0014706056327955328,0.18940501324639927,0.006427480355646949,0.0009943396998165644,0.7817879148632195,0.3956043956043956,-75.02179206035353,-76.79120879120879,50.57259593820181,51.73626373626374,35.70968366070265,37.494505494505496,0.7311583977583531,0.5274725274725275,0.0,0.9096816114359974
5,10.031847953796387,0.24611905987977045,-0.005240747431590885,0.19378464421864444,0.24614349941426641,-0.0039001400028999345,0.1937846477760483,0.24337390061333575,-0.0021227864742604198,0.18635368193032822,0.008513329575430944,0.0013408301789266219,1.0447600288830736,0.5714285714285714,-73.56851718747689,-74.68131868131869,50.748800778957786,51.73626373626374,33.999962666987244,36.26373626373626,0.7939132633235633,0.5274725274725275,0.0,0.9096816114359974
6,12.02363920211792,0.24899859965472104,-0.006091332692121556,0.1937831963151267,0.24903123537742805,-0.004538125487507362,0.19378320043668024,0.24642113462053977,-0.003427429243837948,0.18674378250675638,0.007955693203591937,0.0015535500348810892,1.2040744414869422,0.9230769230769231,-71.9892336463443,-73.27472527472527,50.447156313187975,51.73626373626374,32.72044129312872,34.505494505494504,0.7986023566955223,0.5274725274725275,0.0,0.9096816114359974
7,14.019624710083008,0.2519083484658519,-0.0068290783923608215,0.19345738374796123,0.251948967172377,-0.0050867870577066925,0.193457388371264,0.249078566022961,-0.0034702252714816986,0.18522754829315488,0.009328437949352548,0.0017427647500887818,1.335879072669079,0.9230769230769231,-70.44783428310528,-71.86813186813187,50.25623463817105,51.824175824175825,31.378499449157808,33.27472527472528,0.7758172378057018,0.5274725274725275,0.0,0.9096816114359974
8,16.01168394088745,0.25499772940327964,-0.007617197024255714,0.19321084361252638,0.2550480443025684,-0.00564570397420755,0.19321084884403322,0.252079950642573,-0.0035185602798097296,0.18346257119260087,0.01097000780457489,0.001972134994240003,1.4623030955975913,0.9230769230769231,-68.8475896231359,-70.1978021978022,50.07777389506341,51.824175824175825,29.886117152880608,31.956043956043956,0.843219577999589,0.5274725274725275,0.0,0.9096816114359974
9,18.00763964653015,0.2582504157636776,-0.008229974791527862,0.19297272696513848,0.25830760453737933,-0.006132265711028302,0.1929727325315692,0.2549628644561506,-0.004891957468272891,0.1826432101716083,0.011342366174559635,0.002098488489908583,1.5620013225459184,1.2747252747252746,-67.10976940249311,-68.7032967032967,49.783683409183496,51.824175824175825,28.402931616140766,30.46153846153846,0.9969123666304053,0.5274725274725275,0.0,0.9096816114359974
10,20.03211784362793,0.2610149301782123,-0.008990102924212038,0.19286630174605218,0.26108170372714073,-0.0067288422142139735,0.19286630774647956,0.2581538716313979,-0.005011453617958572,0.18131074389294333,0.012551741855495463,0.0022622463847807237,1.691777857768314,1.2747252747252746,-65.50260399109604,-66.94505494505495,49.28932375392088,51.73626373626374,27.36519125432816,28.967032967032967,1.1211067034517233,0.8791208791208791,0.0,0.9096816114359974
11,22.027891159057617,0.2641807484731579,-0.009156261437886504,0.19222217769951813,0.26424977611924055,-0.006822550657886688,0.19222218389219728,0.2606460057383447,-0.005747954687941335,0.17915843899663225,0.013956082186642326,0.0023347314236651304,1.694591294409145,1.4505494505494505,-63.861840221395326,-65.45054945054945,49.112874961771425,51.73626373626374,25.874274579525252,27.912087912087912,1.041975808853975,0.8791208791208791,0.0,0.9096816114359974
12,24.01978302001953,0.26734651418774263,-0.009488454682973253,0.19207539803691956,0.2674200111452512,-0.00706278692645103,0.19207540447361346,0.2637417140025783,-0.005826321697939801,0.1777396332435088,0.015228918365630116,0.0024267809682449715,1.7358753219441312,1.4505494505494505,-62.135381221589455,-63.78021978021978,48.674946667536105,51.73626373626374,24.538422491316492,26.32967032967033,0.9087105936642158,0.8791208791208791,0.0,0.9096816114359974
13,26.01572322845459,0.27039772122070327,-0.009756791696218327,0.19183427661438657,0.27047443279664024,-0.007257894601527502,0.19183428324540008,0.26664585038449495,-0.0058998445226234805,0.17844535552702892,0.014429684132197144,0.0025000742700529814,1.7586860680814638,1.4505494505494505,-60.39854894647149,-62.1978021978022,48.10610366903472,51.20879120879121,23.43265318008497,25.01098901098901,0.9830027153250036,0.8791208791208791,0.0,0.9096816114359974
14,28.00774335861206,0.2736492588348116,-0.009842335422941764,0.19105817524542132,0.27372697137064317,-0.007290793503843329,0.19105818201613195,0.2696551010621162,-0.005976029371663236,0.17951164988298626,0.012814986021868775,0.0025527250935397914,1.7448857832159421,1.4505494505494505,-58.737418958311956,-60.43956043956044,47.941325219010935,50.32967032967033,21.845348123562076,23.956043956043956,0.9082473340467985,0.8791208791208791,0.0,0.9096816114359974
15,30.03645157814026,0.27695517403190684,-0.010111123919311425,0.1906957010880317,0.27703620804461154,-0.007480222907437694,0.19069570806932767,0.27285789037938,-0.006057106896471008,0.1779635626326944,0.013976055845503132,0.002632148674665241,1.7645640053458151,1.4505494505494505,-56.99467422215704,-58.68131868131868,47.56637122291048,50.24175824175824,20.351836857717178,22.373626373626372,0.9571788727987282,0.8791208791208791,0.0,0.9096816114359974
16,32.02829623222351,0.2795104410561172,-0.01032492057819964,0.1902891309862581,0.279593143372523,-0.007686101010457042,0.19028913798856656,0.27584216090589897,-0.0061326497447848904,0.17541035018373202,0.015887401680916985,0.002640115221782782,1.795461798915667,1.4505494505494505,-55.55441511444106,-56.92307692307692,47.091039865879424,50.24175824175824,19.438216375722142,20.967032967032967,0.9366178334333033,0.8791208791208791,0.0,0.9096816114359974
17,34.02400612831116,0.2823806613496571,-0.010818166330534775,0.18979028833950837,0.28246799445000625,-0.008174561088119063,0.18979029535451597,0.2784873658679036,-0.006199615636846846,0.17542286633894427,0.01558562078201252,0.002645047399989959,1.8924751578537353,1.4505494505494505,-53.96042305968659,-55.42857142857143,46.60150376323446,49.714285714285715,18.350530775699717,19.912087912087912,0.830876974679974,0.8791208791208791,0.0,0.9096816114359974
18,36.015801191329956,0.2852180915335902,-0.011044974558785756,0.18909022277324677,0.2853069338790914,-0.008395192102674816,0.18909022980464602,0.2815131682923921,-0.007766861760182292,0.17571308222432053,0.014262551279811912,0.002651271398238386,1.9206655470999545,1.8021978021978022,-52.394952056539715,-53.67032967032967,46.15595915335768,48.92307692307692,17.26664741820872,18.857142857142858,0.8703139578307747,0.8791208791208791,0.0,0.9096816114359974
19,38.007808685302734,0.28796222840955366,-0.011477295252519632,0.1883006359560487,0.2880571175248947,-0.008727897657732629,0.1883006432517843,0.2839529385799794,-0.00784360989207989,0.17459517670634034,0.014734913894611614,0.0027510345469448387,1.9770095889197024,1.8021978021978022,-50.91455912428685,-52.26373626373626,45.827648281173005,48.65934065934066,16.08975086922546,17.802197802197803,0.8350199782693837,0.8791208791208791,0.0,0.9096816114359974
20,40.00425457954407,0.29109283044880907,-0.011548175266296862,0.18757305599337626,0.29118708578520713,-0.008807525052503474,0.18757306326589998,0.2867556495697935,-0.00793177601100231,0.17365767530423856,0.015017566423179876,0.002742270530574645,1.9700794937560633,1.8021978021978022,-49.120845398291294,-50.68131868131868,45.08908892380094,48.30769230769231,15.18114500267615,16.571428571428573,0.850708046973934,0.8791208791208791,0.0,0.9096816114359974
21,42.03202843666077,0.2935114544702988,-0.011985586258812147,0.1864236085181567,0.2936106520890928,-0.009204189824935784,0.18642361589880366,0.289630274354975,-0.008022207230840305,0.1737802617293566,0.013806742933393588,0.002783164797493857,2.0429325084891596,1.8021978021978022,-47.76644415871125,-49.010989010989015,44.771399205290656,47.42857142857143,14.244894292459309,15.780219780219781,0.770725979636824,0.8791208791208791,0.0,0.9096816114359974
22,44.02414846420288,0.2964009652228128,-0.012469602793157532,0.18493335355710083,0.29650603009894766,-0.009626407354046325,0.18493336110173605,0.2920926687954144,-0.00809966295106263,0.17110606498275663,0.015127845241410023,0.0028451360131348607,2.1166560443621596,1.8021978021978022,-46.19572037606925,-47.42857142857143,44.556502651782914,47.252747252747255,12.90327622725002,14.813186813186814,0.676295510420846,0.8791208791208791,0.0,0.9096816114359974
23,46.015902042388916,0.2997871032052067,-0.012556427034753386,0.18430785427446927,0.2998914821040497,-0.00971899100563073,0.18430786180382147,0.29478544569437143,-0.00818437256996592,0.17086304806150185,0.014996474659166073,0.002839355239124495,2.1071148059793225,1.8021978021978022,-44.25666917275455,-46.02197802197802,43.57769632233063,46.9010989010989,12.092712333717007,13.494505494505495,0.7561000286914643,0.8791208791208791,0.0,0.9096816114359974
24,48.01182746887207,0.3021853025282139,-0.01202096502971977,0.18344682539126678,0.30228110552819876,-0.009265050439514297,0.1834468327042958,0.2982519322118978,-0.00829342138222373,0.17046213235871868,0.014070118579413891,0.0027575792723631676,1.9913160975590536,1.8021978021978022,-42.9314649486929,-44.0,43.10385257639679,45.84615384615385,11.30932335978027,12.615384615384615,0.692976786012639,0.8791208791208791,0.0,0.9096816114359974
25,50.00431036949158,0.3052998239200021,-0.012145376746295303,0.1823438081691467,0.305396977671826,-0.009340987276739552,0.18234381561080745,0.30035247888960076,-0.008359493983893544,0.16779083935625866,0.015830288449973973,0.002806071835948614,1.9844929812223295,1.8021978021978022,-41.196422048811016,-42.59340659340659,42.45847240935586,45.67032967032967,10.290421748925787,11.824175824175825,0.6886732385518426,0.8791208791208791,0.0,0.9096816114359974
26,52.03201961517334,0.3079362149787939,-0.011767204004299968,0.18125792522777576,0.3080284695153902,-0.008958061108155727,0.18125793268205004,0.3035217477671981,-0.008459192860868818,0.1674032102314952,0.014912531177351496,0.002810657344916988,1.8813264563331464,1.8021978021978022,-39.72407994191918,-40.83516483516483,41.89722758354916,44.879120879120876,9.47909865176547,10.76923076923077,0.7696799802990516,0.8791208791208791,0.0,0.9096816114359974
27,54.02397298812866,0.3107756132263708,-0.010985296487777753,0.18022770793975862,0.31085674111888084,-0.008290289846579016,0.1802277150911637,0.3059958670843395,-0.008537020779397652,0.16599269248058768,0.015214325231483089,0.002696227462789361,1.7246189261085503,1.8021978021978022,-38.126724245516705,-39.34065934065934,41.13135226336208,44.35164835164835,8.80945308633171,9.978021978021978,0.6543955700864849,0.8791208791208791,0.0,0.9096816114359974
28,56.02000379562378,0.31291253081758846,-0.010887794056910687,0.17941294124144705,0.31299258123544715,-0.008175788255097606,0.1794129484379608,0.30856596127160807,-0.008617869438541738,0.1651593197452412,0.015073518180843617,0.0027131869708000135,1.6910741349251048,1.8021978021978022,-36.917578919006885,-37.84615384615385,40.547500540143126,43.64835164835165,8.303133371091333,9.274725274725276,0.5229307438891974,0.8791208791208791,0.0,0.9096816114359974
29,58.0119743347168,0.31529377681919224,-0.010193032168159435,0.17851659535629172,0.315365581424238,-0.007546592784070093,0.17851660237882,0.31050801465599126,-0.008678957968274975,0.16318985545694098,0.016127767858815173,0.002647413325307227,1.5545608392277457,1.8021978021978022,-35.62050917784217,-36.527472527472526,40.02564441320984,43.120879120879124,7.553111975154932,8.923076923076923,0.2341739365389192,0.8791208791208791,0.0,0.9096816114359974
30,60.00809979438782,0.3173310142668627,-0.009963063391939904,0.17813645156155333,0.31739843435741244,-0.007426759183584326,0.17813645829182959,0.3128121757956081,-0.008678652188505189,0.16212234907801149,0.016688951184007355,0.0025372001312425553,1.523041510182506,1.8021978021978022,-34.51750630329493,-35.20879120879121,39.41821925798909,42.68131868131868,7.064177175893754,8.043956043956044,0.07734612509544082,0.3516483516483517,0.0,0.9096816114359974
31,62.0364670753479,0.31917795607738125,-0.01055867683351391,0.17766231811038918,0.3192494615604471,-0.008066534635455716,0.1776623247234781,0.3145600289877032,-0.007886751063602676,0.16117663899427148,0.017327494159430485,0.002493167818157161,1.6438636888053335,1.6263736263736264,-33.478780287338424,-34.15384615384615,38.79353582458344,42.15384615384615,6.731985012232007,7.6923076923076925,0.06863085007101197,0.3516483516483517,0.0,0.9096816114359974
32,64.02810621261597,0.3226933936049017,-0.01031808986244246,0.17813366343304443,0.32276016322823053,-0.00790666244933812,0.17813366983195056,0.3164844075216646,-0.007941377864907938,0.16107109164957747,0.018312062253253148,0.002412351622651953,1.586410820390228,1.6263736263736264,-31.63525854455834,-33.0989010989011,37.27230609487595,41.45054945054945,6.394754931649038,7.34065934065934,0.24495583501544096,0.3516483516483517,0.0,0.9096816114359974
33,66.02008080482483,0.3257283405918432,-0.00986138143202617,0.17776705658110087,0.3257892407039564,-0.00751887412395131,0.17776706279712234,0.32007061765548883,-0.00804317903657071,0.16103126824353453,0.01775956925308752,0.0023432988098145246,1.4895931079600544,1.6263736263736264,-30.050690057429094,-31.076923076923077,36.308932673022575,39.69230769230769,5.712995255249755,7.34065934065934,0.34341612214061773,0.3516483516483517,0.0,0.9096816114359974
34,68.01621723175049,0.3280859830867549,-0.010169883597542586,0.1771850946826469,0.3281493663141814,-0.007801266310860729,0.17718510096795312,0.32339587733993364,-0.008137576588648531,0.16247873649018924,0.01556933958071544,0.0023694651895156903,1.533208258360985,1.6263736263736264,-28.750638670689916,-29.582417582417584,35.387575455708834,38.637362637362635,5.480268441516411,6.285714285714286,0.34810701504048636,0.3516483516483517,0.0,0.9096816114359974
35,70.00809001922607,0.330679522815625,-0.009731135549860583,0.17630037797447606,0.3307376738860159,-0.0074378489108862245,0.17630038405988674,0.32535615425893843,-0.008193217573949894,0.16054216644793345,0.016704031699150027,0.002294023791402989,1.452905337502432,1.6263736263736264,-27.32886062055151,-28.263736263736263,34.44776410403408,37.84615384615385,5.1669295245466715,6.285714285714286,0.17935271800224376,0.3516483516483517,0.0,0.9096816114359974
36,72.00448846817017,0.33312457261188694,-0.009636363675297759,0.1752372736777086,0.3331817881934337,-0.0073452311172569566,0.17523727975740325,0.32817028982990293,-0.00827310289840337,0.16085367201177816,0.015273879491270022,0.002291846858174273,1.430890873290325,1.6263736263736264,-26.017514872117523,-26.857142857142858,33.8455548945223,36.79120879120879,4.451852199555851,5.758241758241758,-0.12093155673200662,0.3516483516483517,0.0,0.9096816114359974
37,74.0284481048584,0.33533989331989156,-0.009354630100385692,0.17450403410008675,0.33539406922154125,-0.0070975126823289575,0.17450404008951967,0.33028389203663366,-0.008284578355089377,0.1580690020883871,0.01722841945564101,0.0022577674962782437,1.375326249934102,1.6263736263736264,-24.857952742734795,-25.45054945054945,33.27308580537646,36.43956043956044,3.79942956972972,5.054945054945055,-0.23107318092842954,0.0,0.0,0.9096816114359974
38,76.02426528930664,0.3381184898592247,-0.009326794537931652,0.17397660929940056,0.33817114233303686,-0.0071135926439833495,0.17397661517230034,0.3325171742048965,-0.008347973377714746,0.15774273909775985,0.017200911884165584,0.002213828111306156,1.3631824005774988,1.6263736263736264,-23.41430649768563,-24.307692307692307,32.32430717886596,35.824175824175825,3.2615760049217983,4.351648351648351,-0.13750703018284952,0.0,0.0,0.9096816114359974
39,78.01627898216248,0.3401840553974577,-0.009534905280176335,0.17410789272967492,0.34023655306222067,-0.007393847146401084,0.17410789841113564,0.33523961041092976,-0.008425250664086538,0.15617744888098511,0.018632758416370587,0.002141701645197809,1.4049446570467632,1.6263736263736264,-22.371778982058263,-22.725274725274726,31.393398107794503,34.94505494505494,3.1256826590082643,3.8241758241758244,-0.05557539217289444,0.0,0.0,0.9096816114359974
40,80.012216091156,0.34253472846134403,-0.009622260348519898,0.17366106288174638,0.3425855522037523,-0.007587951163498018,0.17366106827994066,0.337352556252982,-0.008485231392235108,0.15648318335145406,0.017978522987214095,0.0020349439582175,1.4315020393309559,1.6263736263736264,-21.13699068556785,-21.67032967032967,30.41249473605979,33.89010989010989,2.943169650780169,3.8241758241758244,-0.08725378039610335,0.0,0.0,0.9096816114359974
41,82.00440192222595,0.34429603364815686,-0.010615899509921051,0.17320147238094893,0.34435287311654295,-0.00859971272700286,0.173201477731054,0.33998746599675483,-0.008560029807434678,0.15707763806083413,0.016815718498560246,0.0020169878206893178,1.6151926955801321,1.6263736263736264,-20.17026447706617,-20.439560439560438,29.550645819454108,32.83516483516483,3.0030577376877736,3.3846153846153846,-0.1784114994465242,0.0,0.0,0.9096816114359974
42,84.0328848361969,0.34674504548799207,-0.011076304219828435,0.17272539480175808,0.34680371264602017,-0.009094391275573436,0.1727254000609149,0.3416417015025921,-0.008606987714511787,0.15682908638765433,0.016877033656216157,0.001982781065590519,1.695895740593323,1.6263736263736264,-18.83777078536274,-19.560439560439562,28.16557597237992,32.043956043956044,3.3759982623500573,3.3846153846153846,-0.24045392669633875,0.0,0.0,0.9096816114359974
43,86.02425360679626,0.34934687796290714,-0.011847053850223152,0.17171535184875772,0.349411545743678,-0.009806830739227178,0.17171535726264492,0.3443203203195445,-0.008683024731121924,0.15660866917881666,0.016232351132810834,0.002041247722482802,1.8158261177202772,1.6263736263736264,-17.443837632122154,-18.153846153846153,27.20713154480768,30.63736263736264,3.0144233017923594,3.5604395604395602,-0.35247939799178607,0.0,0.0,0.9096816114359974
44,88.02033805847168,0.3520542510837864,-0.01207045040223374,0.1711012684484845,0.35211977762355917,-0.010030358645443781,0.17110127386202317,0.3467523080500238,-0.008703546537087973,0.1546172240586945,0.017640021570705763,0.0020411438223619212,1.840036562121228,1.6263736263736264,-16.058432853281694,-16.65934065934066,26.186188140545333,29.582417582417584,2.6123595146179754,3.5604395604395602,-0.3149669528567154,-0.3516483516483517,0.0,0.9096816114359974
45,90.01225328445435,0.3542461784510797,-0.013038692410343939,0.17100229391845514,0.35431717948587144,-0.011008296365034493,0.17100229930626537,0.34908492496383203,-0.008769760308411378,0.15389386952428596,0.01837281971014628,0.002031637085647622,2.0031257876490485,1.6263736263736264,-14.926014843172856,-15.428571428571429,24.998561235175817,28.703296703296704,2.7752759258754676,3.208791208791209,-0.25445213372103975,-0.3516483516483517,0.0,0.9096816114359974
46,92.00824904441833,0.3567789999231769,-0.013643197970200558,0.1708102663075322,0.35685240680409913,-0.011639445800684597,0.17081027162464094,0.351489213161786,-0.009798312558965763,0.15436399174941345,0.01769872692166126,0.0020050963385919696,2.0984385269183807,1.8021978021978022,-13.628647309252548,-14.285714285714286,23.66473095251498,27.47252747252747,2.9204051252551095,3.208791208791209,-0.16175669113555693,-0.3516483516483517,0.0,0.9096816114359974
47,94.0323441028595,0.3591621173149653,-0.014308316274194741,0.1704615182914509,0.35924198744038327,-0.012209278764579645,0.1704615238614065,0.35409414217478496,-0.00988025692021601,0.15347660502801627,0.018269629449724524,0.0021005565223855454,2.1794633515487227,1.8021978021978022,-12.427297395972623,-12.87912087912088,22.656433688714838,26.24175824175824,2.674215820417575,3.208791208791209,0.04518494837845885,-0.3516483516483517,0.0,0.9096816114359974
48,96.02859020233154,0.361472652512382,-0.015252505928407364,0.17019712671640078,0.3615597605605283,-0.013097906639955477,0.17019713243379372,0.3560374647223683,-0.009977771720584453,0.15210775556155495,0.01961095194154682,0.0021563594101823404,2.315506199803793,1.8021978021978022,-11.260321298360221,-11.736263736263735,21.611407906241897,25.36263736263736,2.511851944055687,3.208791208791209,0.2841155416671765,-0.08791208791208792,0.0,0.9096816114359974
49,98.02032709121704,0.3631899835654684,-0.01557392813222724,0.1701610161511932,0.3632763331240961,-0.013488440255262794,0.17016102168519376,0.35847370603939355,-0.011563801976951794,0.1519832871324144,0.019202974190586607,0.002087274761805808,2.371338118856114,2.065934065934066,-10.361553518393489,-10.505494505494505,20.401686239009372,24.13186813186813,3.0698744368964075,3.208791208791209,0.31636430044952457,0.17582417582417584,0.0,0.9096816114359974
